(Created with emc2b post processor 2015/09/13 18:08)
(tool change to 3 mm End Mill)
T1 M06 G43
G17 G90 G21
G00 Z7 S20000 M03
X0 Y0.27
G01 Z4 F20
G02 X0.065 Y-0.262 I0.002 J-0.269 F30
X-0.126 Y0.239 I-0.065 J0.261
X0 Y0.27 I0.126 J-0.244
G01 X0 Y1.278
G02 X0 Y-1.278 I0.001 J-1.278
X0 Y1.278 I-0.001 J1.278
G01 X0 Y2.284
G02 X0 Y-2.284 I0 J-2.284
X0 Y2.284 I0 J2.284
G01 X0 Y3.288
G02 X0 Y-3.288 I0 J-3.288
X0 Y3.288 I0 J3.288
G01 X0 Y4.291
G02 X0 Y-4.291 I0 J-4.291
X0 Y4.291 I0 J4.291
G01 X0 Y5.294
G02 X0 Y-5.294 I0 J-5.294
X0 Y5.294 I0 J5.294
G01 X0 Y6.297
G02 X0 Y-6.297 I0 J-6.297
X0 Y6.297 I0 J6.297
G00 Z7
X0 Y0.27
Z6
G01 Z3 F20
G02 X0.065 Y-0.262 I0.002 J-0.269 F30
X-0.126 Y0.239 I-0.065 J0.261
X0 Y0.27 I0.126 J-0.244
G01 X0 Y1.278
G02 X0 Y-1.278 I0.001 J-1.278
X0 Y1.278 I-0.001 J1.278
G01 X0 Y2.284
G02 X0 Y-2.284 I0 J-2.284
X0 Y2.284 I0 J2.284
G01 X0 Y3.288
G02 X0 Y-3.288 I0 J-3.288
X0 Y3.288 I0 J3.288
G01 X0 Y4.291
G02 X0 Y-4.291 I0 J-4.291
X0 Y4.291 I0 J4.291
G01 X0 Y5.294
G02 X0 Y-5.294 I0 J-5.294
X0 Y5.294 I0 J5.294
G01 X0 Y6.297
G02 X0 Y-6.297 I0 J-6.297
X0 Y6.297 I0 J6.297
G00 Z7
X0 Y0.27
Z5
G01 Z2 F20
G02 X0.065 Y-0.262 I0.002 J-0.269 F30
X-0.126 Y0.239 I-0.065 J0.261
X0 Y0.27 I0.126 J-0.244
G01 X0 Y1.278
G02 X0 Y-1.278 I0.001 J-1.278
X0 Y1.278 I-0.001 J1.278
G01 X0 Y2.284
G02 X0 Y-2.284 I0 J-2.284
X0 Y2.284 I0 J2.284
G01 X0 Y3.288
G02 X0 Y-3.288 I0 J-3.288
X0 Y3.288 I0 J3.288
G01 X0 Y4.291
G02 X0 Y-4.291 I0 J-4.291
X0 Y4.291 I0 J4.291
G01 X0 Y5.294
G02 X0 Y-5.294 I0 J-5.294
X0 Y5.294 I0 J5.294
G01 X0 Y6.297
G02 X0 Y-6.297 I0 J-6.297
X0 Y6.297 I0 J6.297
G00 Z7
X0 Y0.27
Z4
G01 Z1 F20
G02 X0.065 Y-0.262 I0.002 J-0.269 F30
X-0.126 Y0.239 I-0.065 J0.261
X0 Y0.27 I0.126 J-0.244
G01 X0 Y1.278
G02 X0 Y-1.278 I0.001 J-1.278
X0 Y1.278 I-0.001 J1.278
G01 X0 Y2.284
G02 X0 Y-2.284 I0 J-2.284
X0 Y2.284 I0 J2.284
G01 X0 Y3.288
G02 X0 Y-3.288 I0 J-3.288
X0 Y3.288 I0 J3.288
G01 X0 Y4.291
G02 X0 Y-4.291 I0 J-4.291
X0 Y4.291 I0 J4.291
G01 X0 Y5.294
G02 X0 Y-5.294 I0 J-5.294
X0 Y5.294 I0 J5.294
G01 X0 Y6.297
G02 X0 Y-6.297 I0 J-6.297
X0 Y6.297 I0 J6.297
G00 Z7
X0 Y0.27
Z3
G01 Z-0.1 F20
G02 X0.065 Y-0.262 I0.002 J-0.269 F30
X-0.126 Y0.239 I-0.065 J0.261
X0 Y0.27 I0.126 J-0.244
G01 X0 Y1.278
G02 X0 Y-1.278 I0.001 J-1.278
X0 Y1.278 I-0.001 J1.278
G01 X0 Y2.284
G02 X0 Y-2.284 I0 J-2.284
X0 Y2.284 I0 J2.284
G01 X0 Y3.288
G02 X0 Y-3.288 I0 J-3.288
X0 Y3.288 I0 J3.288
G01 X0 Y4.291
G02 X0 Y-4.291 I0 J-4.291
X0 Y4.291 I0 J4.291
G01 X0 Y5.294
G02 X0 Y-5.294 I0 J-5.294
X0 Y5.294 I0 J5.294
G01 X0 Y6.297
G02 X0 Y-6.297 I0 J-6.297
X0 Y6.297 I0 J6.297
G00 Z7
(outer ring [20])
X0 Y10 S20000 M03
G01 Z4 F20
G03 X-10 Y0 I0 J-10 F30
X10 Y0 I10 J0
X0 Y10 I-10 J0
G01 Z3 F20
G03 X-10 Y0 I0 J-10 F30
X10 Y0 I10 J0
X0 Y10 I-10 J0
G01 Z2 F20
G03 X-10 Y0 I0 J-10 F30
X10 Y0 I10 J0
X0 Y10 I-10 J0
G01 Z1 F20
G03 X-10 Y0 I0 J-10 F30
X10 Y0 I10 J0
X0 Y10 I-10 J0
G01 Z-0.1 F20
G03 X-10 Y0 I0 J-10 F30
X10 Y0 I10 J0
X0 Y10 I-10 J0
G00 Z7
T0 M06 M02
