(Created with emc2b post processor 2015/11/15 12:40)
(tool change to 3.175 mm End Mill)
T1 M06 G43
G17 G90 G21
G00 Z8 S20000 M03
X15.007 Y15.19
G01 Z5 F20
G02 X14.984 Y14.802 I-0.012 J-0.193
X15.007 Y15.19 I0.013 J0.193
G01 X15.073 Y16.196
G02 X14.922 Y13.797 I-0.077 J-1.199
X15.073 Y16.196 I0.076 J1.199
G01 X15.137 Y17.2
G02 X14.86 Y12.796 I-0.14 J-2.201
X15.137 Y17.2 I0.139 J2.201
G01 X15.2 Y18.202
G02 X14.798 Y11.796 I-0.201 J-3.202
X15.2 Y18.202 I0.202 J3.202
G00 Z8
X15.007 Y15.19
Z7
G01 Z4
G02 X14.984 Y14.802 I-0.012 J-0.193
X15.007 Y15.19 I0.013 J0.193
G01 X15.073 Y16.196
G02 X14.922 Y13.797 I-0.077 J-1.199
X15.073 Y16.196 I0.076 J1.199
G01 X15.137 Y17.2
G02 X14.86 Y12.796 I-0.14 J-2.201
X15.137 Y17.2 I0.139 J2.201
G01 X15.2 Y18.202
G02 X14.798 Y11.796 I-0.201 J-3.202
X15.2 Y18.202 I0.202 J3.202
G00 Z8
X15.007 Y15.19
Z6
G01 Z3
G02 X14.984 Y14.802 I-0.012 J-0.193
X15.007 Y15.19 I0.013 J0.193
G01 X15.073 Y16.196
G02 X14.922 Y13.797 I-0.077 J-1.199
X15.073 Y16.196 I0.076 J1.199
G01 X15.137 Y17.2
G02 X14.86 Y12.796 I-0.14 J-2.201
X15.137 Y17.2 I0.139 J2.201
G01 X15.2 Y18.202
G02 X14.798 Y11.796 I-0.201 J-3.202
X15.2 Y18.202 I0.202 J3.202
G00 Z8
X15.007 Y15.19
Z5
G01 Z2
G02 X14.984 Y14.802 I-0.012 J-0.193
X15.007 Y15.19 I0.013 J0.193
G01 X15.073 Y16.196
G02 X14.922 Y13.797 I-0.077 J-1.199
X15.073 Y16.196 I0.076 J1.199
G01 X15.137 Y17.2
G02 X14.86 Y12.796 I-0.14 J-2.201
X15.137 Y17.2 I0.139 J2.201
G01 X15.2 Y18.202
G02 X14.798 Y11.796 I-0.201 J-3.202
X15.2 Y18.202 I0.202 J3.202
G00 Z8
X15.007 Y15.19
Z4
G01 Z1
G02 X14.984 Y14.802 I-0.012 J-0.193
X15.007 Y15.19 I0.013 J0.193
G01 X15.073 Y16.196
G02 X14.922 Y13.797 I-0.077 J-1.199
X15.073 Y16.196 I0.076 J1.199
G01 X15.137 Y17.2
G02 X14.86 Y12.796 I-0.14 J-2.201
X15.137 Y17.2 I0.139 J2.201
G01 X15.2 Y18.202
G02 X14.798 Y11.796 I-0.201 J-3.202
X15.2 Y18.202 I0.202 J3.202
G00 Z8
X15.007 Y15.19
Z3
G01 Z-0.1
G02 X14.984 Y14.802 I-0.012 J-0.193
X15.007 Y15.19 I0.013 J0.193
G01 X15.073 Y16.196
G02 X14.922 Y13.797 I-0.077 J-1.199
X15.073 Y16.196 I0.076 J1.199
G01 X15.137 Y17.2
G02 X14.86 Y12.796 I-0.14 J-2.201
X15.137 Y17.2 I0.139 J2.201
G01 X15.2 Y18.202
G02 X14.798 Y11.796 I-0.201 J-3.202
X15.2 Y18.202 I0.202 J3.202
G00 Z8
T0 M06 M02
