(Created with emc2b post processor 2015/05/24 20:05)
G61
(tool change to 1.7 mm End Mill)
T1 M06 G43
G17 G90 G21
(Sketch 3)
G00 X4 Y2 S5000 M03
Z2
G01 Z-0.5 F40
G02 X3.859 Y3.043 I-0.14 J0.512 
G01 X5.509 Y3.043 
X5.509 Y1.393 
G03 X6.359 Y0.543 I0.85 J0 
G01 X11.359 Y0.543 
G03 X12.209 Y1.393 I0 J0.85 
G01 X12.209 Y3.893 
G03 X11.359 Y4.743 I-0.85 J0 
G01 X9.709 Y4.743 
X9.709 Y5.543 
X13.859 Y5.543 
G03 X14.709 Y6.393 I0 J0.85 
G01 X14.709 Y8.043 
X18.009 Y8.043 
X18.009 Y6.393 
G03 X18.859 Y5.543 I0.85 J0 
G01 X23.009 Y5.543 
X23.009 Y4.743 
X21.359 Y4.743 
G03 X20.509 Y3.893 I0 J-0.85 
G01 X20.509 Y1.393 
G03 X21.359 Y0.543 I0.85 J0 
G01 X26.359 Y0.543 
G03 X27.209 Y1.393 I0 J0.85 
G01 X27.209 Y3.043 
X28.859 Y3.043 
G03 X29.709 Y3.893 I0 J0.85 
G01 X29.709 Y6.393 
G03 X28.859 Y7.243 I-0.85 J0 
G01 X27.209 Y7.243 
X27.209 Y8.043 
X31.359 Y8.043 
G03 X32.209 Y8.893 I0 J0.85 
G01 X32.209 Y16.393 
G03 X31.359 Y17.243 I-0.85 J0 
G01 X29.709 Y17.243 
X29.709 Y18.893 
G03 X28.859 Y19.743 I-0.85 J0 
G01 X22.209 Y19.743 
X22.209 Y21.393 
G03 X21.359 Y22.243 I-0.85 J0 
G01 X20.206 Y22.243 
X20.176 Y22.633 
G03 X20.161 Y22.744 I-0.847 J-0.064 
G01 X20.079 Y23.13 
G03 X20.049 Y23.238 I-0.831 J-0.175 
G01 X19.917 Y23.61 
G03 X19.873 Y23.712 I-0.801 J-0.283 
G01 X19.694 Y24.064 
G03 X19.637 Y24.16 I-0.757 J-0.385 
G01 X19.413 Y24.485 
G03 X19.344 Y24.573 I-0.7 J-0.482 
G01 X19.079 Y24.866 
G03 X18.999 Y24.944 I-0.63 J-0.569 
G01 X18.698 Y25.199 
G03 X18.609 Y25.266 I-0.55 J-0.647 
G01 X18.277 Y25.48 
G03 X18.179 Y25.534 I-0.46 J-0.714 
G01 X17.822 Y25.703 
G03 X17.718 Y25.744 I-0.363 J-0.768 
G01 X17.343 Y25.864 
G03 X17.234 Y25.891 I-0.259 J-0.809 
G01 X16.846 Y25.961 
G03 X16.735 Y25.973 I-0.15 J-0.836 
G01 X16.34 Y25.992 
G03 X16.229 Y25.989 I-0.039 J-0.849 
G01 X15.835 Y25.956 
G03 X15.725 Y25.939 I0.072 J-0.846 
G01 X15.339 Y25.854 
G03 X15.232 Y25.823 I0.182 J-0.83 
G01 X14.861 Y25.688 
G03 X14.759 Y25.643 I0.29 J-0.798 
G01 X14.409 Y25.461 
G03 X14.313 Y25.403 I0.392 J-0.753 
G01 X13.99 Y25.176 
G03 X13.903 Y25.106 I0.488 J-0.695 
G01 X13.613 Y24.839 
G03 X13.535 Y24.758 I0.575 J-0.625 
G01 X13.283 Y24.455 
G03 X13.217 Y24.365 I0.652 J-0.544 
G01 X13.006 Y24.031 
G03 X12.952 Y23.933 I0.718 J-0.454 
G01 X12.787 Y23.575 
G03 X12.747 Y23.47 I0.771 J-0.356 
G01 X12.63 Y23.094 
G03 X12.604 Y22.985 I0.811 J-0.251 
G01 X12.537 Y22.596 
G03 X12.526 Y22.485 I0.837 J-0.143 
G01 X12.517 Y22.243 
X11.359 Y22.243 
G03 X10.509 Y21.393 I0 J-0.85 
G01 X10.509 Y19.743 
X3.859 Y19.743 
G03 X3.009 Y18.893 I0 J-0.85 
G01 X3.009 Y17.243 
X1.359 Y17.243 
G03 X0.509 Y16.393 I0 J-0.85 
G01 X0.509 Y8.893 
G03 X1.359 Y8.043 I0.85 J0 
G01 X5.509 Y8.043 
X5.509 Y7.243 
X3.859 Y7.243 
G03 X3.009 Y6.393 I0 J-0.85 
G01 X3.009 Y3.893 
G03 X3.859 Y3.043 I0.85 J0 
G02 X3.859 Y1.043 I0 J-1 
G00 Z5
X4 Y2
Z-0.5
G01 Z-1 
G02 X3.859 Y3.043 I-0.14 J0.512 
G01 X5.509 Y3.043 
X5.509 Y1.393 
G03 X6.359 Y0.543 I0.85 J0 
G01 X11.359 Y0.543 
G03 X12.209 Y1.393 I0 J0.85 
G01 X12.209 Y3.893 
G03 X11.359 Y4.743 I-0.85 J0 
G01 X9.709 Y4.743 
X9.709 Y5.543 
X13.859 Y5.543 
G03 X14.709 Y6.393 I0 J0.85 
G01 X14.709 Y8.043 
X18.009 Y8.043 
X18.009 Y6.393 
G03 X18.859 Y5.543 I0.85 J0 
G01 X23.009 Y5.543 
X23.009 Y4.743 
X21.359 Y4.743 
G03 X20.509 Y3.893 I0 J-0.85 
G01 X20.509 Y1.393 
G03 X21.359 Y0.543 I0.85 J0 
G01 X26.359 Y0.543 
G03 X27.209 Y1.393 I0 J0.85 
G01 X27.209 Y3.043 
X28.859 Y3.043 
G03 X29.709 Y3.893 I0 J0.85 
G01 X29.709 Y6.393 
G03 X28.859 Y7.243 I-0.85 J0 
G01 X27.209 Y7.243 
X27.209 Y8.043 
X31.359 Y8.043 
G03 X32.209 Y8.893 I0 J0.85 
G01 X32.209 Y16.393 
G03 X31.359 Y17.243 I-0.85 J0 
G01 X29.709 Y17.243 
X29.709 Y18.893 
G03 X28.859 Y19.743 I-0.85 J0 
G01 X22.209 Y19.743 
X22.209 Y21.393 
G03 X21.359 Y22.243 I-0.85 J0 
G01 X20.206 Y22.243 
X20.176 Y22.633 
G03 X20.161 Y22.744 I-0.847 J-0.064 
G01 X20.079 Y23.13 
G03 X20.049 Y23.238 I-0.831 J-0.175 
G01 X19.917 Y23.61 
G03 X19.873 Y23.712 I-0.801 J-0.283 
G01 X19.694 Y24.064 
G03 X19.637 Y24.16 I-0.757 J-0.385 
G01 X19.413 Y24.485 
G03 X19.344 Y24.573 I-0.7 J-0.482 
G01 X19.079 Y24.866 
G03 X18.999 Y24.944 I-0.63 J-0.569 
G01 X18.698 Y25.199 
G03 X18.609 Y25.266 I-0.55 J-0.647 
G01 X18.277 Y25.48 
G03 X18.179 Y25.534 I-0.46 J-0.714 
G01 X17.822 Y25.703 
G03 X17.718 Y25.744 I-0.363 J-0.768 
G01 X17.343 Y25.864 
G03 X17.234 Y25.891 I-0.259 J-0.809 
G01 X16.846 Y25.961 
G03 X16.735 Y25.973 I-0.15 J-0.836 
G01 X16.34 Y25.992 
G03 X16.229 Y25.989 I-0.039 J-0.849 
G01 X15.835 Y25.956 
G03 X15.725 Y25.939 I0.072 J-0.846 
G01 X15.339 Y25.854 
G03 X15.232 Y25.823 I0.182 J-0.83 
G01 X14.861 Y25.688 
G03 X14.759 Y25.643 I0.29 J-0.798 
G01 X14.409 Y25.461 
G03 X14.313 Y25.403 I0.392 J-0.753 
G01 X13.99 Y25.176 
G03 X13.903 Y25.106 I0.488 J-0.695 
G01 X13.613 Y24.839 
G03 X13.535 Y24.758 I0.575 J-0.625 
G01 X13.283 Y24.455 
G03 X13.217 Y24.365 I0.652 J-0.544 
G01 X13.006 Y24.031 
G03 X12.952 Y23.933 I0.718 J-0.454 
G01 X12.787 Y23.575 
G03 X12.747 Y23.47 I0.771 J-0.356 
G01 X12.63 Y23.094 
G03 X12.604 Y22.985 I0.811 J-0.251 
G01 X12.537 Y22.596 
G03 X12.526 Y22.485 I0.837 J-0.143 
G01 X12.517 Y22.243 
X11.359 Y22.243 
G03 X10.509 Y21.393 I0 J-0.85 
G01 X10.509 Y19.743 
X3.859 Y19.743 
G03 X3.009 Y18.893 I0 J-0.85 
G01 X3.009 Y17.243 
X1.359 Y17.243 
G03 X0.509 Y16.393 I0 J-0.85 
G01 X0.509 Y8.893 
G03 X1.359 Y8.043 I0.85 J0 
G01 X5.509 Y8.043 
X5.509 Y7.243 
X3.859 Y7.243 
G03 X3.009 Y6.393 I0 J-0.85 
G01 X3.009 Y3.893 
G03 X3.859 Y3.043 I0.85 J0 
G02 X3.859 Y1.043 I0 J-1 
G00 Z5
X4 Y2
Z-1
G01 Z-1.5 
G02 X3.859 Y3.043 I-0.14 J0.512 
G01 X5.509 Y3.043 
X5.509 Y1.393 
G03 X6.359 Y0.543 I0.85 J0 
G01 X11.359 Y0.543 
G03 X12.209 Y1.393 I0 J0.85 
G01 X12.209 Y3.893 
G03 X11.359 Y4.743 I-0.85 J0 
G01 X9.709 Y4.743 
X9.709 Y5.543 
X13.859 Y5.543 
G03 X14.709 Y6.393 I0 J0.85 
G01 X14.709 Y8.043 
X18.009 Y8.043 
X18.009 Y6.393 
G03 X18.859 Y5.543 I0.85 J0 
G01 X23.009 Y5.543 
X23.009 Y4.743 
X21.359 Y4.743 
G03 X20.509 Y3.893 I0 J-0.85 
G01 X20.509 Y1.393 
G03 X21.359 Y0.543 I0.85 J0 
G01 X26.359 Y0.543 
G03 X27.209 Y1.393 I0 J0.85 
G01 X27.209 Y3.043 
X28.859 Y3.043 
G03 X29.709 Y3.893 I0 J0.85 
G01 X29.709 Y6.393 
G03 X28.859 Y7.243 I-0.85 J0 
G01 X27.209 Y7.243 
X27.209 Y8.043 
X31.359 Y8.043 
G03 X32.209 Y8.893 I0 J0.85 
G01 X32.209 Y16.393 
G03 X31.359 Y17.243 I-0.85 J0 
G01 X29.709 Y17.243 
X29.709 Y18.893 
G03 X28.859 Y19.743 I-0.85 J0 
G01 X22.209 Y19.743 
X22.209 Y21.393 
G03 X21.359 Y22.243 I-0.85 J0 
G01 X20.206 Y22.243 
X20.176 Y22.633 
G03 X20.161 Y22.744 I-0.847 J-0.064 
G01 X20.079 Y23.13 
G03 X20.049 Y23.238 I-0.831 J-0.175 
G01 X19.917 Y23.61 
G03 X19.873 Y23.712 I-0.801 J-0.283 
G01 X19.694 Y24.064 
G03 X19.637 Y24.16 I-0.757 J-0.385 
G01 X19.413 Y24.485 
G03 X19.344 Y24.573 I-0.7 J-0.482 
G01 X19.079 Y24.866 
G03 X18.999 Y24.944 I-0.63 J-0.569 
G01 X18.698 Y25.199 
G03 X18.609 Y25.266 I-0.55 J-0.647 
G01 X18.277 Y25.48 
G03 X18.179 Y25.534 I-0.46 J-0.714 
G01 X17.822 Y25.703 
G03 X17.718 Y25.744 I-0.363 J-0.768 
G01 X17.343 Y25.864 
G03 X17.234 Y25.891 I-0.259 J-0.809 
G01 X16.846 Y25.961 
G03 X16.735 Y25.973 I-0.15 J-0.836 
G01 X16.34 Y25.992 
G03 X16.229 Y25.989 I-0.039 J-0.849 
G01 X15.835 Y25.956 
G03 X15.725 Y25.939 I0.072 J-0.846 
G01 X15.339 Y25.854 
G03 X15.232 Y25.823 I0.182 J-0.83 
G01 X14.861 Y25.688 
G03 X14.759 Y25.643 I0.29 J-0.798 
G01 X14.409 Y25.461 
G03 X14.313 Y25.403 I0.392 J-0.753 
G01 X13.99 Y25.176 
G03 X13.903 Y25.106 I0.488 J-0.695 
G01 X13.613 Y24.839 
G03 X13.535 Y24.758 I0.575 J-0.625 
G01 X13.283 Y24.455 
G03 X13.217 Y24.365 I0.652 J-0.544 
G01 X13.006 Y24.031 
G03 X12.952 Y23.933 I0.718 J-0.454 
G01 X12.787 Y23.575 
G03 X12.747 Y23.47 I0.771 J-0.356 
G01 X12.63 Y23.094 
G03 X12.604 Y22.985 I0.811 J-0.251 
G01 X12.537 Y22.596 
G03 X12.526 Y22.485 I0.837 J-0.143 
G01 X12.517 Y22.243 
X11.359 Y22.243 
G03 X10.509 Y21.393 I0 J-0.85 
G01 X10.509 Y19.743 
X3.859 Y19.743 
G03 X3.009 Y18.893 I0 J-0.85 
G01 X3.009 Y17.243 
X1.359 Y17.243 
G03 X0.509 Y16.393 I0 J-0.85 
G01 X0.509 Y8.893 
G03 X1.359 Y8.043 I0.85 J0 
G01 X5.509 Y8.043 
X5.509 Y7.243 
X3.859 Y7.243 
G03 X3.009 Y6.393 I0 J-0.85 
G01 X3.009 Y3.893 
G03 X3.859 Y3.043 I0.85 J0 
G02 X3.859 Y1.043 I0 J-1 
G00 Z5
X4 Y2
Z-1.5
G01 Z-2 
G02 X3.859 Y3.043 I-0.14 J0.512 
G01 X5.509 Y3.043 
X5.509 Y1.393 
G03 X6.359 Y0.543 I0.85 J0 
G01 X11.359 Y0.543 
G03 X12.209 Y1.393 I0 J0.85 
G01 X12.209 Y3.893 
G03 X11.359 Y4.743 I-0.85 J0 
G01 X9.709 Y4.743 
X9.709 Y5.543 
X13.859 Y5.543 
G03 X14.709 Y6.393 I0 J0.85 
G01 X14.709 Y8.043 
X18.009 Y8.043 
X18.009 Y6.393 
G03 X18.859 Y5.543 I0.85 J0 
G01 X23.009 Y5.543 
X23.009 Y4.743 
X21.359 Y4.743 
G03 X20.509 Y3.893 I0 J-0.85 
G01 X20.509 Y1.393 
G03 X21.359 Y0.543 I0.85 J0 
G01 X26.359 Y0.543 
G03 X27.209 Y1.393 I0 J0.85 
G01 X27.209 Y3.043 
X28.859 Y3.043 
G03 X29.709 Y3.893 I0 J0.85 
G01 X29.709 Y6.393 
G03 X28.859 Y7.243 I-0.85 J0 
G01 X27.209 Y7.243 
X27.209 Y8.043 
X31.359 Y8.043 
G03 X32.209 Y8.893 I0 J0.85 
G01 X32.209 Y16.393 
G03 X31.359 Y17.243 I-0.85 J0 
G01 X29.709 Y17.243 
X29.709 Y18.893 
G03 X28.859 Y19.743 I-0.85 J0 
G01 X22.209 Y19.743 
X22.209 Y21.393 
G03 X21.359 Y22.243 I-0.85 J0 
G01 X20.206 Y22.243 
X20.176 Y22.633 
G03 X20.161 Y22.744 I-0.847 J-0.064 
G01 X20.079 Y23.13 
G03 X20.049 Y23.238 I-0.831 J-0.175 
G01 X19.917 Y23.61 
G03 X19.873 Y23.712 I-0.801 J-0.283 
G01 X19.694 Y24.064 
G03 X19.637 Y24.16 I-0.757 J-0.385 
G01 X19.413 Y24.485 
G03 X19.344 Y24.573 I-0.7 J-0.482 
G01 X19.079 Y24.866 
G03 X18.999 Y24.944 I-0.63 J-0.569 
G01 X18.698 Y25.199 
G03 X18.609 Y25.266 I-0.55 J-0.647 
G01 X18.277 Y25.48 
G03 X18.179 Y25.534 I-0.46 J-0.714 
G01 X17.822 Y25.703 
G03 X17.718 Y25.744 I-0.363 J-0.768 
G01 X17.343 Y25.864 
G03 X17.234 Y25.891 I-0.259 J-0.809 
G01 X16.846 Y25.961 
G03 X16.735 Y25.973 I-0.15 J-0.836 
G01 X16.34 Y25.992 
G03 X16.229 Y25.989 I-0.039 J-0.849 
G01 X15.835 Y25.956 
G03 X15.725 Y25.939 I0.072 J-0.846 
G01 X15.339 Y25.854 
G03 X15.232 Y25.823 I0.182 J-0.83 
G01 X14.861 Y25.688 
G03 X14.759 Y25.643 I0.29 J-0.798 
G01 X14.409 Y25.461 
G03 X14.313 Y25.403 I0.392 J-0.753 
G01 X13.99 Y25.176 
G03 X13.903 Y25.106 I0.488 J-0.695 
G01 X13.613 Y24.839 
G03 X13.535 Y24.758 I0.575 J-0.625 
G01 X13.283 Y24.455 
G03 X13.217 Y24.365 I0.652 J-0.544 
G01 X13.006 Y24.031 
G03 X12.952 Y23.933 I0.718 J-0.454 
G01 X12.787 Y23.575 
G03 X12.747 Y23.47 I0.771 J-0.356 
G01 X12.63 Y23.094 
G03 X12.604 Y22.985 I0.811 J-0.251 
G01 X12.537 Y22.596 
G03 X12.526 Y22.485 I0.837 J-0.143 
G01 X12.517 Y22.243 
X11.359 Y22.243 
G03 X10.509 Y21.393 I0 J-0.85 
G01 X10.509 Y19.743 
X3.859 Y19.743 
G03 X3.009 Y18.893 I0 J-0.85 
G01 X3.009 Y17.243 
X1.359 Y17.243 
G03 X0.509 Y16.393 I0 J-0.85 
G01 X0.509 Y8.893 
G03 X1.359 Y8.043 I0.85 J0 
G01 X5.509 Y8.043 
X5.509 Y7.243 
X3.859 Y7.243 
G03 X3.009 Y6.393 I0 J-0.85 
G01 X3.009 Y3.893 
G03 X3.859 Y3.043 I0.85 J0 
G02 X3.859 Y1.043 I0 J-1 
G00 Z5
X4 Y2
Z-2
G01 Z-2.5 
G02 X3.859 Y3.043 I-0.14 J0.512 
G01 X5.509 Y3.043 
X5.509 Y1.393 
G03 X6.359 Y0.543 I0.85 J0 
G01 X11.359 Y0.543 
G03 X12.209 Y1.393 I0 J0.85 
G01 X12.209 Y3.893 
G03 X11.359 Y4.743 I-0.85 J0 
G01 X9.709 Y4.743 
X9.709 Y5.543 
X13.859 Y5.543 
G03 X14.709 Y6.393 I0 J0.85 
G01 X14.709 Y8.043 
X18.009 Y8.043 
X18.009 Y6.393 
G03 X18.859 Y5.543 I0.85 J0 
G01 X23.009 Y5.543 
X23.009 Y4.743 
X21.359 Y4.743 
G03 X20.509 Y3.893 I0 J-0.85 
G01 X20.509 Y1.393 
G03 X21.359 Y0.543 I0.85 J0 
G01 X26.359 Y0.543 
G03 X27.209 Y1.393 I0 J0.85 
G01 X27.209 Y3.043 
X28.859 Y3.043 
G03 X29.709 Y3.893 I0 J0.85 
G01 X29.709 Y6.393 
G03 X28.859 Y7.243 I-0.85 J0 
G01 X27.209 Y7.243 
X27.209 Y8.043 
X31.359 Y8.043 
G03 X32.209 Y8.893 I0 J0.85 
G01 X32.209 Y16.393 
G03 X31.359 Y17.243 I-0.85 J0 
G01 X29.709 Y17.243 
X29.709 Y18.893 
G03 X28.859 Y19.743 I-0.85 J0 
G01 X22.209 Y19.743 
X22.209 Y21.393 
G03 X21.359 Y22.243 I-0.85 J0 
G01 X20.206 Y22.243 
X20.176 Y22.633 
G03 X20.161 Y22.744 I-0.847 J-0.064 
G01 X20.079 Y23.13 
G03 X20.049 Y23.238 I-0.831 J-0.175 
G01 X19.917 Y23.61 
G03 X19.873 Y23.712 I-0.801 J-0.283 
G01 X19.694 Y24.064 
G03 X19.637 Y24.16 I-0.757 J-0.385 
G01 X19.413 Y24.485 
G03 X19.344 Y24.573 I-0.7 J-0.482 
G01 X19.079 Y24.866 
G03 X18.999 Y24.944 I-0.63 J-0.569 
G01 X18.698 Y25.199 
G03 X18.609 Y25.266 I-0.55 J-0.647 
G01 X18.277 Y25.48 
G03 X18.179 Y25.534 I-0.46 J-0.714 
G01 X17.822 Y25.703 
G03 X17.718 Y25.744 I-0.363 J-0.768 
G01 X17.343 Y25.864 
G03 X17.234 Y25.891 I-0.259 J-0.809 
G01 X16.846 Y25.961 
G03 X16.735 Y25.973 I-0.15 J-0.836 
G01 X16.34 Y25.992 
G03 X16.229 Y25.989 I-0.039 J-0.849 
G01 X15.835 Y25.956 
G03 X15.725 Y25.939 I0.072 J-0.846 
G01 X15.339 Y25.854 
G03 X15.232 Y25.823 I0.182 J-0.83 
G01 X14.861 Y25.688 
G03 X14.759 Y25.643 I0.29 J-0.798 
G01 X14.409 Y25.461 
G03 X14.313 Y25.403 I0.392 J-0.753 
G01 X13.99 Y25.176 
G03 X13.903 Y25.106 I0.488 J-0.695 
G01 X13.613 Y24.839 
G03 X13.535 Y24.758 I0.575 J-0.625 
G01 X13.283 Y24.455 
G03 X13.217 Y24.365 I0.652 J-0.544 
G01 X13.006 Y24.031 
G03 X12.952 Y23.933 I0.718 J-0.454 
G01 X12.787 Y23.575 
G03 X12.747 Y23.47 I0.771 J-0.356 
G01 X12.63 Y23.094 
G03 X12.604 Y22.985 I0.811 J-0.251 
G01 X12.537 Y22.596 
G03 X12.526 Y22.485 I0.837 J-0.143 
G01 X12.517 Y22.243 
X11.359 Y22.243 
G03 X10.509 Y21.393 I0 J-0.85 
G01 X10.509 Y19.743 
X3.859 Y19.743 
G03 X3.009 Y18.893 I0 J-0.85 
G01 X3.009 Y17.243 
X1.359 Y17.243 
G03 X0.509 Y16.393 I0 J-0.85 
G01 X0.509 Y8.893 
G03 X1.359 Y8.043 I0.85 J0 
G01 X5.509 Y8.043 
X5.509 Y7.243 
X3.859 Y7.243 
G03 X3.009 Y6.393 I0 J-0.85 
G01 X3.009 Y3.893 
G03 X3.859 Y3.043 I0.85 J0 
G02 X3.859 Y1.043 I0 J-1 
G00 Z5
X4 Y2
Z-2.5
G01 Z-3 
G02 X3.859 Y3.043 I-0.14 J0.512 
G01 X5.509 Y3.043 
X5.509 Y1.393 
G03 X6.359 Y0.543 I0.85 J0 
G01 X11.359 Y0.543 
G03 X12.209 Y1.393 I0 J0.85 
G01 X12.209 Y3.893 
G03 X11.359 Y4.743 I-0.85 J0 
G01 X9.709 Y4.743 
X9.709 Y5.543 
X13.859 Y5.543 
G03 X14.709 Y6.393 I0 J0.85 
G01 X14.709 Y8.043 
X18.009 Y8.043 
X18.009 Y6.393 
G03 X18.859 Y5.543 I0.85 J0 
G01 X23.009 Y5.543 
X23.009 Y4.743 
X21.359 Y4.743 
G03 X20.509 Y3.893 I0 J-0.85 
G01 X20.509 Y1.393 
G03 X21.359 Y0.543 I0.85 J0 
G01 X26.359 Y0.543 
G03 X27.209 Y1.393 I0 J0.85 
G01 X27.209 Y3.043 
X28.859 Y3.043 
G03 X29.709 Y3.893 I0 J0.85 
G01 X29.709 Y6.393 
G03 X28.859 Y7.243 I-0.85 J0 
G01 X27.209 Y7.243 
X27.209 Y8.043 
X31.359 Y8.043 
G03 X32.209 Y8.893 I0 J0.85 
G01 X32.209 Y16.393 
G03 X31.359 Y17.243 I-0.85 J0 
G01 X29.709 Y17.243 
X29.709 Y18.893 
G03 X28.859 Y19.743 I-0.85 J0 
G01 X22.209 Y19.743 
X22.209 Y21.393 
G03 X21.359 Y22.243 I-0.85 J0 
G01 X20.206 Y22.243 
X20.176 Y22.633 
G03 X20.161 Y22.744 I-0.847 J-0.064 
G01 X20.079 Y23.13 
G03 X20.049 Y23.238 I-0.831 J-0.175 
G01 X19.917 Y23.61 
G03 X19.873 Y23.712 I-0.801 J-0.283 
G01 X19.694 Y24.064 
G03 X19.637 Y24.16 I-0.757 J-0.385 
G01 X19.413 Y24.485 
G03 X19.344 Y24.573 I-0.7 J-0.482 
G01 X19.079 Y24.866 
G03 X18.999 Y24.944 I-0.63 J-0.569 
G01 X18.698 Y25.199 
G03 X18.609 Y25.266 I-0.55 J-0.647 
G01 X18.277 Y25.48 
G03 X18.179 Y25.534 I-0.46 J-0.714 
G01 X17.822 Y25.703 
G03 X17.718 Y25.744 I-0.363 J-0.768 
G01 X17.343 Y25.864 
G03 X17.234 Y25.891 I-0.259 J-0.809 
G01 X16.846 Y25.961 
G03 X16.735 Y25.973 I-0.15 J-0.836 
G01 X16.34 Y25.992 
G03 X16.229 Y25.989 I-0.039 J-0.849 
G01 X15.835 Y25.956 
G03 X15.725 Y25.939 I0.072 J-0.846 
G01 X15.339 Y25.854 
G03 X15.232 Y25.823 I0.182 J-0.83 
G01 X14.861 Y25.688 
G03 X14.759 Y25.643 I0.29 J-0.798 
G01 X14.409 Y25.461 
G03 X14.313 Y25.403 I0.392 J-0.753 
G01 X13.99 Y25.176 
G03 X13.903 Y25.106 I0.488 J-0.695 
G01 X13.613 Y24.839 
G03 X13.535 Y24.758 I0.575 J-0.625 
G01 X13.283 Y24.455 
G03 X13.217 Y24.365 I0.652 J-0.544 
G01 X13.006 Y24.031 
G03 X12.952 Y23.933 I0.718 J-0.454 
G01 X12.787 Y23.575 
G03 X12.747 Y23.47 I0.771 J-0.356 
G01 X12.63 Y23.094 
G03 X12.604 Y22.985 I0.811 J-0.251 
G01 X12.537 Y22.596 
G03 X12.526 Y22.485 I0.837 J-0.143 
G01 X12.517 Y22.243 
X11.359 Y22.243 
G03 X10.509 Y21.393 I0 J-0.85 
G01 X10.509 Y19.743 
X3.859 Y19.743 
G03 X3.009 Y18.893 I0 J-0.85 
G01 X3.009 Y17.243 
X1.359 Y17.243 
G03 X0.509 Y16.393 I0 J-0.85 
G01 X0.509 Y8.893 
G03 X1.359 Y8.043 I0.85 J0 
G01 X5.509 Y8.043 
X5.509 Y7.243 
X3.859 Y7.243 
G03 X3.009 Y6.393 I0 J-0.85 
G01 X3.009 Y3.893 
G03 X3.859 Y3.043 I0.85 J0 
G02 X3.859 Y1.043 I0 J-1 
G00 Z5
X4 Y2
Z-3
G01 Z-3.5 
G02 X3.859 Y3.043 I-0.14 J0.512 
G01 X5.509 Y3.043 
X5.509 Y1.393 
G03 X6.359 Y0.543 I0.85 J0 
G01 X11.359 Y0.543 
G03 X12.209 Y1.393 I0 J0.85 
G01 X12.209 Y3.893 
G03 X11.359 Y4.743 I-0.85 J0 
G01 X9.709 Y4.743 
X9.709 Y5.543 
X13.859 Y5.543 
G03 X14.709 Y6.393 I0 J0.85 
G01 X14.709 Y8.043 
X18.009 Y8.043 
X18.009 Y6.393 
G03 X18.859 Y5.543 I0.85 J0 
G01 X23.009 Y5.543 
X23.009 Y4.743 
X21.359 Y4.743 
G03 X20.509 Y3.893 I0 J-0.85 
G01 X20.509 Y1.393 
G03 X21.359 Y0.543 I0.85 J0 
G01 X26.359 Y0.543 
G03 X27.209 Y1.393 I0 J0.85 
G01 X27.209 Y3.043 
X28.859 Y3.043 
G03 X29.709 Y3.893 I0 J0.85 
G01 X29.709 Y6.393 
G03 X28.859 Y7.243 I-0.85 J0 
G01 X27.209 Y7.243 
X27.209 Y8.043 
X31.359 Y8.043 
G03 X32.209 Y8.893 I0 J0.85 
G01 X32.209 Y16.393 
G03 X31.359 Y17.243 I-0.85 J0 
G01 X29.709 Y17.243 
X29.709 Y18.893 
G03 X28.859 Y19.743 I-0.85 J0 
G01 X22.209 Y19.743 
X22.209 Y21.393 
G03 X21.359 Y22.243 I-0.85 J0 
G01 X20.206 Y22.243 
X20.176 Y22.633 
G03 X20.161 Y22.744 I-0.847 J-0.064 
G01 X20.079 Y23.13 
G03 X20.049 Y23.238 I-0.831 J-0.175 
G01 X19.917 Y23.61 
G03 X19.873 Y23.712 I-0.801 J-0.283 
G01 X19.694 Y24.064 
G03 X19.637 Y24.16 I-0.757 J-0.385 
G01 X19.413 Y24.485 
G03 X19.344 Y24.573 I-0.7 J-0.482 
G01 X19.079 Y24.866 
G03 X18.999 Y24.944 I-0.63 J-0.569 
G01 X18.698 Y25.199 
G03 X18.609 Y25.266 I-0.55 J-0.647 
G01 X18.277 Y25.48 
G03 X18.179 Y25.534 I-0.46 J-0.714 
G01 X17.822 Y25.703 
G03 X17.718 Y25.744 I-0.363 J-0.768 
G01 X17.343 Y25.864 
G03 X17.234 Y25.891 I-0.259 J-0.809 
G01 X16.846 Y25.961 
G03 X16.735 Y25.973 I-0.15 J-0.836 
G01 X16.34 Y25.992 
G03 X16.229 Y25.989 I-0.039 J-0.849 
G01 X15.835 Y25.956 
G03 X15.725 Y25.939 I0.072 J-0.846 
G01 X15.339 Y25.854 
G03 X15.232 Y25.823 I0.182 J-0.83 
G01 X14.861 Y25.688 
G03 X14.759 Y25.643 I0.29 J-0.798 
G01 X14.409 Y25.461 
G03 X14.313 Y25.403 I0.392 J-0.753 
G01 X13.99 Y25.176 
G03 X13.903 Y25.106 I0.488 J-0.695 
G01 X13.613 Y24.839 
G03 X13.535 Y24.758 I0.575 J-0.625 
G01 X13.283 Y24.455 
G03 X13.217 Y24.365 I0.652 J-0.544 
G01 X13.006 Y24.031 
G03 X12.952 Y23.933 I0.718 J-0.454 
G01 X12.787 Y23.575 
G03 X12.747 Y23.47 I0.771 J-0.356 
G01 X12.63 Y23.094 
G03 X12.604 Y22.985 I0.811 J-0.251 
G01 X12.537 Y22.596 
G03 X12.526 Y22.485 I0.837 J-0.143 
G01 X12.517 Y22.243 
X11.359 Y22.243 
G03 X10.509 Y21.393 I0 J-0.85 
G01 X10.509 Y19.743 
X3.859 Y19.743 
G03 X3.009 Y18.893 I0 J-0.85 
G01 X3.009 Y17.243 
X1.359 Y17.243 
G03 X0.509 Y16.393 I0 J-0.85 
G01 X0.509 Y8.893 
G03 X1.359 Y8.043 I0.85 J0 
G01 X5.509 Y8.043 
X5.509 Y7.243 
X3.859 Y7.243 
G03 X3.009 Y6.393 I0 J-0.85 
G01 X3.009 Y3.893 
G03 X3.859 Y3.043 I0.85 J0 
G02 X3.859 Y1.043 I0 J-1 
G00 Z5
X4 Y2
Z-3.5
G01 Z-4 
G02 X3.859 Y3.043 I-0.14 J0.512 
G01 X5.509 Y3.043 
X5.509 Y1.393 
G03 X6.359 Y0.543 I0.85 J0 
G01 X11.359 Y0.543 
G03 X12.209 Y1.393 I0 J0.85 
G01 X12.209 Y3.893 
G03 X11.359 Y4.743 I-0.85 J0 
G01 X9.709 Y4.743 
X9.709 Y5.543 
X13.859 Y5.543 
G03 X14.709 Y6.393 I0 J0.85 
G01 X14.709 Y8.043 
X18.009 Y8.043 
X18.009 Y6.393 
G03 X18.859 Y5.543 I0.85 J0 
G01 X23.009 Y5.543 
X23.009 Y4.743 
X21.359 Y4.743 
G03 X20.509 Y3.893 I0 J-0.85 
G01 X20.509 Y1.393 
G03 X21.359 Y0.543 I0.85 J0 
G01 X26.359 Y0.543 
G03 X27.209 Y1.393 I0 J0.85 
G01 X27.209 Y3.043 
X28.859 Y3.043 
G03 X29.709 Y3.893 I0 J0.85 
G01 X29.709 Y6.393 
G03 X28.859 Y7.243 I-0.85 J0 
G01 X27.209 Y7.243 
X27.209 Y8.043 
X31.359 Y8.043 
G03 X32.209 Y8.893 I0 J0.85 
G01 X32.209 Y16.393 
G03 X31.359 Y17.243 I-0.85 J0 
G01 X29.709 Y17.243 
X29.709 Y18.893 
G03 X28.859 Y19.743 I-0.85 J0 
G01 X22.209 Y19.743 
X22.209 Y21.393 
G03 X21.359 Y22.243 I-0.85 J0 
G01 X20.206 Y22.243 
X20.176 Y22.633 
G03 X20.161 Y22.744 I-0.847 J-0.064 
G01 X20.079 Y23.13 
G03 X20.049 Y23.238 I-0.831 J-0.175 
G01 X19.917 Y23.61 
G03 X19.873 Y23.712 I-0.801 J-0.283 
G01 X19.694 Y24.064 
G03 X19.637 Y24.16 I-0.757 J-0.385 
G01 X19.413 Y24.485 
G03 X19.344 Y24.573 I-0.7 J-0.482 
G01 X19.079 Y24.866 
G03 X18.999 Y24.944 I-0.63 J-0.569 
G01 X18.698 Y25.199 
G03 X18.609 Y25.266 I-0.55 J-0.647 
G01 X18.277 Y25.48 
G03 X18.179 Y25.534 I-0.46 J-0.714 
G01 X17.822 Y25.703 
G03 X17.718 Y25.744 I-0.363 J-0.768 
G01 X17.343 Y25.864 
G03 X17.234 Y25.891 I-0.259 J-0.809 
G01 X16.846 Y25.961 
G03 X16.735 Y25.973 I-0.15 J-0.836 
G01 X16.34 Y25.992 
G03 X16.229 Y25.989 I-0.039 J-0.849 
G01 X15.835 Y25.956 
G03 X15.725 Y25.939 I0.072 J-0.846 
G01 X15.339 Y25.854 
G03 X15.232 Y25.823 I0.182 J-0.83 
G01 X14.861 Y25.688 
G03 X14.759 Y25.643 I0.29 J-0.798 
G01 X14.409 Y25.461 
G03 X14.313 Y25.403 I0.392 J-0.753 
G01 X13.99 Y25.176 
G03 X13.903 Y25.106 I0.488 J-0.695 
G01 X13.613 Y24.839 
G03 X13.535 Y24.758 I0.575 J-0.625 
G01 X13.283 Y24.455 
G03 X13.217 Y24.365 I0.652 J-0.544 
G01 X13.006 Y24.031 
G03 X12.952 Y23.933 I0.718 J-0.454 
G01 X12.787 Y23.575 
G03 X12.747 Y23.47 I0.771 J-0.356 
G01 X12.63 Y23.094 
G03 X12.604 Y22.985 I0.811 J-0.251 
G01 X12.537 Y22.596 
G03 X12.526 Y22.485 I0.837 J-0.143 
G01 X12.517 Y22.243 
X11.359 Y22.243 
G03 X10.509 Y21.393 I0 J-0.85 
G01 X10.509 Y19.743 
X3.859 Y19.743 
G03 X3.009 Y18.893 I0 J-0.85 
G01 X3.009 Y17.243 
X1.359 Y17.243 
G03 X0.509 Y16.393 I0 J-0.85 
G01 X0.509 Y8.893 
G03 X1.359 Y8.043 I0.85 J0 
G01 X5.509 Y8.043 
X5.509 Y7.243 
X3.859 Y7.243 
G03 X3.009 Y6.393 I0 J-0.85 
G01 X3.009 Y3.893 
G03 X3.859 Y3.043 I0.85 J0 
G02 X3.859 Y1.043 I0 J-1 
G00 Z5
X4 Y2
Z-4
G01 Z-4.5 
G02 X3.859 Y3.043 I-0.14 J0.512 
G01 X5.509 Y3.043 
X5.509 Y1.393 
G03 X6.359 Y0.543 I0.85 J0 
G01 X11.359 Y0.543 
G03 X12.209 Y1.393 I0 J0.85 
G01 X12.209 Y3.893 
G03 X11.359 Y4.743 I-0.85 J0 
G01 X9.709 Y4.743 
X9.709 Y5.543 
X13.859 Y5.543 
G03 X14.709 Y6.393 I0 J0.85 
G01 X14.709 Y8.043 
X18.009 Y8.043 
X18.009 Y6.393 
G03 X18.859 Y5.543 I0.85 J0 
G01 X23.009 Y5.543 
X23.009 Y4.743 
X21.359 Y4.743 
G03 X20.509 Y3.893 I0 J-0.85 
G01 X20.509 Y1.393 
G03 X21.359 Y0.543 I0.85 J0 
G01 X26.359 Y0.543 
G03 X27.209 Y1.393 I0 J0.85 
G01 X27.209 Y3.043 
X28.859 Y3.043 
G03 X29.709 Y3.893 I0 J0.85 
G01 X29.709 Y6.393 
G03 X28.859 Y7.243 I-0.85 J0 
G01 X27.209 Y7.243 
X27.209 Y8.043 
X31.359 Y8.043 
G03 X32.209 Y8.893 I0 J0.85 
G01 X32.209 Y16.393 
G03 X31.359 Y17.243 I-0.85 J0 
G01 X29.709 Y17.243 
X29.709 Y18.893 
G03 X28.859 Y19.743 I-0.85 J0 
G01 X22.209 Y19.743 
X22.209 Y21.393 
G03 X21.359 Y22.243 I-0.85 J0 
G01 X20.206 Y22.243 
X20.176 Y22.633 
G03 X20.161 Y22.744 I-0.847 J-0.064 
G01 X20.079 Y23.13 
G03 X20.049 Y23.238 I-0.831 J-0.175 
G01 X19.917 Y23.61 
G03 X19.873 Y23.712 I-0.801 J-0.283 
G01 X19.694 Y24.064 
G03 X19.637 Y24.16 I-0.757 J-0.385 
G01 X19.413 Y24.485 
G03 X19.344 Y24.573 I-0.7 J-0.482 
G01 X19.079 Y24.866 
G03 X18.999 Y24.944 I-0.63 J-0.569 
G01 X18.698 Y25.199 
G03 X18.609 Y25.266 I-0.55 J-0.647 
G01 X18.277 Y25.48 
G03 X18.179 Y25.534 I-0.46 J-0.714 
G01 X17.822 Y25.703 
G03 X17.718 Y25.744 I-0.363 J-0.768 
G01 X17.343 Y25.864 
G03 X17.234 Y25.891 I-0.259 J-0.809 
G01 X16.846 Y25.961 
G03 X16.735 Y25.973 I-0.15 J-0.836 
G01 X16.34 Y25.992 
G03 X16.229 Y25.989 I-0.039 J-0.849 
G01 X15.835 Y25.956 
G03 X15.725 Y25.939 I0.072 J-0.846 
G01 X15.339 Y25.854 
G03 X15.232 Y25.823 I0.182 J-0.83 
G01 X14.861 Y25.688 
G03 X14.759 Y25.643 I0.29 J-0.798 
G01 X14.409 Y25.461 
G03 X14.313 Y25.403 I0.392 J-0.753 
G01 X13.99 Y25.176 
G03 X13.903 Y25.106 I0.488 J-0.695 
G01 X13.613 Y24.839 
G03 X13.535 Y24.758 I0.575 J-0.625 
G01 X13.283 Y24.455 
G03 X13.217 Y24.365 I0.652 J-0.544 
G01 X13.006 Y24.031 
G03 X12.952 Y23.933 I0.718 J-0.454 
G01 X12.787 Y23.575 
G03 X12.747 Y23.47 I0.771 J-0.356 
G01 X12.63 Y23.094 
G03 X12.604 Y22.985 I0.811 J-0.251 
G01 X12.537 Y22.596 
G03 X12.526 Y22.485 I0.837 J-0.143 
G01 X12.517 Y22.243 
X11.359 Y22.243 
G03 X10.509 Y21.393 I0 J-0.85 
G01 X10.509 Y19.743 
X3.859 Y19.743 
G03 X3.009 Y18.893 I0 J-0.85 
G01 X3.009 Y17.243 
X1.359 Y17.243 
G03 X0.509 Y16.393 I0 J-0.85 
G01 X0.509 Y8.893 
G03 X1.359 Y8.043 I0.85 J0 
G01 X5.509 Y8.043 
X5.509 Y7.243 
X3.859 Y7.243 
G03 X3.009 Y6.393 I0 J-0.85 
G01 X3.009 Y3.893 
G03 X3.859 Y3.043 I0.85 J0 
G02 X3.859 Y1.043 I0 J-1 
G00 Z5
X4 Y2
Z-4.5
G01 Z-5 
G02 X3.859 Y3.043 I-0.14 J0.512 
G01 X5.509 Y3.043 
X5.509 Y1.393 
G03 X6.359 Y0.543 I0.85 J0 
G01 X11.359 Y0.543 
G03 X12.209 Y1.393 I0 J0.85 
G01 X12.209 Y3.893 
G03 X11.359 Y4.743 I-0.85 J0 
G01 X9.709 Y4.743 
X9.709 Y5.543 
X13.859 Y5.543 
G03 X14.709 Y6.393 I0 J0.85 
G01 X14.709 Y8.043 
X18.009 Y8.043 
X18.009 Y6.393 
G03 X18.859 Y5.543 I0.85 J0 
G01 X23.009 Y5.543 
X23.009 Y4.743 
X21.359 Y4.743 
G03 X20.509 Y3.893 I0 J-0.85 
G01 X20.509 Y1.393 
G03 X21.359 Y0.543 I0.85 J0 
G01 X26.359 Y0.543 
G03 X27.209 Y1.393 I0 J0.85 
G01 X27.209 Y3.043 
X28.859 Y3.043 
G03 X29.709 Y3.893 I0 J0.85 
G01 X29.709 Y6.393 
G03 X28.859 Y7.243 I-0.85 J0 
G01 X27.209 Y7.243 
X27.209 Y8.043 
X31.359 Y8.043 
G03 X32.209 Y8.893 I0 J0.85 
G01 X32.209 Y16.393 
G03 X31.359 Y17.243 I-0.85 J0 
G01 X29.709 Y17.243 
X29.709 Y18.893 
G03 X28.859 Y19.743 I-0.85 J0 
G01 X22.209 Y19.743 
X22.209 Y21.393 
G03 X21.359 Y22.243 I-0.85 J0 
G01 X20.206 Y22.243 
X20.176 Y22.633 
G03 X20.161 Y22.744 I-0.847 J-0.064 
G01 X20.079 Y23.13 
G03 X20.049 Y23.238 I-0.831 J-0.175 
G01 X19.917 Y23.61 
G03 X19.873 Y23.712 I-0.801 J-0.283 
G01 X19.694 Y24.064 
G03 X19.637 Y24.16 I-0.757 J-0.385 
G01 X19.413 Y24.485 
G03 X19.344 Y24.573 I-0.7 J-0.482 
G01 X19.079 Y24.866 
G03 X18.999 Y24.944 I-0.63 J-0.569 
G01 X18.698 Y25.199 
G03 X18.609 Y25.266 I-0.55 J-0.647 
G01 X18.277 Y25.48 
G03 X18.179 Y25.534 I-0.46 J-0.714 
G01 X17.822 Y25.703 
G03 X17.718 Y25.744 I-0.363 J-0.768 
G01 X17.343 Y25.864 
G03 X17.234 Y25.891 I-0.259 J-0.809 
G01 X16.846 Y25.961 
G03 X16.735 Y25.973 I-0.15 J-0.836 
G01 X16.34 Y25.992 
G03 X16.229 Y25.989 I-0.039 J-0.849 
G01 X15.835 Y25.956 
G03 X15.725 Y25.939 I0.072 J-0.846 
G01 X15.339 Y25.854 
G03 X15.232 Y25.823 I0.182 J-0.83 
G01 X14.861 Y25.688 
G03 X14.759 Y25.643 I0.29 J-0.798 
G01 X14.409 Y25.461 
G03 X14.313 Y25.403 I0.392 J-0.753 
G01 X13.99 Y25.176 
G03 X13.903 Y25.106 I0.488 J-0.695 
G01 X13.613 Y24.839 
G03 X13.535 Y24.758 I0.575 J-0.625 
G01 X13.283 Y24.455 
G03 X13.217 Y24.365 I0.652 J-0.544 
G01 X13.006 Y24.031 
G03 X12.952 Y23.933 I0.718 J-0.454 
G01 X12.787 Y23.575 
G03 X12.747 Y23.47 I0.771 J-0.356 
G01 X12.63 Y23.094 
G03 X12.604 Y22.985 I0.811 J-0.251 
G01 X12.537 Y22.596 
G03 X12.526 Y22.485 I0.837 J-0.143 
G01 X12.517 Y22.243 
X11.359 Y22.243 
G03 X10.509 Y21.393 I0 J-0.85 
G01 X10.509 Y19.743 
X3.859 Y19.743 
G03 X3.009 Y18.893 I0 J-0.85 
G01 X3.009 Y17.243 
X1.359 Y17.243 
G03 X0.509 Y16.393 I0 J-0.85 
G01 X0.509 Y8.893 
G03 X1.359 Y8.043 I0.85 J0 
G01 X5.509 Y8.043 
X5.509 Y7.243 
X3.859 Y7.243 
G03 X3.009 Y6.393 I0 J-0.85 
G01 X3.009 Y3.893 
G03 X3.859 Y3.043 I0.85 J0 
G02 X3.859 Y1.043 I0 J-1 
G00 Z5
X4 Y2
Z-5
G01 Z-5.5 
G02 X3.859 Y3.043 I-0.14 J0.512 
G01 X5.509 Y3.043 
X5.509 Y1.393 
G03 X6.359 Y0.543 I0.85 J0 
G01 X11.359 Y0.543 
G03 X12.209 Y1.393 I0 J0.85 
G01 X12.209 Y3.893 
G03 X11.359 Y4.743 I-0.85 J0 
G01 X9.709 Y4.743 
X9.709 Y5.543 
X13.859 Y5.543 
G03 X14.709 Y6.393 I0 J0.85 
G01 X14.709 Y8.043 
X18.009 Y8.043 
X18.009 Y6.393 
G03 X18.859 Y5.543 I0.85 J0 
G01 X23.009 Y5.543 
X23.009 Y4.743 
X21.359 Y4.743 
G03 X20.509 Y3.893 I0 J-0.85 
G01 X20.509 Y1.393 
G03 X21.359 Y0.543 I0.85 J0 
G01 X26.359 Y0.543 
G03 X27.209 Y1.393 I0 J0.85 
G01 X27.209 Y3.043 
X28.859 Y3.043 
G03 X29.709 Y3.893 I0 J0.85 
G01 X29.709 Y6.393 
G03 X28.859 Y7.243 I-0.85 J0 
G01 X27.209 Y7.243 
X27.209 Y8.043 
X31.359 Y8.043 
G03 X32.209 Y8.893 I0 J0.85 
G01 X32.209 Y16.393 
G03 X31.359 Y17.243 I-0.85 J0 
G01 X29.709 Y17.243 
X29.709 Y18.893 
G03 X28.859 Y19.743 I-0.85 J0 
G01 X22.209 Y19.743 
X22.209 Y21.393 
G03 X21.359 Y22.243 I-0.85 J0 
G01 X20.206 Y22.243 
X20.176 Y22.633 
G03 X20.161 Y22.744 I-0.847 J-0.064 
G01 X20.079 Y23.13 
G03 X20.049 Y23.238 I-0.831 J-0.175 
G01 X19.917 Y23.61 
G03 X19.873 Y23.712 I-0.801 J-0.283 
G01 X19.694 Y24.064 
G03 X19.637 Y24.16 I-0.757 J-0.385 
G01 X19.413 Y24.485 
G03 X19.344 Y24.573 I-0.7 J-0.482 
G01 X19.079 Y24.866 
G03 X18.999 Y24.944 I-0.63 J-0.569 
G01 X18.698 Y25.199 
G03 X18.609 Y25.266 I-0.55 J-0.647 
G01 X18.277 Y25.48 
G03 X18.179 Y25.534 I-0.46 J-0.714 
G01 X17.822 Y25.703 
G03 X17.718 Y25.744 I-0.363 J-0.768 
G01 X17.343 Y25.864 
G03 X17.234 Y25.891 I-0.259 J-0.809 
G01 X16.846 Y25.961 
G03 X16.735 Y25.973 I-0.15 J-0.836 
G01 X16.34 Y25.992 
G03 X16.229 Y25.989 I-0.039 J-0.849 
G01 X15.835 Y25.956 
G03 X15.725 Y25.939 I0.072 J-0.846 
G01 X15.339 Y25.854 
G03 X15.232 Y25.823 I0.182 J-0.83 
G01 X14.861 Y25.688 
G03 X14.759 Y25.643 I0.29 J-0.798 
G01 X14.409 Y25.461 
G03 X14.313 Y25.403 I0.392 J-0.753 
G01 X13.99 Y25.176 
G03 X13.903 Y25.106 I0.488 J-0.695 
G01 X13.613 Y24.839 
G03 X13.535 Y24.758 I0.575 J-0.625 
G01 X13.283 Y24.455 
G03 X13.217 Y24.365 I0.652 J-0.544 
G01 X13.006 Y24.031 
G03 X12.952 Y23.933 I0.718 J-0.454 
G01 X12.787 Y23.575 
G03 X12.747 Y23.47 I0.771 J-0.356 
G01 X12.63 Y23.094 
G03 X12.604 Y22.985 I0.811 J-0.251 
G01 X12.537 Y22.596 
G03 X12.526 Y22.485 I0.837 J-0.143 
G01 X12.517 Y22.243 
X11.359 Y22.243 
G03 X10.509 Y21.393 I0 J-0.85 
G01 X10.509 Y19.743 
X3.859 Y19.743 
G03 X3.009 Y18.893 I0 J-0.85 
G01 X3.009 Y17.243 
X1.359 Y17.243 
G03 X0.509 Y16.393 I0 J-0.85 
G01 X0.509 Y8.893 
G03 X1.359 Y8.043 I0.85 J0 
G01 X5.509 Y8.043 
X5.509 Y7.243 
X3.859 Y7.243 
G03 X3.009 Y6.393 I0 J-0.85 
G01 X3.009 Y3.893 
G03 X3.859 Y3.043 I0.85 J0 
G02 X3.859 Y1.043 I0 J-1 
G00 Z5
X4 Y2
Z-5.5
G01 Z-6.1 
G02 X3.859 Y3.043 I-0.14 J0.512 
G01 X5.509 Y3.043 
X5.509 Y1.393 
G03 X6.359 Y0.543 I0.85 J0 
G01 X11.359 Y0.543 
G03 X12.209 Y1.393 I0 J0.85 
G01 X12.209 Y3.893 
G03 X11.359 Y4.743 I-0.85 J0 
G01 X9.709 Y4.743 
X9.709 Y5.543 
X13.859 Y5.543 
G03 X14.709 Y6.393 I0 J0.85 
G01 X14.709 Y8.043 
X18.009 Y8.043 
X18.009 Y6.393 
G03 X18.859 Y5.543 I0.85 J0 
G01 X23.009 Y5.543 
X23.009 Y4.743 
X21.359 Y4.743 
G03 X20.509 Y3.893 I0 J-0.85 
G01 X20.509 Y1.393 
G03 X21.359 Y0.543 I0.85 J0 
G01 X26.359 Y0.543 
G03 X27.209 Y1.393 I0 J0.85 
G01 X27.209 Y3.043 
X28.859 Y3.043 
G03 X29.709 Y3.893 I0 J0.85 
G01 X29.709 Y6.393 
G03 X28.859 Y7.243 I-0.85 J0 
G01 X27.209 Y7.243 
X27.209 Y8.043 
X31.359 Y8.043 
G03 X32.209 Y8.893 I0 J0.85 
G01 X32.209 Y16.393 
G03 X31.359 Y17.243 I-0.85 J0 
G01 X29.709 Y17.243 
X29.709 Y18.893 
G03 X28.859 Y19.743 I-0.85 J0 
G01 X22.209 Y19.743 
X22.209 Y21.393 
G03 X21.359 Y22.243 I-0.85 J0 
G01 X20.206 Y22.243 
X20.176 Y22.633 
G03 X20.161 Y22.744 I-0.847 J-0.064 
G01 X20.079 Y23.13 
G03 X20.049 Y23.238 I-0.831 J-0.175 
G01 X19.917 Y23.61 
G03 X19.873 Y23.712 I-0.801 J-0.283 
G01 X19.694 Y24.064 
G03 X19.637 Y24.16 I-0.757 J-0.385 
G01 X19.413 Y24.485 
G03 X19.344 Y24.573 I-0.7 J-0.482 
G01 X19.079 Y24.866 
G03 X18.999 Y24.944 I-0.63 J-0.569 
G01 X18.698 Y25.199 
G03 X18.609 Y25.266 I-0.55 J-0.647 
G01 X18.277 Y25.48 
G03 X18.179 Y25.534 I-0.46 J-0.714 
G01 X17.822 Y25.703 
G03 X17.718 Y25.744 I-0.363 J-0.768 
G01 X17.343 Y25.864 
G03 X17.234 Y25.891 I-0.259 J-0.809 
G01 X16.846 Y25.961 
G03 X16.735 Y25.973 I-0.15 J-0.836 
G01 X16.34 Y25.992 
G03 X16.229 Y25.989 I-0.039 J-0.849 
G01 X15.835 Y25.956 
G03 X15.725 Y25.939 I0.072 J-0.846 
G01 X15.339 Y25.854 
G03 X15.232 Y25.823 I0.182 J-0.83 
G01 X14.861 Y25.688 
G03 X14.759 Y25.643 I0.29 J-0.798 
G01 X14.409 Y25.461 
G03 X14.313 Y25.403 I0.392 J-0.753 
G01 X13.99 Y25.176 
G03 X13.903 Y25.106 I0.488 J-0.695 
G01 X13.613 Y24.839 
G03 X13.535 Y24.758 I0.575 J-0.625 
G01 X13.283 Y24.455 
G03 X13.217 Y24.365 I0.652 J-0.544 
G01 X13.006 Y24.031 
G03 X12.952 Y23.933 I0.718 J-0.454 
G01 X12.787 Y23.575 
G03 X12.747 Y23.47 I0.771 J-0.356 
G01 X12.63 Y23.094 
G03 X12.604 Y22.985 I0.811 J-0.251 
G01 X12.537 Y22.596 
G03 X12.526 Y22.485 I0.837 J-0.143 
G01 X12.517 Y22.243 
X11.359 Y22.243 
G03 X10.509 Y21.393 I0 J-0.85 
G01 X10.509 Y19.743 
X3.859 Y19.743 
G03 X3.009 Y18.893 I0 J-0.85 
G01 X3.009 Y17.243 
X1.359 Y17.243 
G03 X0.509 Y16.393 I0 J-0.85 
G01 X0.509 Y8.893 
G03 X1.359 Y8.043 I0.85 J0 
G01 X5.509 Y8.043 
X5.509 Y7.243 
X3.859 Y7.243 
G03 X3.009 Y6.393 I0 J-0.85 
G01 X3.009 Y3.893 
G03 X3.859 Y3.043 I0.85 J0 
G02 X3.859 Y1.043 I0 J-1 
G00 Z5
G90
(Sketch 3)
X4 Y2
Z2
G01 Z-2 
G02 X3.859 Y3.043 I-0.14 J0.512 F120
G01 X5.509 Y3.043 
X5.509 Y1.393 
G03 X6.359 Y0.543 I0.85 J0 
G01 X11.359 Y0.543 
G03 X12.209 Y1.393 I0 J0.85 
G01 X12.209 Y3.893 
G03 X11.359 Y4.743 I-0.85 J0 
G01 X9.709 Y4.743 
X9.709 Y5.543 
X13.859 Y5.543 
G03 X14.709 Y6.393 I0 J0.85 
G01 X14.709 Y8.043 
X18.009 Y8.043 
X18.009 Y6.393 
G03 X18.859 Y5.543 I0.85 J0 
G01 X23.009 Y5.543 
X23.009 Y4.743 
X21.359 Y4.743 
G03 X20.509 Y3.893 I0 J-0.85 
G01 X20.509 Y1.393 
G03 X21.359 Y0.543 I0.85 J0 
G01 X26.359 Y0.543 
G03 X27.209 Y1.393 I0 J0.85 
G01 X27.209 Y3.043 
X28.859 Y3.043 
G03 X29.709 Y3.893 I0 J0.85 
G01 X29.709 Y6.393 
G03 X28.859 Y7.243 I-0.85 J0 
G01 X27.209 Y7.243 
X27.209 Y8.043 
X31.359 Y8.043 
G03 X32.209 Y8.893 I0 J0.85 
G01 X32.209 Y16.393 
G03 X31.359 Y17.243 I-0.85 J0 
G01 X29.709 Y17.243 
X29.709 Y18.893 
G03 X28.859 Y19.743 I-0.85 J0 
G01 X22.209 Y19.743 
X22.209 Y21.393 
G03 X21.359 Y22.243 I-0.85 J0 
G01 X20.206 Y22.243 
X20.176 Y22.633 
G03 X20.161 Y22.744 I-0.847 J-0.064 
G01 X20.079 Y23.13 
G03 X20.049 Y23.238 I-0.831 J-0.175 
G01 X19.917 Y23.61 
G03 X19.873 Y23.712 I-0.801 J-0.283 
G01 X19.694 Y24.064 
G03 X19.637 Y24.16 I-0.757 J-0.385 
G01 X19.413 Y24.485 
G03 X19.344 Y24.573 I-0.7 J-0.482 
G01 X19.079 Y24.866 
G03 X18.999 Y24.944 I-0.63 J-0.569 
G01 X18.698 Y25.199 
G03 X18.609 Y25.266 I-0.55 J-0.647 
G01 X18.277 Y25.48 
G03 X18.179 Y25.534 I-0.46 J-0.714 
G01 X17.822 Y25.703 
G03 X17.718 Y25.744 I-0.363 J-0.768 
G01 X17.343 Y25.864 
G03 X17.234 Y25.891 I-0.259 J-0.809 
G01 X16.846 Y25.961 
G03 X16.735 Y25.973 I-0.15 J-0.836 
G01 X16.34 Y25.992 
G03 X16.229 Y25.989 I-0.039 J-0.849 
G01 X15.835 Y25.956 
G03 X15.725 Y25.939 I0.072 J-0.846 
G01 X15.339 Y25.854 
G03 X15.232 Y25.823 I0.182 J-0.83 
G01 X14.861 Y25.688 
G03 X14.759 Y25.643 I0.29 J-0.798 
G01 X14.409 Y25.461 
G03 X14.313 Y25.403 I0.392 J-0.753 
G01 X13.99 Y25.176 
G03 X13.903 Y25.106 I0.488 J-0.695 
G01 X13.613 Y24.839 
G03 X13.535 Y24.758 I0.575 J-0.625 
G01 X13.283 Y24.455 
G03 X13.217 Y24.365 I0.652 J-0.544 
G01 X13.006 Y24.031 
G03 X12.952 Y23.933 I0.718 J-0.454 
G01 X12.787 Y23.575 
G03 X12.747 Y23.47 I0.771 J-0.356 
G01 X12.63 Y23.094 
G03 X12.604 Y22.985 I0.811 J-0.251 
G01 X12.537 Y22.596 
G03 X12.526 Y22.485 I0.837 J-0.143 
G01 X12.517 Y22.243 
X11.359 Y22.243 
G03 X10.509 Y21.393 I0 J-0.85 
G01 X10.509 Y19.743 
X3.859 Y19.743 
G03 X3.009 Y18.893 I0 J-0.85 
G01 X3.009 Y17.243 
X1.359 Y17.243 
G03 X0.509 Y16.393 I0 J-0.85 
G01 X0.509 Y8.893 
G03 X1.359 Y8.043 I0.85 J0 
G01 X5.509 Y8.043 
X5.509 Y7.243 
X3.859 Y7.243 
G03 X3.009 Y6.393 I0 J-0.85 
G01 X3.009 Y3.893 
G03 X3.859 Y3.043 I0.85 J0 
G02 X3.859 Y1.043 I0 J-1 
G00 Z5
X4 Y2
Z-2
G01 Z-4 F40
G02 X3.859 Y3.043 I-0.14 J0.512 F120
G01 X5.509 Y3.043 
X5.509 Y1.393 
G03 X6.359 Y0.543 I0.85 J0 
G01 X11.359 Y0.543 
G03 X12.209 Y1.393 I0 J0.85 
G01 X12.209 Y3.893 
G03 X11.359 Y4.743 I-0.85 J0 
G01 X9.709 Y4.743 
X9.709 Y5.543 
X13.859 Y5.543 
G03 X14.709 Y6.393 I0 J0.85 
G01 X14.709 Y8.043 
X18.009 Y8.043 
X18.009 Y6.393 
G03 X18.859 Y5.543 I0.85 J0 
G01 X23.009 Y5.543 
X23.009 Y4.743 
X21.359 Y4.743 
G03 X20.509 Y3.893 I0 J-0.85 
G01 X20.509 Y1.393 
G03 X21.359 Y0.543 I0.85 J0 
G01 X26.359 Y0.543 
G03 X27.209 Y1.393 I0 J0.85 
G01 X27.209 Y3.043 
X28.859 Y3.043 
G03 X29.709 Y3.893 I0 J0.85 
G01 X29.709 Y6.393 
G03 X28.859 Y7.243 I-0.85 J0 
G01 X27.209 Y7.243 
X27.209 Y8.043 
X31.359 Y8.043 
G03 X32.209 Y8.893 I0 J0.85 
G01 X32.209 Y16.393 
G03 X31.359 Y17.243 I-0.85 J0 
G01 X29.709 Y17.243 
X29.709 Y18.893 
G03 X28.859 Y19.743 I-0.85 J0 
G01 X22.209 Y19.743 
X22.209 Y21.393 
G03 X21.359 Y22.243 I-0.85 J0 
G01 X20.206 Y22.243 
X20.176 Y22.633 
G03 X20.161 Y22.744 I-0.847 J-0.064 
G01 X20.079 Y23.13 
G03 X20.049 Y23.238 I-0.831 J-0.175 
G01 X19.917 Y23.61 
G03 X19.873 Y23.712 I-0.801 J-0.283 
G01 X19.694 Y24.064 
G03 X19.637 Y24.16 I-0.757 J-0.385 
G01 X19.413 Y24.485 
G03 X19.344 Y24.573 I-0.7 J-0.482 
G01 X19.079 Y24.866 
G03 X18.999 Y24.944 I-0.63 J-0.569 
G01 X18.698 Y25.199 
G03 X18.609 Y25.266 I-0.55 J-0.647 
G01 X18.277 Y25.48 
G03 X18.179 Y25.534 I-0.46 J-0.714 
G01 X17.822 Y25.703 
G03 X17.718 Y25.744 I-0.363 J-0.768 
G01 X17.343 Y25.864 
G03 X17.234 Y25.891 I-0.259 J-0.809 
G01 X16.846 Y25.961 
G03 X16.735 Y25.973 I-0.15 J-0.836 
G01 X16.34 Y25.992 
G03 X16.229 Y25.989 I-0.039 J-0.849 
G01 X15.835 Y25.956 
G03 X15.725 Y25.939 I0.072 J-0.846 
G01 X15.339 Y25.854 
G03 X15.232 Y25.823 I0.182 J-0.83 
G01 X14.861 Y25.688 
G03 X14.759 Y25.643 I0.29 J-0.798 
G01 X14.409 Y25.461 
G03 X14.313 Y25.403 I0.392 J-0.753 
G01 X13.99 Y25.176 
G03 X13.903 Y25.106 I0.488 J-0.695 
G01 X13.613 Y24.839 
G03 X13.535 Y24.758 I0.575 J-0.625 
G01 X13.283 Y24.455 
G03 X13.217 Y24.365 I0.652 J-0.544 
G01 X13.006 Y24.031 
G03 X12.952 Y23.933 I0.718 J-0.454 
G01 X12.787 Y23.575 
G03 X12.747 Y23.47 I0.771 J-0.356 
G01 X12.63 Y23.094 
G03 X12.604 Y22.985 I0.811 J-0.251 
G01 X12.537 Y22.596 
G03 X12.526 Y22.485 I0.837 J-0.143 
G01 X12.517 Y22.243 
X11.359 Y22.243 
G03 X10.509 Y21.393 I0 J-0.85 
G01 X10.509 Y19.743 
X3.859 Y19.743 
G03 X3.009 Y18.893 I0 J-0.85 
G01 X3.009 Y17.243 
X1.359 Y17.243 
G03 X0.509 Y16.393 I0 J-0.85 
G01 X0.509 Y8.893 
G03 X1.359 Y8.043 I0.85 J0 
G01 X5.509 Y8.043 
X5.509 Y7.243 
X3.859 Y7.243 
G03 X3.009 Y6.393 I0 J-0.85 
G01 X3.009 Y3.893 
G03 X3.859 Y3.043 I0.85 J0 
G02 X3.859 Y1.043 I0 J-1 
G00 Z5
X4 Y2
Z-4
G01 Z-6.1 F40
G02 X3.859 Y3.043 I-0.14 J0.512 F120
G01 X5.509 Y3.043 
X5.509 Y1.393 
G03 X6.359 Y0.543 I0.85 J0 
G01 X11.359 Y0.543 
G03 X12.209 Y1.393 I0 J0.85 
G01 X12.209 Y3.893 
G03 X11.359 Y4.743 I-0.85 J0 
G01 X9.709 Y4.743 
X9.709 Y5.543 
X13.859 Y5.543 
G03 X14.709 Y6.393 I0 J0.85 
G01 X14.709 Y8.043 
X18.009 Y8.043 
X18.009 Y6.393 
G03 X18.859 Y5.543 I0.85 J0 
G01 X23.009 Y5.543 
X23.009 Y4.743 
X21.359 Y4.743 
G03 X20.509 Y3.893 I0 J-0.85 
G01 X20.509 Y1.393 
G03 X21.359 Y0.543 I0.85 J0 
G01 X26.359 Y0.543 
G03 X27.209 Y1.393 I0 J0.85 
G01 X27.209 Y3.043 
X28.859 Y3.043 
G03 X29.709 Y3.893 I0 J0.85 
G01 X29.709 Y6.393 
G03 X28.859 Y7.243 I-0.85 J0 
G01 X27.209 Y7.243 
X27.209 Y8.043 
X31.359 Y8.043 
G03 X32.209 Y8.893 I0 J0.85 
G01 X32.209 Y16.393 
G03 X31.359 Y17.243 I-0.85 J0 
G01 X29.709 Y17.243 
X29.709 Y18.893 
G03 X28.859 Y19.743 I-0.85 J0 
G01 X22.209 Y19.743 
X22.209 Y21.393 
G03 X21.359 Y22.243 I-0.85 J0 
G01 X20.206 Y22.243 
X20.176 Y22.633 
G03 X20.161 Y22.744 I-0.847 J-0.064 
G01 X20.079 Y23.13 
G03 X20.049 Y23.238 I-0.831 J-0.175 
G01 X19.917 Y23.61 
G03 X19.873 Y23.712 I-0.801 J-0.283 
G01 X19.694 Y24.064 
G03 X19.637 Y24.16 I-0.757 J-0.385 
G01 X19.413 Y24.485 
G03 X19.344 Y24.573 I-0.7 J-0.482 
G01 X19.079 Y24.866 
G03 X18.999 Y24.944 I-0.63 J-0.569 
G01 X18.698 Y25.199 
G03 X18.609 Y25.266 I-0.55 J-0.647 
G01 X18.277 Y25.48 
G03 X18.179 Y25.534 I-0.46 J-0.714 
G01 X17.822 Y25.703 
G03 X17.718 Y25.744 I-0.363 J-0.768 
G01 X17.343 Y25.864 
G03 X17.234 Y25.891 I-0.259 J-0.809 
G01 X16.846 Y25.961 
G03 X16.735 Y25.973 I-0.15 J-0.836 
G01 X16.34 Y25.992 
G03 X16.229 Y25.989 I-0.039 J-0.849 
G01 X15.835 Y25.956 
G03 X15.725 Y25.939 I0.072 J-0.846 
G01 X15.339 Y25.854 
G03 X15.232 Y25.823 I0.182 J-0.83 
G01 X14.861 Y25.688 
G03 X14.759 Y25.643 I0.29 J-0.798 
G01 X14.409 Y25.461 
G03 X14.313 Y25.403 I0.392 J-0.753 
G01 X13.99 Y25.176 
G03 X13.903 Y25.106 I0.488 J-0.695 
G01 X13.613 Y24.839 
G03 X13.535 Y24.758 I0.575 J-0.625 
G01 X13.283 Y24.455 
G03 X13.217 Y24.365 I0.652 J-0.544 
G01 X13.006 Y24.031 
G03 X12.952 Y23.933 I0.718 J-0.454 
G01 X12.787 Y23.575 
G03 X12.747 Y23.47 I0.771 J-0.356 
G01 X12.63 Y23.094 
G03 X12.604 Y22.985 I0.811 J-0.251 
G01 X12.537 Y22.596 
G03 X12.526 Y22.485 I0.837 J-0.143 
G01 X12.517 Y22.243 
X11.359 Y22.243 
G03 X10.509 Y21.393 I0 J-0.85 
G01 X10.509 Y19.743 
X3.859 Y19.743 
G03 X3.009 Y18.893 I0 J-0.85 
G01 X3.009 Y17.243 
X1.359 Y17.243 
G03 X0.509 Y16.393 I0 J-0.85 
G01 X0.509 Y8.893 
G03 X1.359 Y8.043 I0.85 J0 
G01 X5.509 Y8.043 
X5.509 Y7.243 
X3.859 Y7.243 
G03 X3.009 Y6.393 I0 J-0.85 
G01 X3.009 Y3.893 
G03 X3.859 Y3.043 I0.85 J0 
G02 X3.859 Y1.043 I0 J-1 
G00 Z5
G90
Z10 S5000 M03
X16.358 Y22.839
Z2
G01 Z-0.5 F60
G02 X16.985 Y22.443 I0.003 J-0.688 
G01 X15.733 Y22.443 
G02 X16.358 Y22.839 I0.626 J-0.297 
G00 Z10
Z1.5
G01 Z-1 
G02 X16.985 Y22.443 I0.003 J-0.688 
G01 X15.733 Y22.443 
G02 X16.358 Y22.839 I0.626 J-0.297 
G00 Z10
Z1
G01 Z-1.5 
G02 X16.985 Y22.443 I0.003 J-0.688 
G01 X15.733 Y22.443 
G02 X16.358 Y22.839 I0.626 J-0.297 
G00 Z10
Z0.5
G01 Z-2 
G02 X16.985 Y22.443 I0.003 J-0.688 
G01 X15.733 Y22.443 
G02 X16.358 Y22.839 I0.626 J-0.297 
G00 Z10
Z0
G01 Z-2.5 
G02 X16.985 Y22.443 I0.003 J-0.688 
G01 X15.733 Y22.443 
G02 X16.358 Y22.839 I0.626 J-0.297 
G00 Z10
Z-0.5
G01 Z-3 
G02 X16.985 Y22.443 I0.003 J-0.688 
G01 X15.733 Y22.443 
G02 X16.358 Y22.839 I0.626 J-0.297 
G00 Z10
Z-1
G01 Z-3.5 
G02 X16.985 Y22.443 I0.003 J-0.688 
G01 X15.733 Y22.443 
G02 X16.358 Y22.839 I0.626 J-0.297 
G00 Z10
Z-1.5
G01 Z-4 
G02 X16.985 Y22.443 I0.003 J-0.688 
G01 X15.733 Y22.443 
G02 X16.358 Y22.839 I0.626 J-0.297 
G00 Z10
Z-2
G01 Z-4.5 
G02 X16.985 Y22.443 I0.003 J-0.688 
G01 X15.733 Y22.443 
G02 X16.358 Y22.839 I0.626 J-0.297 
G00 Z10
Z-2.5
G01 Z-5 
G02 X16.985 Y22.443 I0.003 J-0.688 
G01 X15.733 Y22.443 
G02 X16.358 Y22.839 I0.626 J-0.297 
G00 Z10
Z-3
G01 Z-5.5 
G02 X16.985 Y22.443 I0.003 J-0.688 
G01 X15.733 Y22.443 
G02 X16.358 Y22.839 I0.626 J-0.297 
G00 Z10
Z-3.5
G01 Z-6 
G02 X16.985 Y22.443 I0.003 J-0.688 
G01 X15.733 Y22.443 
G02 X16.358 Y22.839 I0.626 J-0.297 
G00 Z10
Z-4
G01 Z-6.6 
G02 X16.985 Y22.443 I0.003 J-0.688 
G01 X15.733 Y22.443 
G02 X16.358 Y22.839 I0.626 J-0.297 
G00 Z10
T0 M06 M02
