(Created with emc2b post processor 2015/05/27 19:43)
G61
(tool change to 2 mm End Mill)
T1 M06 G43
G17 G90 G21
G00 Z3 S15000 M03
X22.659 Y12.693
Z2
G01 Z-1 F40
X22.659 Y12.593
X20.059 Y12.593
X20.059 Y12.693
X22.659 Y12.693
G00 Z3
Z1
G01 Z-2
X22.659 Y12.593
X20.059 Y12.593
X20.059 Y12.693
X22.659 Y12.693
G00 Z3
Z0
G01 Z-3.1
X22.659 Y12.593
X20.059 Y12.593
X20.059 Y12.693
X22.659 Y12.693
G00 Z3
X12.659 Y12.693 S15000 M03
Z2
G01 Z-1
X12.659 Y12.593
X10.059 Y12.593
X10.059 Y12.693
X12.659 Y12.693
G00 Z3
Z1
G01 Z-2
X12.659 Y12.593
X10.059 Y12.593
X10.059 Y12.693
X12.659 Y12.693
G00 Z3
Z0
G01 Z-3.1
X12.659 Y12.593
X10.059 Y12.593
X10.059 Y12.693
X12.659 Y12.693
G00 Z3
X16.359 Y22.688 S5000 M03
Z2
G01 Z-0.5 F60
G02 X16.664 Y22.593 I0.004 J-0.523
G01 X16.054 Y22.593
G02 X16.359 Y22.688 I0.3 J-0.428
G00 Z3
Z1.5
G01 Z-1
G02 X16.664 Y22.593 I0.004 J-0.523
G01 X16.054 Y22.593
G02 X16.359 Y22.688 I0.3 J-0.428
G00 Z3
Z1
G01 Z-1.5
G02 X16.664 Y22.593 I0.004 J-0.523
G01 X16.054 Y22.593
G02 X16.359 Y22.688 I0.3 J-0.428
G00 Z3
Z0.5
G01 Z-2
G02 X16.664 Y22.593 I0.004 J-0.523
G01 X16.054 Y22.593
G02 X16.359 Y22.688 I0.3 J-0.428
G00 Z3
Z0
G01 Z-2.5
G02 X16.664 Y22.593 I0.004 J-0.523
G01 X16.054 Y22.593
G02 X16.359 Y22.688 I0.3 J-0.428
G00 Z3
Z-0.5
G01 Z-3
G02 X16.664 Y22.593 I0.004 J-0.523
G01 X16.054 Y22.593
G02 X16.359 Y22.688 I0.3 J-0.428
G00 Z3
Z-1
G01 Z-3.5
G02 X16.664 Y22.593 I0.004 J-0.523
G01 X16.054 Y22.593
G02 X16.359 Y22.688 I0.3 J-0.428
G00 Z3
Z-1.5
G01 Z-4
G02 X16.664 Y22.593 I0.004 J-0.523
G01 X16.054 Y22.593
G02 X16.359 Y22.688 I0.3 J-0.428
G00 Z3
Z-2
G01 Z-4.5
G02 X16.664 Y22.593 I0.004 J-0.523
G01 X16.054 Y22.593
G02 X16.359 Y22.688 I0.3 J-0.428
G00 Z3
Z-2.5
G01 Z-5
G02 X16.664 Y22.593 I0.004 J-0.523
G01 X16.054 Y22.593
G02 X16.359 Y22.688 I0.3 J-0.428
G00 Z3
Z-3
G01 Z-5.5
G02 X16.664 Y22.593 I0.004 J-0.523
G01 X16.054 Y22.593
G02 X16.359 Y22.688 I0.3 J-0.428
G00 Z3
Z-3.5
G01 Z-6.1
G02 X16.664 Y22.593 I0.004 J-0.523
G01 X16.054 Y22.593
G02 X16.359 Y22.688 I0.3 J-0.428
G00 Z3
(Sketch 3)
X4 Y2 S15000 M03
Z2
G01 Z-1 F40
G02 X3.859 Y2.893 I-0.14 J0.435
G01 X5.359 Y2.893
X5.359 Y1.393
G03 X6.359 Y0.393 I1 J0
G01 X11.359 Y0.393
G03 X12.359 Y1.393 I0 J1
G01 X12.359 Y3.893
G03 X11.359 Y4.893 I-1 J0
G01 X9.859 Y4.893
X9.859 Y5.393
X13.859 Y5.393
G03 X14.859 Y6.393 I0 J1
G01 X14.859 Y7.893
X17.859 Y7.893
X17.859 Y6.393
G03 X18.859 Y5.393 I1 J0
G01 X22.859 Y5.393
X22.859 Y4.893
X21.359 Y4.893
G03 X20.359 Y3.893 I0 J-1
G01 X20.359 Y1.393
G03 X21.359 Y0.393 I1 J0
G01 X26.359 Y0.393
G03 X27.359 Y1.393 I0 J1
G01 X27.359 Y2.893
X28.859 Y2.893
G03 X29.859 Y3.893 I0 J1
G01 X29.859 Y6.393
G03 X28.859 Y7.393 I-1 J0
G01 X27.359 Y7.393
X27.359 Y7.893
X31.359 Y7.893
G03 X32.359 Y8.893 I0 J1
G01 X32.359 Y16.393
G03 X31.359 Y17.393 I-1 J0
G01 X29.859 Y17.393
X29.859 Y18.893
G03 X28.859 Y19.893 I-1 J0
G01 X22.359 Y19.893
X22.359 Y21.393
G03 X21.359 Y22.393 I-1 J0
G01 X20.345 Y22.393
X20.326 Y22.645
G03 X20.307 Y22.775 I-0.997 J-0.076
G01 X20.226 Y23.161
G03 X20.19 Y23.288 I-0.978 J-0.206
G01 X20.059 Y23.66
G03 X20.007 Y23.781 I-0.942 J-0.333
G01 X19.828 Y24.132
G03 X19.76 Y24.245 I-0.89 J-0.454
G01 X19.537 Y24.57
G03 X19.455 Y24.673 I-0.823 J-0.567
G01 X19.191 Y24.966
G03 X19.096 Y25.058 I-0.742 J-0.67
G01 X18.795 Y25.314
G03 X18.69 Y25.392 I-0.647 J-0.761
G01 X18.358 Y25.606
G03 X18.243 Y25.67 I-0.542 J-0.84
G01 X17.886 Y25.838
G03 X17.764 Y25.887 I-0.427 J-0.904
G01 X17.388 Y26.007
G03 X17.261 Y26.039 I-0.304 J-0.952
G01 X16.872 Y26.108
G03 X16.741 Y26.123 I-0.177 J-0.984
G01 X16.347 Y26.141
G03 X16.216 Y26.139 I-0.046 J-0.998
G01 X15.823 Y26.105
G03 X15.693 Y26.086 I0.085 J-0.996
G01 X15.307 Y26.001
G03 X15.181 Y25.964 I0.215 J-0.976
G01 X14.81 Y25.829
G03 X14.69 Y25.776 I0.341 J-0.939
G01 X14.34 Y25.594
G03 X14.227 Y25.526 I0.461 J-0.886
G01 X13.904 Y25.299
G03 X13.802 Y25.217 I0.574 J-0.818
G01 X13.511 Y24.949
G03 X13.42 Y24.854 I0.676 J-0.736
G01 X13.167 Y24.551
G03 X13.09 Y24.445 I0.767 J-0.64
G01 X12.879 Y24.112
G03 X12.816 Y23.996 I0.845 J-0.534
G01 X12.651 Y23.638
G03 X12.603 Y23.515 I0.907 J-0.419
G01 X12.487 Y23.138
G03 X12.456 Y23.01 I0.955 J-0.296
G01 X12.389 Y22.621
G03 X12.376 Y22.49 I0.985 J-0.168
G01 X12.372 Y22.393
X11.359 Y22.393
G03 X10.359 Y21.393 I0 J-1
G01 X10.359 Y19.893
X3.859 Y19.893
G03 X2.859 Y18.893 I0 J-1
G01 X2.859 Y17.393
X1.359 Y17.393
G03 X0.359 Y16.393 I0 J-1
G01 X0.359 Y8.893
G03 X1.359 Y7.893 I1 J0
G01 X5.359 Y7.893
X5.359 Y7.393
X3.859 Y7.393
G03 X2.859 Y6.393 I0 J-1
G01 X2.859 Y3.893
G03 X3.859 Y2.893 I1 J0
G02 X3.859 Y0.893 I0 J-1
G00 Z3
X4 Y2
Z-1
G01 Z-2
G02 X3.859 Y2.893 I-0.14 J0.435
G01 X5.359 Y2.893
X5.359 Y1.393
G03 X6.359 Y0.393 I1 J0
G01 X11.359 Y0.393
G03 X12.359 Y1.393 I0 J1
G01 X12.359 Y3.893
G03 X11.359 Y4.893 I-1 J0
G01 X9.859 Y4.893
X9.859 Y5.393
X13.859 Y5.393
G03 X14.859 Y6.393 I0 J1
G01 X14.859 Y7.893
X17.859 Y7.893
X17.859 Y6.393
G03 X18.859 Y5.393 I1 J0
G01 X22.859 Y5.393
X22.859 Y4.893
X21.359 Y4.893
G03 X20.359 Y3.893 I0 J-1
G01 X20.359 Y1.393
G03 X21.359 Y0.393 I1 J0
G01 X26.359 Y0.393
G03 X27.359 Y1.393 I0 J1
G01 X27.359 Y2.893
X28.859 Y2.893
G03 X29.859 Y3.893 I0 J1
G01 X29.859 Y6.393
G03 X28.859 Y7.393 I-1 J0
G01 X27.359 Y7.393
X27.359 Y7.893
X31.359 Y7.893
G03 X32.359 Y8.893 I0 J1
G01 X32.359 Y16.393
G03 X31.359 Y17.393 I-1 J0
G01 X29.859 Y17.393
X29.859 Y18.893
G03 X28.859 Y19.893 I-1 J0
G01 X22.359 Y19.893
X22.359 Y21.393
G03 X21.359 Y22.393 I-1 J0
G01 X20.345 Y22.393
X20.326 Y22.645
G03 X20.307 Y22.775 I-0.997 J-0.076
G01 X20.226 Y23.161
G03 X20.19 Y23.288 I-0.978 J-0.206
G01 X20.059 Y23.66
G03 X20.007 Y23.781 I-0.942 J-0.333
G01 X19.828 Y24.132
G03 X19.76 Y24.245 I-0.89 J-0.454
G01 X19.537 Y24.57
G03 X19.455 Y24.673 I-0.823 J-0.567
G01 X19.191 Y24.966
G03 X19.096 Y25.058 I-0.742 J-0.67
G01 X18.795 Y25.314
G03 X18.69 Y25.392 I-0.647 J-0.761
G01 X18.358 Y25.606
G03 X18.243 Y25.67 I-0.542 J-0.84
G01 X17.886 Y25.838
G03 X17.764 Y25.887 I-0.427 J-0.904
G01 X17.388 Y26.007
G03 X17.261 Y26.039 I-0.304 J-0.952
G01 X16.872 Y26.108
G03 X16.741 Y26.123 I-0.177 J-0.984
G01 X16.347 Y26.141
G03 X16.216 Y26.139 I-0.046 J-0.998
G01 X15.823 Y26.105
G03 X15.693 Y26.086 I0.085 J-0.996
G01 X15.307 Y26.001
G03 X15.181 Y25.964 I0.215 J-0.976
G01 X14.81 Y25.829
G03 X14.69 Y25.776 I0.341 J-0.939
G01 X14.34 Y25.594
G03 X14.227 Y25.526 I0.461 J-0.886
G01 X13.904 Y25.299
G03 X13.802 Y25.217 I0.574 J-0.818
G01 X13.511 Y24.949
G03 X13.42 Y24.854 I0.676 J-0.736
G01 X13.167 Y24.551
G03 X13.09 Y24.445 I0.767 J-0.64
G01 X12.879 Y24.112
G03 X12.816 Y23.996 I0.845 J-0.534
G01 X12.651 Y23.638
G03 X12.603 Y23.515 I0.907 J-0.419
G01 X12.487 Y23.138
G03 X12.456 Y23.01 I0.955 J-0.296
G01 X12.389 Y22.621
G03 X12.376 Y22.49 I0.985 J-0.168
G01 X12.372 Y22.393
X11.359 Y22.393
G03 X10.359 Y21.393 I0 J-1
G01 X10.359 Y19.893
X3.859 Y19.893
G03 X2.859 Y18.893 I0 J-1
G01 X2.859 Y17.393
X1.359 Y17.393
G03 X0.359 Y16.393 I0 J-1
G01 X0.359 Y8.893
G03 X1.359 Y7.893 I1 J0
G01 X5.359 Y7.893
X5.359 Y7.393
X3.859 Y7.393
G03 X2.859 Y6.393 I0 J-1
G01 X2.859 Y3.893
G03 X3.859 Y2.893 I1 J0
G02 X3.859 Y0.893 I0 J-1
G00 Z3
X4 Y2
Z-2
G01 Z-3.1
G02 X3.859 Y2.893 I-0.14 J0.435
G01 X5.359 Y2.893
X5.359 Y1.393
G03 X6.359 Y0.393 I1 J0
G01 X11.359 Y0.393
G03 X12.359 Y1.393 I0 J1
G01 X12.359 Y3.893
G03 X11.359 Y4.893 I-1 J0
G01 X9.859 Y4.893
X9.859 Y5.393
X13.859 Y5.393
G03 X14.859 Y6.393 I0 J1
G01 X14.859 Y7.893
X17.859 Y7.893
X17.859 Y6.393
G03 X18.859 Y5.393 I1 J0
G01 X22.859 Y5.393
X22.859 Y4.893
X21.359 Y4.893
G03 X20.359 Y3.893 I0 J-1
G01 X20.359 Y1.393
G03 X21.359 Y0.393 I1 J0
G01 X26.359 Y0.393
G03 X27.359 Y1.393 I0 J1
G01 X27.359 Y2.893
X28.859 Y2.893
G03 X29.859 Y3.893 I0 J1
G01 X29.859 Y6.393
G03 X28.859 Y7.393 I-1 J0
G01 X27.359 Y7.393
X27.359 Y7.893
X31.359 Y7.893
G03 X32.359 Y8.893 I0 J1
G01 X32.359 Y16.393
G03 X31.359 Y17.393 I-1 J0
G01 X29.859 Y17.393
X29.859 Y18.893
G03 X28.859 Y19.893 I-1 J0
G01 X22.359 Y19.893
X22.359 Y21.393
G03 X21.359 Y22.393 I-1 J0
G01 X20.345 Y22.393
X20.326 Y22.645
G03 X20.307 Y22.775 I-0.997 J-0.076
G01 X20.226 Y23.161
G03 X20.19 Y23.288 I-0.978 J-0.206
G01 X20.059 Y23.66
G03 X20.007 Y23.781 I-0.942 J-0.333
G01 X19.828 Y24.132
G03 X19.76 Y24.245 I-0.89 J-0.454
G01 X19.537 Y24.57
G03 X19.455 Y24.673 I-0.823 J-0.567
G01 X19.191 Y24.966
G03 X19.096 Y25.058 I-0.742 J-0.67
G01 X18.795 Y25.314
G03 X18.69 Y25.392 I-0.647 J-0.761
G01 X18.358 Y25.606
G03 X18.243 Y25.67 I-0.542 J-0.84
G01 X17.886 Y25.838
G03 X17.764 Y25.887 I-0.427 J-0.904
G01 X17.388 Y26.007
G03 X17.261 Y26.039 I-0.304 J-0.952
G01 X16.872 Y26.108
G03 X16.741 Y26.123 I-0.177 J-0.984
G01 X16.347 Y26.141
G03 X16.216 Y26.139 I-0.046 J-0.998
G01 X15.823 Y26.105
G03 X15.693 Y26.086 I0.085 J-0.996
G01 X15.307 Y26.001
G03 X15.181 Y25.964 I0.215 J-0.976
G01 X14.81 Y25.829
G03 X14.69 Y25.776 I0.341 J-0.939
G01 X14.34 Y25.594
G03 X14.227 Y25.526 I0.461 J-0.886
G01 X13.904 Y25.299
G03 X13.802 Y25.217 I0.574 J-0.818
G01 X13.511 Y24.949
G03 X13.42 Y24.854 I0.676 J-0.736
G01 X13.167 Y24.551
G03 X13.09 Y24.445 I0.767 J-0.64
G01 X12.879 Y24.112
G03 X12.816 Y23.996 I0.845 J-0.534
G01 X12.651 Y23.638
G03 X12.603 Y23.515 I0.907 J-0.419
G01 X12.487 Y23.138
G03 X12.456 Y23.01 I0.955 J-0.296
G01 X12.389 Y22.621
G03 X12.376 Y22.49 I0.985 J-0.168
G01 X12.372 Y22.393
X11.359 Y22.393
G03 X10.359 Y21.393 I0 J-1
G01 X10.359 Y19.893
X3.859 Y19.893
G03 X2.859 Y18.893 I0 J-1
G01 X2.859 Y17.393
X1.359 Y17.393
G03 X0.359 Y16.393 I0 J-1
G01 X0.359 Y8.893
G03 X1.359 Y7.893 I1 J0
G01 X5.359 Y7.893
X5.359 Y7.393
X3.859 Y7.393
G03 X2.859 Y6.393 I0 J-1
G01 X2.859 Y3.893
G03 X3.859 Y2.893 I1 J0
G02 X3.859 Y0.893 I0 J-1
G00 Z3
G90
(Sketch 3)
X4 Y2
Z2
G01 Z-3.1
G02 X3.859 Y2.893 I-0.14 J0.435 F120
G01 X5.359 Y2.893
X5.359 Y1.393
G03 X6.359 Y0.393 I1 J0
G01 X11.359 Y0.393
G03 X12.359 Y1.393 I0 J1
G01 X12.359 Y3.893
G03 X11.359 Y4.893 I-1 J0
G01 X9.859 Y4.893
X9.859 Y5.393
X13.859 Y5.393
G03 X14.859 Y6.393 I0 J1
G01 X14.859 Y7.893
X17.859 Y7.893
X17.859 Y6.393
G03 X18.859 Y5.393 I1 J0
G01 X22.859 Y5.393
X22.859 Y4.893
X21.359 Y4.893
G03 X20.359 Y3.893 I0 J-1
G01 X20.359 Y1.393
G03 X21.359 Y0.393 I1 J0
G01 X26.359 Y0.393
G03 X27.359 Y1.393 I0 J1
G01 X27.359 Y2.893
X28.859 Y2.893
G03 X29.859 Y3.893 I0 J1
G01 X29.859 Y6.393
G03 X28.859 Y7.393 I-1 J0
G01 X27.359 Y7.393
X27.359 Y7.893
X31.359 Y7.893
G03 X32.359 Y8.893 I0 J1
G01 X32.359 Y16.393
G03 X31.359 Y17.393 I-1 J0
G01 X29.859 Y17.393
X29.859 Y18.893
G03 X28.859 Y19.893 I-1 J0
G01 X22.359 Y19.893
X22.359 Y21.393
G03 X21.359 Y22.393 I-1 J0
G01 X20.345 Y22.393
X20.326 Y22.645
G03 X20.307 Y22.775 I-0.997 J-0.076
G01 X20.226 Y23.161
G03 X20.19 Y23.288 I-0.978 J-0.206
G01 X20.059 Y23.66
G03 X20.007 Y23.781 I-0.942 J-0.333
G01 X19.828 Y24.132
G03 X19.76 Y24.245 I-0.89 J-0.454
G01 X19.537 Y24.57
G03 X19.455 Y24.673 I-0.823 J-0.567
G01 X19.191 Y24.966
G03 X19.096 Y25.058 I-0.742 J-0.67
G01 X18.795 Y25.314
G03 X18.69 Y25.392 I-0.647 J-0.761
G01 X18.358 Y25.606
G03 X18.243 Y25.67 I-0.542 J-0.84
G01 X17.886 Y25.838
G03 X17.764 Y25.887 I-0.427 J-0.904
G01 X17.388 Y26.007
G03 X17.261 Y26.039 I-0.304 J-0.952
G01 X16.872 Y26.108
G03 X16.741 Y26.123 I-0.177 J-0.984
G01 X16.347 Y26.141
G03 X16.216 Y26.139 I-0.046 J-0.998
G01 X15.823 Y26.105
G03 X15.693 Y26.086 I0.085 J-0.996
G01 X15.307 Y26.001
G03 X15.181 Y25.964 I0.215 J-0.976
G01 X14.81 Y25.829
G03 X14.69 Y25.776 I0.341 J-0.939
G01 X14.34 Y25.594
G03 X14.227 Y25.526 I0.461 J-0.886
G01 X13.904 Y25.299
G03 X13.802 Y25.217 I0.574 J-0.818
G01 X13.511 Y24.949
G03 X13.42 Y24.854 I0.676 J-0.736
G01 X13.167 Y24.551
G03 X13.09 Y24.445 I0.767 J-0.64
G01 X12.879 Y24.112
G03 X12.816 Y23.996 I0.845 J-0.534
G01 X12.651 Y23.638
G03 X12.603 Y23.515 I0.907 J-0.419
G01 X12.487 Y23.138
G03 X12.456 Y23.01 I0.955 J-0.296
G01 X12.389 Y22.621
G03 X12.376 Y22.49 I0.985 J-0.168
G01 X12.372 Y22.393
X11.359 Y22.393
G03 X10.359 Y21.393 I0 J-1
G01 X10.359 Y19.893
X3.859 Y19.893
G03 X2.859 Y18.893 I0 J-1
G01 X2.859 Y17.393
X1.359 Y17.393
G03 X0.359 Y16.393 I0 J-1
G01 X0.359 Y8.893
G03 X1.359 Y7.893 I1 J0
G01 X5.359 Y7.893
X5.359 Y7.393
X3.859 Y7.393
G03 X2.859 Y6.393 I0 J-1
G01 X2.859 Y3.893
G03 X3.859 Y2.893 I1 J0
G02 X3.859 Y0.893 I0 J-1
G00 Z3
T0 M06 M02
