(Created with emc2b post processor 2015/06/14 15:47)
G61
(tool change to 3 mm End Mill)
T1 M06 G43
G17 G90 G21
G00 Z2 S20000 M03
X0.035 Y0.774
Z8
G01 Z4 F40
G02 X-0.035 Y-0.773 I-0.036 J-0.773
X0.035 Y0.774 I0.036 J0.773
G01 X0.082 Y1.78
G02 X-0.082 Y-1.779 I-0.083 J-1.779
X0.082 Y1.78 I0.083 J1.779
G01 X0.129 Y2.784
G02 X-0.129 Y-2.783 I-0.131 J-2.783
X0.129 Y2.784 I0.131 J2.783
G01 X0.176 Y3.787
G02 X-0.176 Y-3.785 I-0.178 J-3.785
X0.176 Y3.787 I0.178 J3.785
G01 X0.225 Y4.788
G02 X-0.225 Y-4.787 I-0.227 J-4.787
X0.225 Y4.788 I0.227 J4.787
G01 X0.274 Y5.789
G02 X-0.274 Y-5.789 I-0.275 J-5.788
X0.274 Y5.789 I0.275 J5.788
G01 X0.322 Y6.79
G02 X-0.322 Y-6.79 I-0.323 J-6.789
X0.322 Y6.79 I0.323 J6.789
G00 Z2
X0.035 Y0.774
Z7
G01 Z3
G02 X-0.035 Y-0.773 I-0.036 J-0.773
X0.035 Y0.774 I0.036 J0.773
G01 X0.082 Y1.78
G02 X-0.082 Y-1.779 I-0.083 J-1.779
X0.082 Y1.78 I0.083 J1.779
G01 X0.129 Y2.784
G02 X-0.129 Y-2.783 I-0.131 J-2.783
X0.129 Y2.784 I0.131 J2.783
G01 X0.176 Y3.787
G02 X-0.176 Y-3.785 I-0.178 J-3.785
X0.176 Y3.787 I0.178 J3.785
G01 X0.225 Y4.788
G02 X-0.225 Y-4.787 I-0.227 J-4.787
X0.225 Y4.788 I0.227 J4.787
G01 X0.274 Y5.789
G02 X-0.274 Y-5.789 I-0.275 J-5.788
X0.274 Y5.789 I0.275 J5.788
G01 X0.322 Y6.79
G02 X-0.322 Y-6.79 I-0.323 J-6.789
X0.322 Y6.79 I0.323 J6.789
G00 Z2
X0.035 Y0.774
Z6
G01 Z2
G02 X-0.035 Y-0.773 I-0.036 J-0.773
X0.035 Y0.774 I0.036 J0.773
G01 X0.082 Y1.78
G02 X-0.082 Y-1.779 I-0.083 J-1.779
X0.082 Y1.78 I0.083 J1.779
G01 X0.129 Y2.784
G02 X-0.129 Y-2.783 I-0.131 J-2.783
X0.129 Y2.784 I0.131 J2.783
G01 X0.176 Y3.787
G02 X-0.176 Y-3.785 I-0.178 J-3.785
X0.176 Y3.787 I0.178 J3.785
G01 X0.225 Y4.788
G02 X-0.225 Y-4.787 I-0.227 J-4.787
X0.225 Y4.788 I0.227 J4.787
G01 X0.274 Y5.789
G02 X-0.274 Y-5.789 I-0.275 J-5.788
X0.274 Y5.789 I0.275 J5.788
G01 X0.322 Y6.79
G02 X-0.322 Y-6.79 I-0.323 J-6.789
X0.322 Y6.79 I0.323 J6.789
G00 X0.035 Y0.774
Z5
G01 Z1
G02 X-0.035 Y-0.773 I-0.036 J-0.773
X0.035 Y0.774 I0.036 J0.773
G01 X0.082 Y1.78
G02 X-0.082 Y-1.779 I-0.083 J-1.779
X0.082 Y1.78 I0.083 J1.779
G01 X0.129 Y2.784
G02 X-0.129 Y-2.783 I-0.131 J-2.783
X0.129 Y2.784 I0.131 J2.783
G01 X0.176 Y3.787
G02 X-0.176 Y-3.785 I-0.178 J-3.785
X0.176 Y3.787 I0.178 J3.785
G01 X0.225 Y4.788
G02 X-0.225 Y-4.787 I-0.227 J-4.787
X0.225 Y4.788 I0.227 J4.787
G01 X0.274 Y5.789
G02 X-0.274 Y-5.789 I-0.275 J-5.788
X0.274 Y5.789 I0.275 J5.788
G01 X0.322 Y6.79
G02 X-0.322 Y-6.79 I-0.323 J-6.789
X0.322 Y6.79 I0.323 J6.789
G00 Z2
X0.035 Y0.774
Z4
G01 Z-0.1
G02 X-0.035 Y-0.773 I-0.036 J-0.773
X0.035 Y0.774 I0.036 J0.773
G01 X0.082 Y1.78
G02 X-0.082 Y-1.779 I-0.083 J-1.779
X0.082 Y1.78 I0.083 J1.779
G01 X0.129 Y2.784
G02 X-0.129 Y-2.783 I-0.131 J-2.783
X0.129 Y2.784 I0.131 J2.783
G01 X0.176 Y3.787
G02 X-0.176 Y-3.785 I-0.178 J-3.785
X0.176 Y3.787 I0.178 J3.785
G01 X0.225 Y4.788
G02 X-0.225 Y-4.787 I-0.227 J-4.787
X0.225 Y4.788 I0.227 J4.787
G01 X0.274 Y5.789
G02 X-0.274 Y-5.789 I-0.275 J-5.788
X0.274 Y5.789 I0.275 J5.788
G01 X0.322 Y6.79
G02 X-0.322 Y-6.79 I-0.323 J-6.789
X0.322 Y6.79 I0.323 J6.789
G00 Z2
(Sketch 2)
X0 Y10 S20000 M03
Z7
G01 Z4
G03 X-10 Y0 I0 J-10
X10 Y0 I10 J0
X0 Y10 I-10 J0
G01 Z3
G03 X-10 Y0 I0 J-10
X10 Y0 I10 J0
X0 Y10 I-10 J0
G01 Z2
G03 X-10 Y0 I0 J-10
X10 Y0 I10 J0
X0 Y10 I-10 J0
G01 Z1
G03 X-10 Y0 I0 J-10
X10 Y0 I10 J0
X0 Y10 I-10 J0
G01 Z-0.1
G03 X-10 Y0 I0 J-10
X10 Y0 I10 J0
X0 Y10 I-10 J0
G00 Z7
T0 M06 M02
