(Created with emc2b post processor 2015/09/06 17:16)
G61
(tool change to 3 mm End Mill)
T1 M06 G43
G17 G90 G21
G00 Z7 S20000 M03
X0 Y0.265
G01 Z4 F20
G02 X0.064 Y-0.257 I0.001 J-0.264 F30
X-0.124 Y0.234 I-0.064 J0.256
X0 Y0.265 I0.124 J-0.236
G01 X0 Y1.273
G02 X0 Y-1.273 I0.001 J-1.273
X0 Y1.273 I-0.001 J1.273
G01 X0 Y2.279
G02 X0 Y-2.279 I0 J-2.279
X0 Y2.279 I0 J2.279
G01 X0 Y3.282
G02 X0 Y-3.282 I0 J-3.282
X0 Y3.282 I-0 J3.282
G01 X0 Y4.286
G02 X0 Y-4.286 I0 J-4.286
X0 Y4.286 I0 J4.286
G01 X0 Y5.289
G02 X0 Y-5.289 I0 J-5.289
X0 Y5.289 I0 J5.289
G01 X0 Y6.291
G02 X0 Y-6.291 I0 J-6.291
X0 Y6.291 I0 J6.291
G01 X0 Y7.293
G02 X0 Y-7.293 I0 J-7.293
X0 Y7.293 I0 J7.293
G01 X0 Y8.296
G02 X0 Y-8.296 I0 J-8.296
X0 Y8.296 I0 J8.296
G01 X0 Y9.298
G02 X0 Y-9.298 I0 J-9.298
X0 Y9.298 I0 J9.298
G00 Z7
X0 Y0.265
Z6
G01 Z3 F20
G02 X0.064 Y-0.257 I0.001 J-0.264 F30
X-0.124 Y0.234 I-0.064 J0.256
X0 Y0.265 I0.124 J-0.236
G01 X0 Y1.273
G02 X0 Y-1.273 I0.001 J-1.273
X0 Y1.273 I-0.001 J1.273
G01 X0 Y2.279
G02 X0 Y-2.279 I0 J-2.279
X0 Y2.279 I0 J2.279
G01 X0 Y3.282
G02 X0 Y-3.282 I0 J-3.282
X0 Y3.282 I-0 J3.282
G01 X0 Y4.286
G02 X0 Y-4.286 I0 J-4.286
X0 Y4.286 I0 J4.286
G01 X0 Y5.289
G02 X0 Y-5.289 I0 J-5.289
X0 Y5.289 I0 J5.289
G01 X0 Y6.291
G02 X0 Y-6.291 I0 J-6.291
X0 Y6.291 I0 J6.291
G01 X0 Y7.293
G02 X0 Y-7.293 I0 J-7.293
X0 Y7.293 I0 J7.293
G01 X0 Y8.296
G02 X0 Y-8.296 I0 J-8.296
X0 Y8.296 I0 J8.296
G01 X0 Y9.298
G02 X0 Y-9.298 I0 J-9.298
X0 Y9.298 I0 J9.298
G00 Z7
X0 Y0.265
Z5
G01 Z2 F20
G02 X0.064 Y-0.257 I0.001 J-0.264 F30
X-0.124 Y0.234 I-0.064 J0.256
X0 Y0.265 I0.124 J-0.236
G01 X0 Y1.273
G02 X0 Y-1.273 I0.001 J-1.273
X0 Y1.273 I-0.001 J1.273
G01 X0 Y2.279
G02 X0 Y-2.279 I0 J-2.279
X0 Y2.279 I0 J2.279
G01 X0 Y3.282
G02 X0 Y-3.282 I0 J-3.282
X0 Y3.282 I-0 J3.282
G01 X0 Y4.286
G02 X0 Y-4.286 I0 J-4.286
X0 Y4.286 I0 J4.286
G01 X0 Y5.289
G02 X0 Y-5.289 I0 J-5.289
X0 Y5.289 I0 J5.289
G01 X0 Y6.291
G02 X0 Y-6.291 I0 J-6.291
X0 Y6.291 I0 J6.291
G01 X0 Y7.293
G02 X0 Y-7.293 I0 J-7.293
X0 Y7.293 I0 J7.293
G01 X0 Y8.296
G02 X0 Y-8.296 I0 J-8.296
X0 Y8.296 I0 J8.296
G01 X0 Y9.298
G02 X0 Y-9.298 I0 J-9.298
X0 Y9.298 I0 J9.298
G00 Z7
X0 Y0.265
Z4
G01 Z1 F20
G02 X0.064 Y-0.257 I0.001 J-0.264 F30
X-0.124 Y0.234 I-0.064 J0.256
X0 Y0.265 I0.124 J-0.236
G01 X0 Y1.273
G02 X0 Y-1.273 I0.001 J-1.273
X0 Y1.273 I-0.001 J1.273
G01 X0 Y2.279
G02 X0 Y-2.279 I0 J-2.279
X0 Y2.279 I0 J2.279
G01 X0 Y3.282
G02 X0 Y-3.282 I0 J-3.282
X0 Y3.282 I-0 J3.282
G01 X0 Y4.286
G02 X0 Y-4.286 I0 J-4.286
X0 Y4.286 I0 J4.286
G01 X0 Y5.289
G02 X0 Y-5.289 I0 J-5.289
X0 Y5.289 I0 J5.289
G01 X0 Y6.291
G02 X0 Y-6.291 I0 J-6.291
X0 Y6.291 I0 J6.291
G01 X0 Y7.293
G02 X0 Y-7.293 I0 J-7.293
X0 Y7.293 I0 J7.293
G01 X0 Y8.296
G02 X0 Y-8.296 I0 J-8.296
X0 Y8.296 I0 J8.296
G01 X0 Y9.298
G02 X0 Y-9.298 I0 J-9.298
X0 Y9.298 I0 J9.298
G00 Z7
X0 Y0.265
Z3
G01 Z-0.1 F20
G02 X0.064 Y-0.257 I0.001 J-0.264 F30
X-0.124 Y0.234 I-0.064 J0.256
X0 Y0.265 I0.124 J-0.236
G01 X0 Y1.273
G02 X0 Y-1.273 I0.001 J-1.273
X0 Y1.273 I-0.001 J1.273
G01 X0 Y2.279
G02 X0 Y-2.279 I0 J-2.279
X0 Y2.279 I0 J2.279
G01 X0 Y3.282
G02 X0 Y-3.282 I0 J-3.282
X0 Y3.282 I-0 J3.282
G01 X0 Y4.286
G02 X0 Y-4.286 I0 J-4.286
X0 Y4.286 I0 J4.286
G01 X0 Y5.289
G02 X0 Y-5.289 I0 J-5.289
X0 Y5.289 I0 J5.289
G01 X0 Y6.291
G02 X0 Y-6.291 I0 J-6.291
X0 Y6.291 I0 J6.291
G01 X0 Y7.293
G02 X0 Y-7.293 I0 J-7.293
X0 Y7.293 I0 J7.293
G01 X0 Y8.296
G02 X0 Y-8.296 I0 J-8.296
X0 Y8.296 I0 J8.296
G01 X0 Y9.298
G02 X0 Y-9.298 I0 J-9.298
X0 Y9.298 I0 J9.298
G00 Z7
(Sketch 4)
X11 Y0 S20000 M03
G01 Z4 F20
G03 X0 Y11 I-11 J0 F30
X0 Y-11 I0 J-11
X11 Y0 I0 J11
G01 Z3 F20
G03 X0 Y11 I-11 J0 F30
X0 Y-11 I0 J-11
X11 Y0 I0 J11
G01 Z2 F20
G03 X0 Y11 I-11 J0 F30
X0 Y-11 I0 J-11
X11 Y0 I0 J11
G01 Z1 F20
G03 X0 Y11 I-11 J0 F30
X0 Y-11 I0 J-11
X11 Y0 I0 J11
G01 Z-0.1 F20
G03 X0 Y11 I-11 J0 F30
X0 Y-11 I0 J-11
X11 Y0 I0 J11
G00 Z7
T0 M06 M02
