(Created with emc2b post processor 2015/06/13 09:17)
G61
(tool change to 3.175 mm End Mill)
T2 M06 G43
G17 G90 G21
G00 Z7 S20000 M03
X0.031 Y0.688
Z8
G01 Z5 F40
G02 X-0.031 Y-0.689 I-0.033 J-0.688
X0.031 Y0.688 I0.033 J0.688
G00 Z7
X0.079 Y1.693
Z8
G01 Z5
G02 X-0.079 Y-1.694 I-0.081 J-1.693
X0.079 Y1.693 I0.081 J1.693
G00 Z7
X0.127 Y2.696
Z8
G01 Z5
G02 X-0.127 Y-2.697 I-0.129 J-2.696
X0.127 Y2.696 I0.129 J2.696
G00 Z7
X0.174 Y3.698
Z8
G01 Z5
G02 X-0.174 Y-3.699 I-0.176 J-3.698
X0.174 Y3.698 I0.176 J3.698
G00 Z7
X0.222 Y4.7
Z8
G01 Z5
G02 X-0.222 Y-4.7 I-0.224 J-4.699
X0.222 Y4.7 I0.224 J4.699
G00 Z7
X0.27 Y5.701
Z8
G01 Z5
G02 X-0.27 Y-5.701 I-0.271 J-5.7
X0.27 Y5.701 I0.271 J5.7
G00 Z7
X0.318 Y6.702
Z8
G01 Z5
G02 X-0.318 Y-6.702 I-0.318 J-6.701
X0.318 Y6.702 I0.318 J6.701
G00 Z7
X0.031 Y0.688
G01 Z4
G02 X-0.031 Y-0.689 I-0.033 J-0.688
X0.031 Y0.688 I0.033 J0.688
G00 Z7
X0.079 Y1.693
G01 Z4
G02 X-0.079 Y-1.694 I-0.081 J-1.693
X0.079 Y1.693 I0.081 J1.693
G00 Z7
X0.127 Y2.696
G01 Z4
G02 X-0.127 Y-2.697 I-0.129 J-2.696
X0.127 Y2.696 I0.129 J2.696
G00 Z7
X0.174 Y3.698
G01 Z4
G02 X-0.174 Y-3.699 I-0.176 J-3.698
X0.174 Y3.698 I0.176 J3.698
G00 Z7
X0.222 Y4.7
G01 Z4
G02 X-0.222 Y-4.7 I-0.224 J-4.699
X0.222 Y4.7 I0.224 J4.699
G00 Z7
X0.27 Y5.701
G01 Z4
G02 X-0.27 Y-5.701 I-0.271 J-5.7
X0.27 Y5.701 I0.271 J5.7
G00 Z7
X0.318 Y6.702
G01 Z4
G02 X-0.318 Y-6.702 I-0.318 J-6.701
X0.318 Y6.702 I0.318 J6.701
G00 Z7
X0.031 Y0.688
Z6
G01 Z3
G02 X-0.031 Y-0.689 I-0.033 J-0.688
X0.031 Y0.688 I0.033 J0.688
G00 Z7
X0.079 Y1.693
Z6
G01 Z3
G02 X-0.079 Y-1.694 I-0.081 J-1.693
X0.079 Y1.693 I0.081 J1.693
G00 Z7
X0.127 Y2.696
Z6
G01 Z3
G02 X-0.127 Y-2.697 I-0.129 J-2.696
X0.127 Y2.696 I0.129 J2.696
G00 Z7
X0.174 Y3.698
Z6
G01 Z3
G02 X-0.174 Y-3.699 I-0.176 J-3.698
X0.174 Y3.698 I0.176 J3.698
G00 Z7
X0.222 Y4.7
Z6
G01 Z3
G02 X-0.222 Y-4.7 I-0.224 J-4.699
X0.222 Y4.7 I0.224 J4.699
G00 Z7
X0.27 Y5.701
Z6
G01 Z3
G02 X-0.27 Y-5.701 I-0.271 J-5.7
X0.27 Y5.701 I0.271 J5.7
G00 Z7
X0.318 Y6.702
Z6
G01 Z3
G02 X-0.318 Y-6.702 I-0.318 J-6.701
X0.318 Y6.702 I0.318 J6.701
G00 Z7
X0.031 Y0.688
Z5
G01 Z2
G02 X-0.031 Y-0.689 I-0.033 J-0.688
X0.031 Y0.688 I0.033 J0.688
G00 Z7
X0.079 Y1.693
Z5
G01 Z2
G02 X-0.079 Y-1.694 I-0.081 J-1.693
X0.079 Y1.693 I0.081 J1.693
G00 Z7
X0.127 Y2.696
Z5
G01 Z2
G02 X-0.127 Y-2.697 I-0.129 J-2.696
X0.127 Y2.696 I0.129 J2.696
G00 Z7
X0.174 Y3.698
Z5
G01 Z2
G02 X-0.174 Y-3.699 I-0.176 J-3.698
X0.174 Y3.698 I0.176 J3.698
G00 Z7
X0.222 Y4.7
Z5
G01 Z2
G02 X-0.222 Y-4.7 I-0.224 J-4.699
X0.222 Y4.7 I0.224 J4.699
G00 Z7
X0.27 Y5.701
Z5
G01 Z2
G02 X-0.27 Y-5.701 I-0.271 J-5.7
X0.27 Y5.701 I0.271 J5.7
G00 Z7
X0.318 Y6.702
Z5
G01 Z2
G02 X-0.318 Y-6.702 I-0.318 J-6.701
X0.318 Y6.702 I0.318 J6.701
G00 Z7
X0.031 Y0.688
Z4
G01 Z1
G02 X-0.031 Y-0.689 I-0.033 J-0.688
X0.031 Y0.688 I0.033 J0.688
G00 Z7
X0.079 Y1.693
Z4
G01 Z1
G02 X-0.079 Y-1.694 I-0.081 J-1.693
X0.079 Y1.693 I0.081 J1.693
G00 Z7
X0.127 Y2.696
Z4
G01 Z1
G02 X-0.127 Y-2.697 I-0.129 J-2.696
X0.127 Y2.696 I0.129 J2.696
G00 Z7
X0.174 Y3.698
Z4
G01 Z1
G02 X-0.174 Y-3.699 I-0.176 J-3.698
X0.174 Y3.698 I0.176 J3.698
G00 Z7
X0.222 Y4.7
Z4
G01 Z1
G02 X-0.222 Y-4.7 I-0.224 J-4.699
X0.222 Y4.7 I0.224 J4.699
G00 Z7
X0.27 Y5.701
Z4
G01 Z1
G02 X-0.27 Y-5.701 I-0.271 J-5.7
X0.27 Y5.701 I0.271 J5.7
G00 Z7
X0.318 Y6.702
Z4
G01 Z1
G02 X-0.318 Y-6.702 I-0.318 J-6.701
X0.318 Y6.702 I0.318 J6.701
G00 Z7
X0.031 Y0.688
Z3
G01 Z-0.1
G02 X-0.031 Y-0.689 I-0.033 J-0.688
X0.031 Y0.688 I0.033 J0.688
G00 Z7
X0.079 Y1.693
Z3
G01 Z-0.1
G02 X-0.079 Y-1.694 I-0.081 J-1.693
X0.079 Y1.693 I0.081 J1.693
G00 Z7
X0.127 Y2.696
Z3
G01 Z-0.1
G02 X-0.127 Y-2.697 I-0.129 J-2.696
X0.127 Y2.696 I0.129 J2.696
G00 Z7
X0.174 Y3.698
Z3
G01 Z-0.1
G02 X-0.174 Y-3.699 I-0.176 J-3.698
X0.174 Y3.698 I0.176 J3.698
G00 Z7
X0.222 Y4.7
Z3
G01 Z-0.1
G02 X-0.222 Y-4.7 I-0.224 J-4.699
X0.222 Y4.7 I0.224 J4.699
G00 Z7
X0.27 Y5.701
Z3
G01 Z-0.1
G02 X-0.27 Y-5.701 I-0.271 J-5.7
X0.27 Y5.701 I0.271 J5.7
G00 Z7
X0.318 Y6.702
Z3
G01 Z-0.1
G02 X-0.318 Y-6.702 I-0.318 J-6.701
X0.318 Y6.702 I0.318 J6.701
G00 Z7
(Sketch 2)
X0 Y10 S20000 M03
Z8
G01 Z5
G03 X-10 Y0 I0 J-10
X10 Y0 I10 J0
X0 Y10 I-10 J0
G01 Z4
G03 X-10 Y0 I0 J-10
X10 Y0 I10 J0
X0 Y10 I-10 J0
G01 Z3
G03 X-10 Y0 I0 J-10
X10 Y0 I10 J0
X0 Y10 I-10 J0
G01 Z2
G03 X-10 Y0 I0 J-10
X10 Y0 I10 J0
X0 Y10 I-10 J0
G01 Z1
G03 X-10 Y0 I0 J-10
X10 Y0 I10 J0
X0 Y10 I-10 J0
G01 Z-0.1
G03 X-10 Y0 I0 J-10
X10 Y0 I10 J0
X0 Y10 I-10 J0
G00 Z7
T0 M06 M02
