(Created with emc2b post processor 2015/06/20 17:55)
G61
(tool change to 3 mm End Mill)
T1 M06 G43
G17 G90 G21
(Sketch 3)
G00 X0 Y10 S20000 M03
Z4
G01 Z1 F40
G03 X-10 Y0 I0 J-10
X10 Y0 I10 J0
X0 Y10 I-10 J0
G01 Z-0.1
G03 X-10 Y0 I0 J-10
X10 Y0 I10 J0
X0 Y10 I-10 J0
G00 Z7
G90
(Sketch 4)
X0 Y-8.5 S20000 M03
Z4
G01 Z1
G02 X-8.5 Y0 I0 J8.5
X8.5 Y0 I8.5 J0
X0 Y-8.5 I-8.5 J0
G01 Z-0.1
G02 X-8.5 Y0 I0 J8.5
X8.5 Y0 I8.5 J0
X0 Y-8.5 I-8.5 J0
G00 Z7
T0 M06 M02
