%
(1001)
(T1  D=3. CR=0. - ZMIN=-9.5 - FLAT END MILL)
N10 G90 G94 G17 G91.1
N15 G21
N20 G53 G0 Z0.
(FACE1)
N25 M9
N30 T1 M6
N35 S20000 M3
N40 G54
N45 M9
N55 G0 X102.8 Y-46.193
N60 G43 Z15. H1
N65 G0 Z5.
N70 G1 Z0.2 F1000.
N75 G18 G3 X102.5 Z-0.1 I-0.3 K0.
N80 G17 G3 X101.5 Y-47.193 I0. J-1.
N85 G2 X100. Y-48.693 I-1.5 J0.
N90 G1 X-100.
N95 X-100.222
N100 G2 X-101.5 Y-47.415 I0. J1.278
N105 X-100. Y-45.915 I1.5 J0.
N110 G1 X100.
N115 X101.5
N120 G3 X102.456 Y-45.207 I0. J1.
N125 G1 X103.456 Y-41.928
N130 G3 X102.647 Y-40.648 I-0.956 J0.292
N135 X101.5 Y-41.637 I-0.147 J-0.989
N140 G2 X100. Y-43.137 I-1.5 J0.
N145 G1 X-100.
N150 X-100.222
N155 G2 X-101.5 Y-41.858 I0. J1.278
N160 X-100. Y-40.358 I1.5 J0.
N165 G1 X100.
N170 X101.5
N175 G3 X102.456 Y-39.65 I0. J1.
N180 G1 X103.456 Y-36.372
N185 G3 X102.647 Y-35.091 I-0.956 J0.292
N190 X101.5 Y-36.08 I-0.147 J-0.989
N195 G2 X100. Y-37.58 I-1.5 J0.
N200 G1 X-100.
N205 X-100.222
N210 G2 X-101.5 Y-36.302 I0. J1.278
N215 X-100. Y-34.802 I1.5 J0.
N220 G1 X100.
N225 X101.5
N230 G3 X102.456 Y-34.094 I0. J1.
N235 G1 X103.456 Y-30.815
N240 G3 X102.647 Y-29.534 I-0.956 J0.292
N245 X101.5 Y-30.524 I-0.147 J-0.989
N250 G2 X100. Y-32.024 I-1.5 J0.
N255 G1 X-100.
N260 X-100.222
N265 G2 X-101.5 Y-30.745 I0. J1.278
N270 X-100. Y-29.245 I1.5 J0.
N275 G1 X100.
N280 X101.5
N285 G3 X102.456 Y-28.537 I0. J1.
N290 G1 X103.456 Y-25.259
N295 G3 X102.647 Y-23.978 I-0.956 J0.292
N300 X101.5 Y-24.967 I-0.147 J-0.989
N305 G2 X100. Y-26.467 I-1.5 J0.
N310 G1 X-100.
N315 X-100.222
N320 G2 X-101.5 Y-25.189 I0. J1.278
N325 X-100. Y-23.689 I1.5 J0.
N330 G1 X50.336
N335 G18 G2 X50.636 Z0.2 I0. K0.3
N340 G0 Z5.
N345 X-102.8 Y-23.41
N350 G1 Z0.2 F1000.
N355 G2 X-102.5 Z-0.1 I0.3 K0.
N360 G17 G3 X-101.5 Y-22.41 I0. J1.
N365 G2 X-100. Y-20.91 I1.5 J0.
N370 G1 X45.484
N375 G18 G2 X45.784 Z0.2 I0. K0.3
N380 G0 Z5.
N385 X-102.8 Y-20.632
N390 G1 Z0.2 F1000.
N395 G2 X-102.5 Z-0.1 I0.3 K0.
N400 G17 G3 X-101.5 Y-19.632 I0. J1.
N405 G2 X-100. Y-18.132 I1.5 J0.
N410 G1 X42.481
N415 G18 G2 X42.781 Z0.2 I0. K0.3
N420 G0 Z5.
N425 X-102.8 Y-17.854
N430 G1 Z0.2 F1000.
N435 G2 X-102.5 Z-0.1 I0.3 K0.
N440 G17 G3 X-101.5 Y-16.854 I0. J1.
N445 G2 X-100. Y-15.354 I1.5 J0.
N450 G1 X40.373
N455 G18 G2 X40.673 Z0.2 I0. K0.3
N460 G0 Z5.
N465 X-102.8 Y-15.076
N470 G1 Z0.2 F1000.
N475 G2 X-102.5 Z-0.1 I0.3 K0.
N480 G17 G3 X-101.5 Y-14.076 I0. J1.
N485 G2 X-100. Y-12.576 I1.5 J0.
N490 G1 X38.877
N495 G18 G2 X39.177 Z0.2 I0. K0.3
N500 G0 Z5.
N505 X-102.8 Y-12.297
N510 G1 Z0.2 F1000.
N515 G2 X-102.5 Z-0.1 I0.3 K0.
N520 G17 G3 X-101.5 Y-11.297 I0. J1.
N525 G2 X-100. Y-9.797 I1.5 J0.
N530 G1 X37.854
N535 G18 G2 X38.154 Z0.2 I0. K0.3
N540 G0 Z5.
N545 X-102.8 Y-9.519
N550 G1 Z0.2 F1000.
N555 G2 X-102.5 Z-0.1 I0.3 K0.
N560 G17 G3 X-101.5 Y-8.519 I0. J1.
N565 G2 X-100. Y-7.019 I1.5 J0.
N570 G1 X37.246
N575 X38.576
N580 G3 X39.519 Y-6.353 I0. J1.
N585 G1 X40.584 Y-3.347
N590 G3 X39.864 Y-2.038 I-0.943 J0.334
N595 X38.647 Y-2.904 I-0.223 J-0.975
N600 G2 X37.156 Y-4.241 I-1.491 J0.163
N605 G1 X-100.
N610 X-100.222
N615 G2 X-101.5 Y-2.963 I0. J1.278
N620 X-100. Y-1.462 I1.5 J0.
N625 G1 X37.675
N630 X38.876
N635 G3 X39.632 Y-1.118 I0. J1.
N640 G1 X41.668 Y1.229
N645 G3 X40.157 Y2.54 I-0.755 J0.655
N650 X39.985 Y2.257 I0.755 J-0.655
N655 G2 X38.593 Y1.316 I-1.392 J0.559
N660 G1 X-100.
N665 X-100.222
N670 G2 X-101.5 Y2.594 I0. J1.278
N675 X-100. Y4.094 I1.5 J0.
N680 G1 X39.97
N685 G18 G2 X40.27 Z0.2 I0. K0.3
N690 G0 Z5.
N695 X44.118 Y7.755
N700 G1 Z0.2 F1000.
N705 G3 X43.818 Z-0.1 I-0.3 K0.
N710 G17 G3 X43.055 Y7.402 I0. J-1.
N715 G2 X41.912 Y6.872 I-1.144 J0.971
N720 G1 X-100.
N725 X-100.222
N730 G2 X-101.5 Y8.151 I0. J1.278
N735 X-100. Y9.651 I1.5 J0.
N740 G1 X44.664
N745 G18 G2 X44.964 Z0.2 I0. K0.3
N750 G0 Z5.
N755 X50.413 Y12.687
N760 G1 Z0.2 F1000.
N765 G3 X50.113 Z-0.1 I-0.3 K0.
N770 G1 X49.991
N775 G17 G3 X49.549 Y12.584 I0. J-1.
N780 G2 X48.885 Y12.429 I-0.663 J1.345
N785 G1 X-100.
N790 G18 G3 X-100.3 Z0.2 I0. K0.3
N795 G0 Z5.
N800 X65.317 Y-23.827
N805 G1 Z0.2 F1000.
N810 G2 X65.617 Z-0.1 I0.3 K0.
N815 G1 X65.838
N820 G17 G3 X66.167 Y-23.772 I0. J1.
N825 G2 X66.659 Y-23.689 I0.492 J-1.417
N830 G1 X100.
N835 X101.5
N840 G3 X102.456 Y-22.98 I0. J1.
N845 G1 X103.456 Y-19.702
N850 G3 X102.647 Y-18.421 I-0.956 J0.292
N855 X101.5 Y-19.41 I-0.147 J-0.989
N860 G2 X100. Y-20.91 I-1.5 J0.
N865 G1 X71.511
N870 G2 X71.272 Y-19.477 I0. J0.737
N875 G1 X73.08 Y-18.854
N880 G3 X73.394 Y-18.643 I-0.24 J0.697
N885 G2 X74.522 Y-18.132 I1.128 J-0.989
N890 G1 X100.
N895 X101.5
N900 G3 X102.456 Y-17.424 I0. J1.
N905 G1 X103.456 Y-14.146
N910 G3 X102.647 Y-12.865 I-0.956 J0.292
N915 X101.5 Y-13.854 I-0.147 J-0.989
N920 G2 X100. Y-15.354 I-1.5 J0.
N925 G1 X76.626
N930 G2 X76.197 Y-14.686 I0. J0.472
N935 G1 X76.75 Y-13.478
N940 X76.753 Y-13.471
N945 G2 X78.126 Y-12.576 I1.373 J-0.604
N950 G1 X100.
N955 X101.5
N960 G3 X102.456 Y-11.867 I0. J1.
N965 G1 X103.456 Y-8.589
N970 G3 X102.647 Y-7.308 I-0.956 J0.292
N975 X101.5 Y-8.297 I-0.147 J-0.989
N980 G2 X100. Y-9.797 I-1.5 J0.
N985 G1 X79.142
N990 G2 X78.204 Y-8.69 I0. J0.951
N995 G1 X78.273 Y-8.273
N1000 G2 X79.753 Y-7.019 I1.48 J-0.246
N1005 G1 X100.
N1010 X101.5
N1015 G3 X102.456 Y-6.311 I0. J1.
N1020 G1 X103.456 Y-3.033
N1025 G3 X102.647 Y-1.752 I-0.956 J0.292
N1030 X101.5 Y-2.741 I-0.147 J-0.989
N1035 G2 X100. Y-4.241 I-1.5 J0.
N1040 G1 X79.844
N1045 G18 G3 X79.544 Z0.2 I0. K0.3
N1050 G0 Z5.
N1055 X101.597 Y0.267
N1060 G1 Z0.2 F1000.
N1065 X101.595 Y0.259 Z0.133
N1070 X101.59 Y0.238 Z0.07
N1075 X101.582 Y0.203 Z0.013
N1080 X101.571 Y0.157 Z-0.035
N1085 X101.558 Y0.101 Z-0.07
N1090 X101.543 Y0.04 Z-0.092
N1095 X101.527 Y-0.025 Z-0.1
N1100 X101.459 Y-0.311
N1105 G17 G2 X100. Y-1.462 I-1.459 J0.349
N1110 G1 X79.489
N1115 G18 G3 X79.189 Z0.2 I0. K0.3
N1120 G0 Z5.
N1125 X102.8 Y6.594
N1130 G1 Z0.2 F1000.
N1135 G3 X102.5 Z-0.1 I-0.3 K0.
N1140 G17 G3 X101.5 Y5.594 I0. J-1.
N1145 G2 X100. Y4.094 I-1.5 J0.
N1150 G1 X77.03
N1155 G18 G3 X76.73 Z0.2 I0. K0.3
N1160 G0 Z5.
N1165 X102.8 Y9.372
N1170 G1 Z0.2 F1000.
N1175 G3 X102.5 Z-0.1 I-0.3 K0.
N1180 G17 G3 X101.5 Y8.372 I0. J-1.
N1185 G2 X100. Y6.872 I-1.5 J0.
N1190 G1 X75.088
N1195 G18 G3 X74.788 Z0.2 I0. K0.3
N1200 G0 Z5.
N1205 X102.8 Y12.151
N1210 G1 Z0.2 F1000.
N1215 G3 X102.5 Z-0.1 I-0.3 K0.
N1220 G17 G3 X101.5 Y11.151 I0. J-1.
N1225 G2 X100. Y9.651 I-1.5 J0.
N1230 G1 X72.336
N1235 G18 G3 X72.036 Z0.2 I0. K0.3
N1240 G0 Z5.
N1245 X102.8 Y14.929
N1250 G1 Z0.2 F1000.
N1255 G3 X102.5 Z-0.1 I-0.3 K0.
N1260 G17 G3 X101.5 Y13.929 I0. J-1.
N1265 G2 X100. Y12.429 I-1.5 J0.
N1270 G1 X68.114
N1275 G18 G3 X67.814 Z0.2 I0. K0.3
N1280 G0 Z5.
N1285 X102.8 Y17.707
N1290 G1 Z0.2 F1000.
N1295 G3 X102.5 Z-0.1 I-0.3 K0.
N1300 G17 G3 X101.5 Y16.707 I0. J-1.
N1305 G2 X100. Y15.207 I-1.5 J0.
N1310 G1 X-100.
N1315 X-100.222
N1320 G2 X-101.5 Y16.485 I0. J1.278
N1325 X-100. Y17.985 I1.5 J0.
N1330 G1 X100.
N1335 X101.5
N1340 G3 X102.456 Y18.694 I0. J1.
N1345 G1 X103.456 Y21.972
N1350 G3 X102.647 Y23.253 I-0.956 J0.292
N1355 X101.5 Y22.264 I-0.147 J-0.989
N1360 G2 X100. Y20.764 I-1.5 J0.
N1365 G1 X-100.
N1370 X-100.222
N1375 G2 X-101.5 Y22.042 I0. J1.278
N1380 X-100. Y23.542 I1.5 J0.
N1385 G1 X100.
N1390 X101.5
N1395 G3 X102.456 Y24.25 I0. J1.
N1400 G1 X103.456 Y27.529
N1405 G3 X102.647 Y28.809 I-0.956 J0.292
N1410 X101.5 Y27.82 I-0.147 J-0.989
N1415 G2 X100. Y26.32 I-1.5 J0.
N1420 G1 X-100.
N1425 X-100.222
N1430 G2 X-101.5 Y27.599 I0. J1.278
N1435 X-100. Y29.099 I1.5 J0.
N1440 G1 X100.
N1445 X101.5
N1450 G3 X102.456 Y29.807 I0. J1.
N1455 G1 X103.456 Y33.085
N1460 G3 X102.647 Y34.366 I-0.956 J0.292
N1465 X101.5 Y33.377 I-0.147 J-0.989
N1470 G2 X100. Y31.877 I-1.5 J0.
N1475 G1 X-100.
N1480 X-100.222
N1485 G2 X-101.5 Y33.155 I0. J1.278
N1490 X-100. Y34.655 I1.5 J0.
N1495 G1 X100.
N1500 X101.5
N1505 G3 X102.456 Y35.363 I0. J1.
N1510 G1 X103.456 Y38.642
N1515 G3 X102.647 Y39.922 I-0.956 J0.292
N1520 X101.5 Y38.933 I-0.147 J-0.989
N1525 G2 X100. Y37.433 I-1.5 J0.
N1530 G1 X-100.
N1535 X-100.222
N1540 G2 X-101.5 Y38.712 I0. J1.278
N1545 X-100. Y40.212 I1.5 J0.
N1550 G1 X100.
N1555 X101.5
N1560 G3 X102.456 Y40.92 I0. J1.
N1565 G1 X103.456 Y44.198
N1570 G3 X102.647 Y45.479 I-0.956 J0.292
N1575 X101.5 Y44.49 I-0.147 J-0.989
N1580 G2 X100. Y42.99 I-1.5 J0.
N1585 G1 X-100.
N1590 X-100.222
N1595 G2 X-101.5 Y44.268 I0. J1.278
N1600 X-100. Y45.768 I1.5 J0.
N1605 G1 X100.
N1610 X101.5
N1615 G3 X102.455 Y46.471 I0. J1.
N1620 G1 X103.454 Y49.683
N1625 G3 X102.662 Y50.967 I-0.955 J0.297
N1630 X101.499 Y50.007 I-0.163 J-0.987
N1635 G2 X100. Y48.547 I-1.499 J0.04
N1640 G1 X-100.
N1645 G18 G3 X-100.3 Z0.2 I0. K0.3
N1650 G0 Z15.
N1655 G17
(2D POCKET1)
N1660 M9
N1665 G0 X-3.235 Y-23.091
N1670 Z15.
N1675 Z5.
N1680 G1 Z2.8 F1000.
N1685 X-3.239 Z2.754 F333.33
N1690 G3 X-3.249 Y-23.093 Z2.709 I0.214 J-1.409
N1695 X-3.266 Y-23.096 Z2.666 I0.224 J-1.407
N1700 X-3.289 Y-23.1 Z2.627 I0.241 J-1.404
N1705 X-3.318 Y-23.105 Z2.591 I0.264 J-1.4
N1710 X-3.352 Y-23.113 Z2.561 I0.293 J-1.395
N1715 X-3.389 Y-23.122 Z2.536 I0.327 J-1.387
N1720 X-3.43 Y-23.134 Z2.517 I0.364 J-1.378
N1725 X-3.472 Y-23.147 Z2.505 I0.405 J-1.366
N1730 X-3.515 Y-23.162 Z2.5 I0.447 J-1.353
N1735 X-2.535 Y-25.838 Z2.344 I0.49 J-1.338
N1740 X-3.515 Y-23.162 Z2.187 I-0.49 J1.338
N1745 X-2.535 Y-25.838 Z2.031 I0.49 J-1.338
N1750 X-3.515 Y-23.162 Z1.875 I-0.49 J1.338
N1755 X-2.535 Y-25.838 Z1.718 I0.49 J-1.338
N1760 X-3.515 Y-23.162 Z1.562 I-0.49 J1.338
N1765 X-2.535 Y-25.838 Z1.406 I0.49 J-1.338
N1770 X-3.515 Y-23.162 Z1.249 I-0.49 J1.338
N1775 X-2.535 Y-25.838 Z1.093 I0.49 J-1.338
N1780 X-3.515 Y-23.162 Z0.937 I-0.49 J1.338
N1785 X-2.535 Y-25.838 Z0.78 I0.49 J-1.338
N1790 X-3.515 Y-23.162 Z0.624 I-0.49 J1.338
N1795 X-2.535 Y-25.838 Z0.468 I0.49 J-1.338
N1800 X-3.515 Y-23.162 Z0.311 I-0.49 J1.338
N1805 X-2.535 Y-25.838 Z0.155 I0.49 J-1.338
N1810 X-3.515 Y-23.162 Z-0.001 I-0.49 J1.338
N1815 X-2.535 Y-25.838 Z-0.158 I0.49 J-1.338
N1820 X-3.515 Y-23.162 Z-0.314 I-0.49 J1.338
N1825 X-2.535 Y-25.838 Z-0.47 I0.49 J-1.338
N1830 X-3.515 Y-23.162 Z-0.627 I-0.49 J1.338
N1835 X-2.535 Y-25.838 Z-0.783 I0.49 J-1.338
N1840 X-3.515 Y-23.162 Z-0.939 I-0.49 J1.338
N1845 X-4.45 Y-24.5 Z-1. I0.49 J-1.338
N1850 X-3.7 I0.375 J0. F1000.
N1855 X-7.3 I-1.8 J0.
N1860 X-0.85 I3.225 J0.
N1865 X-10.15 I-4.65 J0.
N1870 X2. I6.075 J0.
N1875 X-13. I-7.5 J0.
N1880 X4.85 I8.925 J0.
N1885 X-15.85 I-10.35 J0.
N1890 X7.7 I11.775 J0.
N1895 X-18.7 I-13.2 J0.
N1900 X7.7 I13.2 J0.
N1905 X7.566 Y-24.351 I-0.15 J0.
N1910 G1 X-3.415 Y-23.143
N1915 G3 X-3.48 Y-23.149 I-0.016 J-0.149
N1920 X-2.57 Y-25.851 Z-1.156 I0.455 J-1.351 F333.33
N1925 X-3.48 Y-23.149 Z-1.313 I-0.455 J1.351
N1930 X-2.57 Y-25.851 Z-1.469 I0.455 J-1.351
N1935 X-3.48 Y-23.149 Z-1.625 I-0.455 J1.351
N1940 X-2.57 Y-25.851 Z-1.782 I0.455 J-1.351
N1945 X-3.48 Y-23.149 Z-1.938 I-0.455 J1.351
N1950 X-4.45 Y-24.5 Z-2. I0.455 J-1.351
N1955 X-3.7 I0.375 J0. F1000.
N1960 X-7.3 I-1.8 J0.
N1965 X-0.85 I3.225 J0.
N1970 X-10.15 I-4.65 J0.
N1975 X2. I6.075 J0.
N1980 X-13. I-7.5 J0.
N1985 X4.85 I8.925 J0.
N1990 X-15.85 I-10.35 J0.
N1995 X7.7 I11.775 J0.
N2000 X-18.7 I-13.2 J0.
N2005 X7.7 I13.2 J0.
N2010 X7.566 Y-24.351 I-0.15 J0.
N2015 G1 X-3.415 Y-23.143
N2020 G3 X-3.48 Y-23.149 I-0.016 J-0.149
N2025 X-2.57 Y-25.851 Z-2.156 I0.455 J-1.351 F333.33
N2030 X-3.48 Y-23.149 Z-2.313 I-0.455 J1.351
N2035 X-2.57 Y-25.851 Z-2.469 I0.455 J-1.351
N2040 X-3.48 Y-23.149 Z-2.625 I-0.455 J1.351
N2045 X-2.57 Y-25.851 Z-2.782 I0.455 J-1.351
N2050 X-3.48 Y-23.149 Z-2.938 I-0.455 J1.351
N2055 X-4.45 Y-24.5 Z-3. I0.455 J-1.351
N2060 X-3.7 I0.375 J0. F1000.
N2065 X-7.3 I-1.8 J0.
N2070 X-0.85 I3.225 J0.
N2075 X-10.15 I-4.65 J0.
N2080 X2. I6.075 J0.
N2085 X-13. I-7.5 J0.
N2090 X4.85 I8.925 J0.
N2095 X-15.85 I-10.35 J0.
N2100 X7.7 I11.775 J0.
N2105 X-18.7 I-13.2 J0.
N2110 X7.7 I13.2 J0.
N2115 X7.566 Y-24.351 I-0.15 J0.
N2120 G1 X-3.415 Y-23.143
N2125 G3 X-3.48 Y-23.149 I-0.016 J-0.149
N2130 X-2.57 Y-25.851 Z-3.156 I0.455 J-1.351 F333.33
N2135 X-3.48 Y-23.149 Z-3.313 I-0.455 J1.351
N2140 X-2.57 Y-25.851 Z-3.469 I0.455 J-1.351
N2145 X-3.48 Y-23.149 Z-3.625 I-0.455 J1.351
N2150 X-2.57 Y-25.851 Z-3.782 I0.455 J-1.351
N2155 X-3.48 Y-23.149 Z-3.938 I-0.455 J1.351
N2160 X-4.45 Y-24.5 Z-4. I0.455 J-1.351
N2165 X-3.7 I0.375 J0. F1000.
N2170 X-7.3 I-1.8 J0.
N2175 X-0.85 I3.225 J0.
N2180 X-10.15 I-4.65 J0.
N2185 X2. I6.075 J0.
N2190 X-13. I-7.5 J0.
N2195 X4.85 I8.925 J0.
N2200 X-15.85 I-10.35 J0.
N2205 X7.7 I11.775 J0.
N2210 X-18.7 I-13.2 J0.
N2215 X7.7 I13.2 J0.
N2220 X7.566 Y-24.351 I-0.15 J0.
N2225 G1 X-3.415 Y-23.143
N2230 G3 X-3.48 Y-23.149 I-0.016 J-0.149
N2235 X-2.57 Y-25.851 Z-4.156 I0.455 J-1.351 F333.33
N2240 X-3.48 Y-23.149 Z-4.313 I-0.455 J1.351
N2245 X-2.57 Y-25.851 Z-4.469 I0.455 J-1.351
N2250 X-3.48 Y-23.149 Z-4.625 I-0.455 J1.351
N2255 X-2.57 Y-25.851 Z-4.782 I0.455 J-1.351
N2260 X-3.48 Y-23.149 Z-4.938 I-0.455 J1.351
N2265 X-4.45 Y-24.5 Z-5. I0.455 J-1.351
N2270 X-3.7 I0.375 J0. F1000.
N2275 X-7.3 I-1.8 J0.
N2280 X-0.85 I3.225 J0.
N2285 X-10.15 I-4.65 J0.
N2290 X2. I6.075 J0.
N2295 X-13. I-7.5 J0.
N2300 X4.85 I8.925 J0.
N2305 X-15.85 I-10.35 J0.
N2310 X7.7 I11.775 J0.
N2315 X-18.7 I-13.2 J0.
N2320 X7.7 I13.2 J0.
N2325 X7.566 Y-24.351 I-0.15 J0.
N2330 G1 X-3.415 Y-23.143
N2335 G3 X-3.48 Y-23.149 I-0.016 J-0.149
N2340 X-2.57 Y-25.851 Z-5.156 I0.455 J-1.351 F333.33
N2345 X-3.48 Y-23.149 Z-5.313 I-0.455 J1.351
N2350 X-2.57 Y-25.851 Z-5.469 I0.455 J-1.351
N2355 X-3.48 Y-23.149 Z-5.625 I-0.455 J1.351
N2360 X-2.57 Y-25.851 Z-5.782 I0.455 J-1.351
N2365 X-3.48 Y-23.149 Z-5.938 I-0.455 J1.351
N2370 X-4.45 Y-24.5 Z-6. I0.455 J-1.351
N2375 X-3.7 I0.375 J0. F1000.
N2380 X-7.3 I-1.8 J0.
N2385 X-0.85 I3.225 J0.
N2390 X-10.15 I-4.65 J0.
N2395 X2. I6.075 J0.
N2400 X-13. I-7.5 J0.
N2405 X4.85 I8.925 J0.
N2410 X-15.85 I-10.35 J0.
N2415 X7.7 I11.775 J0.
N2420 X-18.7 I-13.2 J0.
N2425 X7.7 I13.2 J0.
N2430 X7.566 Y-24.351 I-0.15 J0.
N2435 G1 X-3.415 Y-23.143
N2440 G3 X-3.48 Y-23.149 I-0.016 J-0.149
N2445 X-2.57 Y-25.851 Z-6.156 I0.455 J-1.351 F333.33
N2450 X-3.48 Y-23.149 Z-6.313 I-0.455 J1.351
N2455 X-2.57 Y-25.851 Z-6.469 I0.455 J-1.351
N2460 X-3.48 Y-23.149 Z-6.625 I-0.455 J1.351
N2465 X-2.57 Y-25.851 Z-6.782 I0.455 J-1.351
N2470 X-3.48 Y-23.149 Z-6.938 I-0.455 J1.351
N2475 X-4.45 Y-24.5 Z-7. I0.455 J-1.351
N2480 X-3.7 I0.375 J0. F1000.
N2485 X-7.3 I-1.8 J0.
N2490 X-0.85 I3.225 J0.
N2495 X-10.15 I-4.65 J0.
N2500 X2. I6.075 J0.
N2505 X-13. I-7.5 J0.
N2510 X4.85 I8.925 J0.
N2515 X-15.85 I-10.35 J0.
N2520 X7.7 I11.775 J0.
N2525 X-18.7 I-13.2 J0.
N2530 X7.7 I13.2 J0.
N2535 X7.566 Y-24.351 I-0.15 J0.
N2540 G1 X-3.415 Y-23.143
N2545 G3 X-3.48 Y-23.149 I-0.016 J-0.149
N2550 X-2.57 Y-25.851 Z-7.156 I0.455 J-1.351 F333.33
N2555 X-3.48 Y-23.149 Z-7.313 I-0.455 J1.351
N2560 X-2.57 Y-25.851 Z-7.469 I0.455 J-1.351
N2565 X-3.48 Y-23.149 Z-7.625 I-0.455 J1.351
N2570 X-2.57 Y-25.851 Z-7.782 I0.455 J-1.351
N2575 X-3.48 Y-23.149 Z-7.938 I-0.455 J1.351
N2580 X-4.45 Y-24.5 Z-8. I0.455 J-1.351
N2585 X-3.7 I0.375 J0. F1000.
N2590 X-7.3 I-1.8 J0.
N2595 X-0.85 I3.225 J0.
N2600 X-10.15 I-4.65 J0.
N2605 X2. I6.075 J0.
N2610 X-13. I-7.5 J0.
N2615 X4.85 I8.925 J0.
N2620 X-15.85 I-10.35 J0.
N2625 X7.7 I11.775 J0.
N2630 X-18.7 I-13.2 J0.
N2635 X7.7 I13.2 J0.
N2640 X7.566 Y-24.351 I-0.15 J0.
N2645 G1 X-3.415 Y-23.143
N2650 G3 X-3.48 Y-23.149 I-0.016 J-0.149
N2655 X-2.57 Y-25.851 Z-8.156 I0.455 J-1.351 F333.33
N2660 X-3.48 Y-23.149 Z-8.313 I-0.455 J1.351
N2665 X-2.57 Y-25.851 Z-8.469 I0.455 J-1.351
N2670 X-3.48 Y-23.149 Z-8.625 I-0.455 J1.351
N2675 X-2.57 Y-25.851 Z-8.782 I0.455 J-1.351
N2680 X-3.48 Y-23.149 Z-8.938 I-0.455 J1.351
N2685 X-4.45 Y-24.5 Z-9. I0.455 J-1.351
N2690 X-3.7 I0.375 J0. F1000.
N2695 X-7.3 I-1.8 J0.
N2700 X-0.85 I3.225 J0.
N2705 X-10.15 I-4.65 J0.
N2710 X2. I6.075 J0.
N2715 X-13. I-7.5 J0.
N2720 X4.85 I8.925 J0.
N2725 X-15.85 I-10.35 J0.
N2730 X7.7 I11.775 J0.
N2735 X-18.7 I-13.2 J0.
N2740 X7.7 I13.2 J0.
N2745 X7.53 Y-24.351 I-0.15 J0.
N2750 G1 X-1.726 Y-25.568
N2755 G2 X-1.868 Y-25.331 I-0.02 J0.149
N2760 G3 X-4.182 Y-23.669 Z-9.156 I-1.157 J0.831 F333.33
N2765 X-1.868 Y-25.331 Z-9.313 I1.157 J-0.831
N2770 X-4.182 Y-23.669 Z-9.469 I-1.157 J0.831
N2775 X-4.45 Y-24.5 Z-9.5 I1.157 J-0.831
N2780 X-3.7 I0.375 J0. F1000.
N2785 X-7.3 I-1.8 J0.
N2790 X-0.85 I3.225 J0.
N2795 X-10.15 I-4.65 J0.
N2800 X2. I6.075 J0.
N2805 X-13. I-7.5 J0.
N2810 X4.85 I8.925 J0.
N2815 X-15.85 I-10.35 J0.
N2820 X7.7 I11.775 J0.
N2825 X-18.7 I-13.2 J0.
N2830 X8. I13.35 J0.
N2835 X-19. I-13.5 J0.
N2840 X8. I13.5 J0.
N2845 X7.996 Y-24.453 Z-9.496 I-0.3 J0.
N2850 X7.986 Y-24.409 Z-9.485 I-0.296 J-0.047
N2855 X7.97 Y-24.368 Z-9.467 I-0.286 J-0.091
N2860 X7.95 Y-24.334 Z-9.443 I-0.27 J-0.132
N2865 X7.928 Y-24.305 Z-9.412 I-0.25 J-0.166
N2870 X7.907 Y-24.283 Z-9.376 I-0.228 J-0.195
N2875 X7.889 Y-24.267 Z-9.336 I-0.207 J-0.217
N2880 X7.874 Y-24.256 Z-9.293 I-0.189 J-0.233
N2885 X7.865 Y-24.25 Z-9.247 I-0.174 J-0.244
N2890 G1 X7.862 Y-24.248 Z-9.2
N2895 G0 Z15.
(2D POCKET2)
N2905 M9
N2910 G0 X58.167 Y-6.709
N2915 Z15.
N2920 Z5.
N2925 G1 Z2.8 F1000.
N2930 G3 X58.205 Y-6.703 Z2.653 I-0.21 J1.409 F333.33
N2935 X58.308 Y-6.681 Z2.544 I-0.248 J1.403
N2940 X58.447 Y-6.638 Z2.5 I-0.351 J1.381
N2945 X57.467 Y-3.962 Z2.344 I-0.49 J1.338
N2950 X58.447 Y-6.638 Z2.187 I0.49 J-1.338
N2955 X57.467 Y-3.962 Z2.031 I-0.49 J1.338
N2960 X58.447 Y-6.638 Z1.875 I0.49 J-1.338
N2965 X57.467 Y-3.962 Z1.718 I-0.49 J1.338
N2970 X58.447 Y-6.638 Z1.562 I0.49 J-1.338
N2975 X57.467 Y-3.962 Z1.406 I-0.49 J1.338
N2980 X58.447 Y-6.638 Z1.249 I0.49 J-1.338
N2985 X57.467 Y-3.962 Z1.093 I-0.49 J1.338
N2990 X58.447 Y-6.638 Z0.937 I0.49 J-1.338
N2995 X57.467 Y-3.962 Z0.78 I-0.49 J1.338
N3000 X58.447 Y-6.638 Z0.624 I0.49 J-1.338
N3005 X57.467 Y-3.962 Z0.468 I-0.49 J1.338
N3010 X58.447 Y-6.638 Z0.311 I0.49 J-1.338
N3015 X57.467 Y-3.962 Z0.155 I-0.49 J1.338
N3020 X58.447 Y-6.638 Z-0.001 I0.49 J-1.338
N3025 X57.467 Y-3.962 Z-0.158 I-0.49 J1.338
N3030 X58.447 Y-6.638 Z-0.314 I0.49 J-1.338
N3035 X57.467 Y-3.962 Z-0.47 I-0.49 J1.338
N3040 X58.447 Y-6.638 Z-0.627 I0.49 J-1.338
N3045 X57.467 Y-3.962 Z-0.783 I-0.49 J1.338
N3050 X58.447 Y-6.638 Z-0.939 I0.49 J-1.338
N3055 X59.382 Y-5.3 Z-1. I-0.49 J1.338
N3060 X57.618 I-0.882 J0. F1000.
N3065 X59.382 I0.882 J0.
N3070 G2 X59.973 Y-4.189 I1.339 J0.
N3075 G3 X59.945 Y-2.931 I-0.418 J0.62
N3080 X57.055 Y-7.669 I-1.445 J-2.369
N3085 X59.945 Y-2.931 I1.445 J2.369
N3090 G2 X58.964 Y-1.168 I1.066 J1.747
N3095 G3 X57.408 Y0.116 I-1.299 J0.01
N3100 X59.592 Y-10.716 I1.092 J-5.416
N3105 X57.408 Y0.116 I-1.092 J5.416
N3110 G2 X55.344 Y0.845 I-0.422 J2.092
N3115 G3 X53.164 Y1.038 I-1.186 J-0.984
N3120 X50.646 Y-7.905 I5.349 J-6.332
N3125 X66.606 Y-3.5 I7.868 J2.61
N3130 G2 X66.561 Y-3.247 I3.065 J0.681
N3135 G3 X66.521 Y-2.993 I-5.933 J-0.815
N3140 X66.309 Y-2.355 I-2.357 J-0.428
N3145 X66.189 Y-2.127 I-5.363 J-2.665
N3150 G2 X66.075 Y-1.897 I2.749 J1.517
N3155 G3 X53.164 Y1.038 I-7.561 J-3.397
N3160 G2 X50.93 Y0.701 I-1.391 J1.646
N3165 G3 X48.799 Y-0.046 I-0.656 J-1.544
N3170 X48.036 Y-8.771 I9.718 J-5.246
N3175 X69.3 Y-2.902 I10.482 J3.478
N3180 G2 X69.28 Y-2.793 I1.478 J0.328
N3185 G3 X69.261 Y-2.684 I-2.109 J-0.309
N3190 X68.69 Y-0.964 I-7.24 J-1.447
N3195 X68.64 Y-0.866 I-1.926 J-0.914
N3200 G2 X68.591 Y-0.767 I1.332 J0.719
N3205 G3 X48.799 Y-0.046 I-10.074 J-4.525
N3210 G2 X46.799 Y-1.182 I-1.908 J1.03
N3215 G3 X44.99 Y-2.603 I-0.076 J-1.766
N3220 X45.426 Y-9.637 I13.52 J-2.692
N3225 X71.968 Y-2.31 I13.084 J4.341
N3230 G2 X71.907 Y-1.939 I3.304 J0.734
N3235 G3 X71.865 Y-1.565 I-27.84 J-2.999
N3240 X71.447 Y-0.306 I-3.322 J-0.403
N3245 X71.258 Y0.019 I-24.301 J-13.911
N3250 G2 X71.085 Y0.353 I2.914 J1.721
N3255 G3 X44.99 Y-2.603 I-12.575 J-5.649
N3260 G2 X43.383 Y-4.292 I-2.139 J0.426
N3265 G3 X41.998 Y-6.168 I0.447 J-1.779
N3270 X42.816 Y-10.503 I16.504 J0.869
N3275 X74.636 Y-1.717 I15.686 J5.204
N3280 G2 X74.557 Y-1.065 I3.304 J0.734
N3285 X74.564 Y-0.409 I9.242 J0.223
N3290 G3 X74.302 Y0.381 I-1.157 J0.054
N3295 G2 X73.904 Y0.903 I7.144 J5.868
N3300 X73.578 Y1.473 I2.762 J1.957
N3305 G3 X41.998 Y-6.168 I-15.076 J-6.772
N3310 G2 X40.868 Y-8.162 I-2.128 J-0.112
N3315 G3 X39.953 Y-10.264 I0.863 J-1.626
N3320 X77.244 Y-1.138 I18.547 J4.964
N3325 G2 X78.122 Y1.21 I2.245 J0.498
N3330 G1 X78.112
N3335 G2 X76.014 Y2.568 I0. J2.3
N3340 G3 X39.953 Y-10.264 I-17.514 J-7.867
N3345 X40.003 Y-10.367 Z-0.977 I0.29 J0.078
N3350 X40.073 Y-10.434 Z-0.912 I0.24 J0.18
N3355 X40.13 Y-10.464 Z-0.815 I0.17 J0.247
N3360 X40.151 Y-10.472 Z-0.7 I0.113 J0.278
N3365 G0 Z5.
N3370 X103.383 Y3.189
N3375 G1 Z-0.7 F1000.
N3380 X103.377 Y3.185 Z-0.767
N3385 X103.36 Y3.171 Z-0.83
N3390 X103.331 Y3.15 Z-0.887
N3395 X103.293 Y3.121 Z-0.935
N3400 X103.248 Y3.087 Z-0.97
N3405 X103.197 Y3.048 Z-0.992
N3410 X103.144 Y3.008 Z-1.
N3415 X101.39 Y1.677
N3420 G2 X100.992 Y1.435 I-1.39 J1.833
N3425 X101.394 Y1.19 I-0.992 J-2.075
N3430 G3 X101.715 Y1.342 I0.121 J0.159
N3435 G1 X101.734 Y1.926
N3440 G3 X101.394 Y2.076 I-0.2 J0.007
N3445 G2 X100. Y1.51 I-1.394 J1.434
N3450 G1 X78.112
N3455 G2 X76.288 Y2.69 I0. J2.
N3460 G3 X40.712 Y-13.29 I-17.788 J-7.99
N3465 X77.536 Y-1.073 I17.788 J7.99
N3470 G2 X79.489 Y1.36 I1.952 J0.433
N3475 G1 X100.
N3480 G2 X101.398 Y0.79 I0. J-2.
N3485 G3 X101.718 Y0.845 I0.14 J0.143
N3490 G1 X102.187 Y1.807
N3495 G3 X101.887 Y2.054 I-0.18 J0.088
N3500 G1 X101.833 Y2.014 Z-1.008
N3505 X101.783 Y1.976 Z-1.03
N3510 X101.738 Y1.941 Z-1.065
N3515 X101.7 Y1.912 Z-1.113
N3520 X101.671 Y1.891 Z-1.17
N3525 X101.654 Y1.877 Z-1.233
N3530 X101.648 Y1.873 Z-1.3
N3535 Z-1.7
N3540 X101.642 Y1.868 Z-1.767
N3545 X101.624 Y1.855 Z-1.83
N3550 X101.595 Y1.833 Z-1.887
N3555 X101.558 Y1.805 Z-1.935
N3560 X101.512 Y1.77 Z-1.97
N3565 X101.462 Y1.732 Z-1.992
N3570 X101.409 Y1.692 Z-2.
N3575 X101.39 Y1.677
N3580 G2 X100.992 Y1.435 I-1.39 J1.833
N3585 X101.394 Y1.19 I-0.992 J-2.075
N3590 G1 X102.587 Y0.281
N3595 X102.64 Y0.24 Z-1.992
N3600 X102.69 Y0.202 Z-1.97
N3605 X102.736 Y0.168 Z-1.935
N3610 X102.773 Y0.139 Z-1.887
N3615 X102.802 Y0.117 Z-1.83
N3620 X102.82 Y0.104 Z-1.767
N3625 X102.826 Y0.099 Z-1.7
N3630 G0 Z5.
N3635 X59.943 Y-5.418
N3640 G1 Z1.8 F1000.
N3645 G3 X59.931 Y-5.381 Z1.653 I-1.362 J-0.419 F333.33
N3650 X59.894 Y-5.283 Z1.544 I-1.35 J-0.455
N3655 X59.831 Y-5.152 Z1.5 I-1.313 J-0.554
N3660 X57.332 Y-6.521 Z1.344 I-1.25 J-0.685
N3665 X59.831 Y-5.152 Z1.187 I1.25 J0.685
N3670 X57.332 Y-6.521 Z1.031 I-1.25 J-0.685
N3675 X59.831 Y-5.152 Z0.875 I1.25 J0.685
N3680 X57.332 Y-6.521 Z0.718 I-1.25 J-0.685
N3685 X59.831 Y-5.152 Z0.562 I1.25 J0.685
N3690 X57.332 Y-6.521 Z0.406 I-1.25 J-0.685
N3695 X59.831 Y-5.152 Z0.249 I1.25 J0.685
N3700 X57.332 Y-6.521 Z0.093 I-1.25 J-0.685
N3705 X59.831 Y-5.152 Z-0.063 I1.25 J0.685
N3710 X57.332 Y-6.521 Z-0.22 I-1.25 J-0.685
N3715 X59.831 Y-5.152 Z-0.376 I1.25 J0.685
N3720 X57.332 Y-6.521 Z-0.532 I-1.25 J-0.685
N3725 X59.831 Y-5.152 Z-0.689 I1.25 J0.685
N3730 X57.332 Y-6.521 Z-0.845 I-1.25 J-0.685
N3735 X59.831 Y-5.152 Z-1.001 I1.25 J0.685
N3740 X57.332 Y-6.521 Z-1.158 I-1.25 J-0.685
N3745 X59.831 Y-5.152 Z-1.314 I1.25 J0.685
N3750 X57.332 Y-6.521 Z-1.47 I-1.25 J-0.685
N3755 X59.831 Y-5.152 Z-1.627 I1.25 J0.685
N3760 X57.332 Y-6.521 Z-1.783 I-1.25 J-0.685
N3765 X59.831 Y-5.152 Z-1.939 I1.25 J0.685
N3770 X58.368 Y-4.428 Z-2. I-1.25 J-0.685
N3775 X58.632 Y-6.172 I0.132 J-0.872 F1000.
N3780 X58.368 Y-4.428 I-0.132 J0.872
N3785 G2 X57.181 Y-4.009 I-0.2 J1.324
N3790 G3 X55.941 Y-4.226 I-0.55 J-0.506
N3795 X61.058 Y-6.374 I2.558 J-1.074
N3800 X55.941 Y-4.226 I-2.558 J1.074
N3805 G2 X54.345 Y-5.459 I-1.887 J0.792
N3810 G3 X53.308 Y-7.19 I0.184 J-1.286
N3815 X63.692 Y-3.41 I5.192 J1.89
N3820 X53.308 Y-7.19 I-5.192 J-1.89
N3825 G2 X52.896 Y-9.329 I-1.992 J-0.725
N3830 G3 X53.022 Y-11.505 I1.144 J-1.025
N3835 X66.606 Y-3.5 I5.492 J6.209
N3840 G2 X66.561 Y-3.247 I3.065 J0.681
N3845 G3 X66.521 Y-2.993 I-5.933 J-0.815
N3850 X66.309 Y-2.355 I-2.357 J-0.428
N3855 X66.189 Y-2.127 I-5.363 J-2.665
N3860 G2 X66.075 Y-1.897 I2.749 J1.517
N3865 G3 X50.646 Y-7.905 I-7.561 J-3.397
N3870 X53.022 Y-11.505 I7.868 J2.61
N3875 G2 X53.678 Y-13.665 I-1.426 J-1.613
N3880 G3 X54.723 Y-15.665 I1.621 J-0.426
N3885 X69.3 Y-2.902 I3.795 J10.372
N3890 G2 X69.28 Y-2.793 I1.478 J0.328
N3895 G3 X69.261 Y-2.684 I-2.109 J-0.309
N3900 X68.69 Y-0.964 I-7.24 J-1.447
N3905 X68.64 Y-0.866 I-1.926 J-0.914
N3910 G2 X68.591 Y-0.767 I1.332 J0.719
N3915 G3 X48.036 Y-8.771 I-10.074 J-4.525
N3920 X54.723 Y-15.665 I10.482 J3.478
N3925 G2 X56.135 Y-17.48 I-0.745 J-2.036
N3930 G3 X57.802 Y-19.064 I1.757 J0.181
N3935 X71.968 Y-2.31 I0.708 J13.767
N3940 G2 X71.907 Y-1.939 I3.304 J0.734
N3945 G3 X71.865 Y-1.565 I-27.84 J-2.999
N3950 X71.447 Y-0.306 I-3.322 J-0.403
N3955 X71.258 Y0.019 I-24.301 J-13.911
N3960 G2 X71.085 Y0.353 I2.914 J1.721
N3965 G3 X45.426 Y-9.637 I-12.575 J-5.649
N3970 X57.802 Y-19.064 I13.084 J4.341
N3975 G2 X59.703 Y-20.407 I-0.112 J-2.175
N3980 G3 X61.756 Y-21.503 I1.693 J0.7
N3985 X74.636 Y-1.717 I-3.254 J16.203
N3990 G2 X74.557 Y-1.065 I3.304 J0.734
N3995 X74.564 Y-0.409 I9.242 J0.223
N4000 G3 X74.302 Y0.381 I-1.157 J0.054
N4005 G2 X73.904 Y0.903 I7.144 J5.868
N4010 X73.578 Y1.473 I2.762 J1.957
N4015 G3 X42.816 Y-10.503 I-15.076 J-6.772
N4020 X61.756 Y-21.503 I15.686 J5.204
N4025 G2 X63.892 Y-22.33 I0.419 J-2.088
N4030 G3 X66.103 Y-22.93 I1.482 J1.089
N4035 X77.244 Y-1.138 I-7.603 J17.63
N4040 G2 X78.122 Y1.21 I2.245 J0.498
N4045 G1 X78.112
N4050 G2 X76.014 Y2.568 I0. J2.3
N4055 G3 X40.986 Y-13.167 I-17.514 J-7.867
N4060 X66.103 Y-22.93 I17.514 J7.867
N4065 X66.197 Y-22.866 Z-1.977 I-0.119 J0.275
N4070 X66.254 Y-22.787 Z-1.912 I-0.213 J0.211
N4075 X66.276 Y-22.726 Z-1.815 I-0.269 J0.132
N4080 X66.28 Y-22.704 Z-1.7 I-0.291 J0.071
N4085 G0 Z5.
N4090 X103.378 Y4.006
N4095 G1 Z-1.7 F1000.
N4100 X103.373 Y4. Z-1.767
N4105 X103.357 Y3.985 Z-1.83
N4110 X103.331 Y3.96 Z-1.887
N4115 X103.297 Y3.927 Z-1.935
N4120 X103.257 Y3.887 Z-1.97
N4125 X103.211 Y3.843 Z-1.992
N4130 X103.163 Y3.796 Z-2.
N4135 X101.394 Y2.076
N4140 G2 X100. Y1.51 I-1.394 J1.434
N4145 G1 X78.112
N4150 G2 X76.288 Y2.69 I0. J2.
N4155 G3 X40.712 Y-13.29 I-17.788 J-7.99
N4160 X77.536 Y-1.073 I17.788 J7.99
N4165 G2 X79.489 Y1.36 I1.952 J0.433
N4170 G1 X100.
N4175 G2 X101.398 Y0.79 I0. J-2.
N4180 G3 X101.718 Y0.845 I0.14 J0.143
N4185 G1 X102.187 Y1.807
N4190 G3 X101.887 Y2.054 I-0.18 J0.088
N4195 G1 X101.833 Y2.014 Z-2.008
N4200 X101.783 Y1.976 Z-2.03
N4205 X101.738 Y1.941 Z-2.065
N4210 X101.7 Y1.912 Z-2.113
N4215 X101.671 Y1.891 Z-2.17
N4220 X101.654 Y1.877 Z-2.233
N4225 X101.648 Y1.873 Z-2.3
N4230 Z-2.7
N4235 X101.642 Y1.868 Z-2.767
N4240 X101.624 Y1.855 Z-2.83
N4245 X101.595 Y1.833 Z-2.887
N4250 X101.558 Y1.805 Z-2.935
N4255 X101.512 Y1.77 Z-2.97
N4260 X101.462 Y1.732 Z-2.992
N4265 X101.409 Y1.692 Z-3.
N4270 X101.39 Y1.677
N4275 G2 X100.992 Y1.435 I-1.39 J1.833
N4280 X101.394 Y1.19 I-0.992 J-2.075
N4285 G1 X102.587 Y0.281
N4290 X102.64 Y0.24 Z-2.992
N4295 X102.69 Y0.202 Z-2.97
N4300 X102.736 Y0.168 Z-2.935
N4305 X102.773 Y0.139 Z-2.887
N4310 X102.802 Y0.117 Z-2.83
N4315 X102.82 Y0.104 Z-2.767
N4320 X102.826 Y0.099 Z-2.7
N4325 G0 Z5.
N4330 X59.943 Y-5.418
N4335 G1 Z0.8 F1000.
N4340 G3 X59.931 Y-5.381 Z0.653 I-1.362 J-0.419 F333.33
N4345 X59.894 Y-5.283 Z0.544 I-1.35 J-0.455
N4350 X59.831 Y-5.152 Z0.5 I-1.313 J-0.554
N4355 X57.332 Y-6.521 Z0.344 I-1.25 J-0.685
N4360 X59.831 Y-5.152 Z0.187 I1.25 J0.685
N4365 X57.332 Y-6.521 Z0.031 I-1.25 J-0.685
N4370 X59.831 Y-5.152 Z-0.125 I1.25 J0.685
N4375 X57.332 Y-6.521 Z-0.282 I-1.25 J-0.685
N4380 X59.831 Y-5.152 Z-0.438 I1.25 J0.685
N4385 X57.332 Y-6.521 Z-0.594 I-1.25 J-0.685
N4390 X59.831 Y-5.152 Z-0.751 I1.25 J0.685
N4395 X57.332 Y-6.521 Z-0.907 I-1.25 J-0.685
N4400 X59.831 Y-5.152 Z-1.063 I1.25 J0.685
N4405 X57.332 Y-6.521 Z-1.22 I-1.25 J-0.685
N4410 X59.831 Y-5.152 Z-1.376 I1.25 J0.685
N4415 X57.332 Y-6.521 Z-1.532 I-1.25 J-0.685
N4420 X59.831 Y-5.152 Z-1.689 I1.25 J0.685
N4425 X57.332 Y-6.521 Z-1.845 I-1.25 J-0.685
N4430 X59.831 Y-5.152 Z-2.001 I1.25 J0.685
N4435 X57.332 Y-6.521 Z-2.158 I-1.25 J-0.685
N4440 X59.831 Y-5.152 Z-2.314 I1.25 J0.685
N4445 X57.332 Y-6.521 Z-2.47 I-1.25 J-0.685
N4450 X59.831 Y-5.152 Z-2.627 I1.25 J0.685
N4455 X57.332 Y-6.521 Z-2.783 I-1.25 J-0.685
N4460 X59.831 Y-5.152 Z-2.939 I1.25 J0.685
N4465 X58.368 Y-4.428 Z-3. I-1.25 J-0.685
N4470 X58.632 Y-6.172 I0.132 J-0.872 F1000.
N4475 X58.368 Y-4.428 I-0.132 J0.872
N4480 G2 X57.181 Y-4.009 I-0.2 J1.324
N4485 G3 X55.941 Y-4.226 I-0.55 J-0.506
N4490 X61.058 Y-6.374 I2.558 J-1.074
N4495 X55.941 Y-4.226 I-2.558 J1.074
N4500 G2 X54.345 Y-5.459 I-1.887 J0.792
N4505 G3 X53.308 Y-7.19 I0.184 J-1.286
N4510 X63.692 Y-3.41 I5.192 J1.89
N4515 X53.308 Y-7.19 I-5.192 J-1.89
N4520 G2 X52.896 Y-9.329 I-1.992 J-0.725
N4525 G3 X53.022 Y-11.505 I1.144 J-1.025
N4530 X66.606 Y-3.5 I5.492 J6.209
N4535 G2 X66.561 Y-3.247 I3.065 J0.681
N4540 G3 X66.521 Y-2.993 I-5.933 J-0.815
N4545 X66.309 Y-2.355 I-2.357 J-0.428
N4550 X66.189 Y-2.127 I-5.363 J-2.665
N4555 G2 X66.075 Y-1.897 I2.749 J1.517
N4560 G3 X50.646 Y-7.905 I-7.561 J-3.397
N4565 X53.022 Y-11.505 I7.868 J2.61
N4570 G2 X53.678 Y-13.665 I-1.426 J-1.613
N4575 G3 X54.723 Y-15.665 I1.621 J-0.426
N4580 X69.3 Y-2.902 I3.795 J10.372
N4585 G2 X69.28 Y-2.793 I1.478 J0.328
N4590 G3 X69.261 Y-2.684 I-2.109 J-0.309
N4595 X68.69 Y-0.964 I-7.24 J-1.447
N4600 X68.64 Y-0.866 I-1.926 J-0.914
N4605 G2 X68.591 Y-0.767 I1.332 J0.719
N4610 G3 X48.036 Y-8.771 I-10.074 J-4.525
N4615 X54.723 Y-15.665 I10.482 J3.478
N4620 G2 X56.135 Y-17.48 I-0.745 J-2.036
N4625 G3 X57.802 Y-19.064 I1.757 J0.181
N4630 X71.968 Y-2.31 I0.708 J13.767
N4635 G2 X71.907 Y-1.939 I3.304 J0.734
N4640 G3 X71.865 Y-1.565 I-27.84 J-2.999
N4645 X71.447 Y-0.306 I-3.322 J-0.403
N4650 X71.258 Y0.019 I-24.301 J-13.911
N4655 G2 X71.085 Y0.353 I2.914 J1.721
N4660 G3 X45.426 Y-9.637 I-12.575 J-5.649
N4665 X57.802 Y-19.064 I13.084 J4.341
N4670 G2 X59.703 Y-20.407 I-0.112 J-2.175
N4675 G3 X61.756 Y-21.503 I1.693 J0.7
N4680 X74.636 Y-1.717 I-3.254 J16.203
N4685 G2 X74.557 Y-1.065 I3.304 J0.734
N4690 X74.564 Y-0.409 I9.242 J0.223
N4695 G3 X74.302 Y0.381 I-1.157 J0.054
N4700 G2 X73.904 Y0.903 I7.144 J5.868
N4705 X73.578 Y1.473 I2.762 J1.957
N4710 G3 X42.816 Y-10.503 I-15.076 J-6.772
N4715 X61.756 Y-21.503 I15.686 J5.204
N4720 G2 X63.892 Y-22.33 I0.419 J-2.088
N4725 G3 X66.103 Y-22.93 I1.482 J1.089
N4730 X77.244 Y-1.138 I-7.603 J17.63
N4735 G2 X78.122 Y1.21 I2.245 J0.498
N4740 G1 X78.112
N4745 G2 X76.014 Y2.568 I0. J2.3
N4750 G3 X40.986 Y-13.167 I-17.514 J-7.867
N4755 X66.103 Y-22.93 I17.514 J7.867
N4760 X66.197 Y-22.866 Z-2.977 I-0.119 J0.275
N4765 X66.254 Y-22.787 Z-2.912 I-0.213 J0.211
N4770 X66.276 Y-22.726 Z-2.815 I-0.269 J0.132
N4775 X66.28 Y-22.704 Z-2.7 I-0.291 J0.071
N4780 G0 Z5.
N4785 X103.378 Y4.006
N4790 G1 Z-2.7 F1000.
N4795 X103.373 Y4. Z-2.767
N4800 X103.357 Y3.985 Z-2.83
N4805 X103.331 Y3.96 Z-2.887
N4810 X103.297 Y3.927 Z-2.935
N4815 X103.257 Y3.887 Z-2.97
N4820 X103.211 Y3.843 Z-2.992
N4825 X103.163 Y3.796 Z-3.
N4830 X101.394 Y2.076
N4835 G2 X100. Y1.51 I-1.394 J1.434
N4840 G1 X78.112
N4845 G2 X76.288 Y2.69 I0. J2.
N4850 G3 X40.712 Y-13.29 I-17.788 J-7.99
N4855 X77.536 Y-1.073 I17.788 J7.99
N4860 G2 X79.489 Y1.36 I1.952 J0.433
N4865 G1 X100.
N4870 G2 X101.398 Y0.79 I0. J-2.
N4875 G3 X101.718 Y0.845 I0.14 J0.143
N4880 G1 X102.187 Y1.807
N4885 G3 X101.887 Y2.054 I-0.18 J0.088
N4890 G1 X101.833 Y2.014 Z-3.008
N4895 X101.783 Y1.976 Z-3.03
N4900 X101.738 Y1.941 Z-3.065
N4905 X101.7 Y1.912 Z-3.113
N4910 X101.671 Y1.891 Z-3.17
N4915 X101.654 Y1.877 Z-3.233
N4920 X101.648 Y1.873 Z-3.3
N4925 Z-3.7
N4930 X101.642 Y1.868 Z-3.767
N4935 X101.624 Y1.855 Z-3.83
N4940 X101.595 Y1.833 Z-3.887
N4945 X101.558 Y1.805 Z-3.935
N4950 X101.512 Y1.77 Z-3.97
N4955 X101.462 Y1.732 Z-3.992
N4960 X101.409 Y1.692 Z-4.
N4965 X101.39 Y1.677
N4970 G2 X100.992 Y1.435 I-1.39 J1.833
N4975 X101.394 Y1.19 I-0.992 J-2.075
N4980 G1 X102.587 Y0.281
N4985 X102.64 Y0.24 Z-3.992
N4990 X102.69 Y0.202 Z-3.97
N4995 X102.736 Y0.168 Z-3.935
N5000 X102.773 Y0.139 Z-3.887
N5005 X102.802 Y0.117 Z-3.83
N5010 X102.82 Y0.104 Z-3.767
N5015 X102.826 Y0.099 Z-3.7
N5020 G0 Z5.
N5025 X59.943 Y-5.418
N5030 G1 Z-0.2 F1000.
N5035 G3 X59.931 Y-5.381 Z-0.347 I-1.362 J-0.419 F333.33
N5040 X59.894 Y-5.283 Z-0.456 I-1.35 J-0.455
N5045 X59.831 Y-5.152 Z-0.5 I-1.313 J-0.554
N5050 X57.332 Y-6.521 Z-0.656 I-1.25 J-0.685
N5055 X59.831 Y-5.152 Z-0.813 I1.25 J0.685
N5060 X57.332 Y-6.521 Z-0.969 I-1.25 J-0.685
N5065 X59.831 Y-5.152 Z-1.125 I1.25 J0.685
N5070 X57.332 Y-6.521 Z-1.282 I-1.25 J-0.685
N5075 X59.831 Y-5.152 Z-1.438 I1.25 J0.685
N5080 X57.332 Y-6.521 Z-1.594 I-1.25 J-0.685
N5085 X59.831 Y-5.152 Z-1.751 I1.25 J0.685
N5090 X57.332 Y-6.521 Z-1.907 I-1.25 J-0.685
N5095 X59.831 Y-5.152 Z-2.063 I1.25 J0.685
N5100 X57.332 Y-6.521 Z-2.22 I-1.25 J-0.685
N5105 X59.831 Y-5.152 Z-2.376 I1.25 J0.685
N5110 X57.332 Y-6.521 Z-2.532 I-1.25 J-0.685
N5115 X59.831 Y-5.152 Z-2.689 I1.25 J0.685
N5120 X57.332 Y-6.521 Z-2.845 I-1.25 J-0.685
N5125 X59.831 Y-5.152 Z-3.001 I1.25 J0.685
N5130 X57.332 Y-6.521 Z-3.158 I-1.25 J-0.685
N5135 X59.831 Y-5.152 Z-3.314 I1.25 J0.685
N5140 X57.332 Y-6.521 Z-3.47 I-1.25 J-0.685
N5145 X59.831 Y-5.152 Z-3.627 I1.25 J0.685
N5150 X57.332 Y-6.521 Z-3.783 I-1.25 J-0.685
N5155 X59.831 Y-5.152 Z-3.939 I1.25 J0.685
N5160 X58.368 Y-4.428 Z-4. I-1.25 J-0.685
N5165 X58.632 Y-6.172 I0.132 J-0.872 F1000.
N5170 X58.368 Y-4.428 I-0.132 J0.872
N5175 G2 X57.181 Y-4.009 I-0.2 J1.324
N5180 G3 X55.941 Y-4.226 I-0.55 J-0.506
N5185 X61.058 Y-6.374 I2.558 J-1.074
N5190 X55.941 Y-4.226 I-2.558 J1.074
N5195 G2 X54.345 Y-5.459 I-1.887 J0.792
N5200 G3 X53.308 Y-7.19 I0.184 J-1.286
N5205 X63.692 Y-3.41 I5.192 J1.89
N5210 X53.308 Y-7.19 I-5.192 J-1.89
N5215 G2 X52.896 Y-9.329 I-1.992 J-0.725
N5220 G3 X53.022 Y-11.505 I1.144 J-1.025
N5225 X66.606 Y-3.5 I5.492 J6.209
N5230 G2 X66.561 Y-3.247 I3.065 J0.681
N5235 G3 X66.521 Y-2.993 I-5.933 J-0.815
N5240 X66.309 Y-2.355 I-2.357 J-0.428
N5245 X66.189 Y-2.127 I-5.363 J-2.665
N5250 G2 X66.075 Y-1.897 I2.749 J1.517
N5255 G3 X50.646 Y-7.905 I-7.561 J-3.397
N5260 X53.022 Y-11.505 I7.868 J2.61
N5265 G2 X53.678 Y-13.665 I-1.426 J-1.613
N5270 G3 X54.723 Y-15.665 I1.621 J-0.426
N5275 X69.3 Y-2.902 I3.795 J10.372
N5280 G2 X69.28 Y-2.793 I1.478 J0.328
N5285 G3 X69.261 Y-2.684 I-2.109 J-0.309
N5290 X68.69 Y-0.964 I-7.24 J-1.447
N5295 X68.64 Y-0.866 I-1.926 J-0.914
N5300 G2 X68.591 Y-0.767 I1.332 J0.719
N5305 G3 X48.036 Y-8.771 I-10.074 J-4.525
N5310 X54.723 Y-15.665 I10.482 J3.478
N5315 G2 X56.135 Y-17.48 I-0.745 J-2.036
N5320 G3 X57.802 Y-19.064 I1.757 J0.181
N5325 X71.968 Y-2.31 I0.708 J13.767
N5330 G2 X71.907 Y-1.939 I3.304 J0.734
N5335 G3 X71.865 Y-1.565 I-27.84 J-2.999
N5340 X71.447 Y-0.306 I-3.322 J-0.403
N5345 X71.258 Y0.019 I-24.301 J-13.911
N5350 G2 X71.085 Y0.353 I2.914 J1.721
N5355 G3 X45.426 Y-9.637 I-12.575 J-5.649
N5360 X57.802 Y-19.064 I13.084 J4.341
N5365 G2 X59.703 Y-20.407 I-0.112 J-2.175
N5370 G3 X61.756 Y-21.503 I1.693 J0.7
N5375 X74.636 Y-1.717 I-3.254 J16.203
N5380 G2 X74.557 Y-1.065 I3.304 J0.734
N5385 X74.564 Y-0.409 I9.242 J0.223
N5390 G3 X74.302 Y0.381 I-1.157 J0.054
N5395 G2 X73.904 Y0.903 I7.144 J5.868
N5400 X73.578 Y1.473 I2.762 J1.957
N5405 G3 X42.816 Y-10.503 I-15.076 J-6.772
N5410 X61.756 Y-21.503 I15.686 J5.204
N5415 G2 X63.892 Y-22.33 I0.419 J-2.088
N5420 G3 X66.103 Y-22.93 I1.482 J1.089
N5425 X77.244 Y-1.138 I-7.603 J17.63
N5430 G2 X78.122 Y1.21 I2.245 J0.498
N5435 G1 X78.112
N5440 G2 X76.014 Y2.568 I0. J2.3
N5445 G3 X40.986 Y-13.167 I-17.514 J-7.867
N5450 X66.103 Y-22.93 I17.514 J7.867
N5455 X66.197 Y-22.866 Z-3.977 I-0.119 J0.275
N5460 X66.254 Y-22.787 Z-3.912 I-0.213 J0.211
N5465 X66.276 Y-22.726 Z-3.815 I-0.269 J0.132
N5470 X66.28 Y-22.704 Z-3.7 I-0.291 J0.071
N5475 G0 Z5.
N5480 X103.378 Y4.006
N5485 G1 Z-3.7 F1000.
N5490 X103.373 Y4. Z-3.767
N5495 X103.357 Y3.985 Z-3.83
N5500 X103.331 Y3.96 Z-3.887
N5505 X103.297 Y3.927 Z-3.935
N5510 X103.257 Y3.887 Z-3.97
N5515 X103.211 Y3.843 Z-3.992
N5520 X103.163 Y3.796 Z-4.
N5525 X101.394 Y2.076
N5530 G2 X100. Y1.51 I-1.394 J1.434
N5535 G1 X78.112
N5540 G2 X76.288 Y2.69 I0. J2.
N5545 G3 X40.712 Y-13.29 I-17.788 J-7.99
N5550 X77.536 Y-1.073 I17.788 J7.99
N5555 G2 X79.489 Y1.36 I1.952 J0.433
N5560 G1 X100.
N5565 G2 X101.398 Y0.79 I0. J-2.
N5570 G3 X101.718 Y0.845 I0.14 J0.143
N5575 G1 X102.187 Y1.807
N5580 G3 X101.887 Y2.054 I-0.18 J0.088
N5585 G1 X101.833 Y2.014 Z-4.008
N5590 X101.783 Y1.976 Z-4.03
N5595 X101.738 Y1.941 Z-4.065
N5600 X101.7 Y1.912 Z-4.113
N5605 X101.671 Y1.891 Z-4.17
N5610 X101.654 Y1.877 Z-4.233
N5615 X101.648 Y1.873 Z-4.3
N5620 Z-4.7
N5625 X101.642 Y1.868 Z-4.767
N5630 X101.624 Y1.855 Z-4.83
N5635 X101.595 Y1.833 Z-4.887
N5640 X101.558 Y1.805 Z-4.935
N5645 X101.512 Y1.77 Z-4.97
N5650 X101.462 Y1.732 Z-4.992
N5655 X101.409 Y1.692 Z-5.
N5660 X101.39 Y1.677
N5665 G2 X100.992 Y1.435 I-1.39 J1.833
N5670 X101.394 Y1.19 I-0.992 J-2.075
N5675 G1 X102.587 Y0.281
N5680 X102.64 Y0.24 Z-4.992
N5685 X102.69 Y0.202 Z-4.97
N5690 X102.736 Y0.168 Z-4.935
N5695 X102.773 Y0.139 Z-4.887
N5700 X102.802 Y0.117 Z-4.83
N5705 X102.82 Y0.104 Z-4.767
N5710 X102.826 Y0.099 Z-4.7
N5715 G0 Z5.
N5720 X59.943 Y-5.418
N5725 G1 Z-1.2 F1000.
N5730 G3 X59.931 Y-5.381 Z-1.347 I-1.362 J-0.419 F333.33
N5735 X59.894 Y-5.283 Z-1.456 I-1.35 J-0.455
N5740 X59.831 Y-5.152 Z-1.5 I-1.313 J-0.554
N5745 X57.332 Y-6.521 Z-1.656 I-1.25 J-0.685
N5750 X59.831 Y-5.152 Z-1.813 I1.25 J0.685
N5755 X57.332 Y-6.521 Z-1.969 I-1.25 J-0.685
N5760 X59.831 Y-5.152 Z-2.125 I1.25 J0.685
N5765 X57.332 Y-6.521 Z-2.282 I-1.25 J-0.685
N5770 X59.831 Y-5.152 Z-2.438 I1.25 J0.685
N5775 X57.332 Y-6.521 Z-2.594 I-1.25 J-0.685
N5780 X59.831 Y-5.152 Z-2.751 I1.25 J0.685
N5785 X57.332 Y-6.521 Z-2.907 I-1.25 J-0.685
N5790 X59.831 Y-5.152 Z-3.063 I1.25 J0.685
N5795 X57.332 Y-6.521 Z-3.22 I-1.25 J-0.685
N5800 X59.831 Y-5.152 Z-3.376 I1.25 J0.685
N5805 X57.332 Y-6.521 Z-3.532 I-1.25 J-0.685
N5810 X59.831 Y-5.152 Z-3.689 I1.25 J0.685
N5815 X57.332 Y-6.521 Z-3.845 I-1.25 J-0.685
N5820 X59.831 Y-5.152 Z-4.001 I1.25 J0.685
N5825 X57.332 Y-6.521 Z-4.158 I-1.25 J-0.685
N5830 X59.831 Y-5.152 Z-4.314 I1.25 J0.685
N5835 X57.332 Y-6.521 Z-4.47 I-1.25 J-0.685
N5840 X59.831 Y-5.152 Z-4.627 I1.25 J0.685
N5845 X57.332 Y-6.521 Z-4.783 I-1.25 J-0.685
N5850 X59.831 Y-5.152 Z-4.939 I1.25 J0.685
N5855 X58.368 Y-4.428 Z-5. I-1.25 J-0.685
N5860 X58.632 Y-6.172 I0.132 J-0.872 F1000.
N5865 X58.368 Y-4.428 I-0.132 J0.872
N5870 G2 X57.181 Y-4.009 I-0.2 J1.324
N5875 G3 X55.941 Y-4.226 I-0.55 J-0.506
N5880 X61.058 Y-6.374 I2.558 J-1.074
N5885 X55.941 Y-4.226 I-2.558 J1.074
N5890 G2 X54.345 Y-5.459 I-1.887 J0.792
N5895 G3 X53.308 Y-7.19 I0.184 J-1.286
N5900 X63.692 Y-3.41 I5.192 J1.89
N5905 X53.308 Y-7.19 I-5.192 J-1.89
N5910 G2 X52.896 Y-9.329 I-1.992 J-0.725
N5915 G3 X53.022 Y-11.505 I1.144 J-1.025
N5920 X66.606 Y-3.5 I5.492 J6.209
N5925 G2 X66.561 Y-3.247 I3.065 J0.681
N5930 G3 X66.521 Y-2.993 I-5.933 J-0.815
N5935 X66.309 Y-2.355 I-2.357 J-0.428
N5940 X66.189 Y-2.127 I-5.363 J-2.665
N5945 G2 X66.075 Y-1.897 I2.749 J1.517
N5950 G3 X50.646 Y-7.905 I-7.561 J-3.397
N5955 X53.022 Y-11.505 I7.868 J2.61
N5960 G2 X53.678 Y-13.665 I-1.426 J-1.613
N5965 G3 X54.723 Y-15.665 I1.621 J-0.426
N5970 X69.3 Y-2.902 I3.795 J10.372
N5975 G2 X69.28 Y-2.793 I1.478 J0.328
N5980 G3 X69.261 Y-2.684 I-2.109 J-0.309
N5985 X68.69 Y-0.964 I-7.24 J-1.447
N5990 X68.64 Y-0.866 I-1.926 J-0.914
N5995 G2 X68.591 Y-0.767 I1.332 J0.719
N6000 G3 X48.036 Y-8.771 I-10.074 J-4.525
N6005 X54.723 Y-15.665 I10.482 J3.478
N6010 G2 X56.135 Y-17.48 I-0.745 J-2.036
N6015 G3 X57.802 Y-19.064 I1.757 J0.181
N6020 X71.968 Y-2.31 I0.708 J13.767
N6025 G2 X71.907 Y-1.939 I3.304 J0.734
N6030 G3 X71.865 Y-1.565 I-27.84 J-2.999
N6035 X71.447 Y-0.306 I-3.322 J-0.403
N6040 X71.258 Y0.019 I-24.301 J-13.911
N6045 G2 X71.085 Y0.353 I2.914 J1.721
N6050 G3 X45.426 Y-9.637 I-12.575 J-5.649
N6055 X57.802 Y-19.064 I13.084 J4.341
N6060 G2 X59.703 Y-20.407 I-0.112 J-2.175
N6065 G3 X61.756 Y-21.503 I1.693 J0.7
N6070 X74.636 Y-1.717 I-3.254 J16.203
N6075 G2 X74.557 Y-1.065 I3.304 J0.734
N6080 X74.564 Y-0.409 I9.242 J0.223
N6085 G3 X74.302 Y0.381 I-1.157 J0.054
N6090 G2 X73.904 Y0.903 I7.144 J5.868
N6095 X73.578 Y1.473 I2.762 J1.957
N6100 G3 X42.816 Y-10.503 I-15.076 J-6.772
N6105 X61.756 Y-21.503 I15.686 J5.204
N6110 G2 X63.892 Y-22.33 I0.419 J-2.088
N6115 G3 X66.103 Y-22.93 I1.482 J1.089
N6120 X77.244 Y-1.138 I-7.603 J17.63
N6125 G2 X78.122 Y1.21 I2.245 J0.498
N6130 G1 X78.112
N6135 G2 X76.014 Y2.568 I0. J2.3
N6140 G3 X40.986 Y-13.167 I-17.514 J-7.867
N6145 X66.103 Y-22.93 I17.514 J7.867
N6150 X66.197 Y-22.866 Z-4.977 I-0.119 J0.275
N6155 X66.254 Y-22.787 Z-4.912 I-0.213 J0.211
N6160 X66.276 Y-22.726 Z-4.815 I-0.269 J0.132
N6165 X66.28 Y-22.704 Z-4.7 I-0.291 J0.071
N6170 G0 Z5.
N6175 X103.378 Y4.006
N6180 G1 Z-4.7 F1000.
N6185 X103.373 Y4. Z-4.767
N6190 X103.357 Y3.985 Z-4.83
N6195 X103.331 Y3.96 Z-4.887
N6200 X103.297 Y3.927 Z-4.935
N6205 X103.257 Y3.887 Z-4.97
N6210 X103.211 Y3.843 Z-4.992
N6215 X103.163 Y3.796 Z-5.
N6220 X101.394 Y2.076
N6225 G2 X100. Y1.51 I-1.394 J1.434
N6230 G1 X78.112
N6235 G2 X76.288 Y2.69 I0. J2.
N6240 G3 X40.712 Y-13.29 I-17.788 J-7.99
N6245 X77.536 Y-1.073 I17.788 J7.99
N6250 G2 X79.489 Y1.36 I1.952 J0.433
N6255 G1 X100.
N6260 G2 X101.398 Y0.79 I0. J-2.
N6265 G3 X101.718 Y0.845 I0.14 J0.143
N6270 G1 X102.187 Y1.807
N6275 G3 X101.887 Y2.054 I-0.18 J0.088
N6280 G1 X101.833 Y2.014 Z-5.008
N6285 X101.783 Y1.976 Z-5.03
N6290 X101.738 Y1.941 Z-5.065
N6295 X101.7 Y1.912 Z-5.113
N6300 X101.671 Y1.891 Z-5.17
N6305 X101.654 Y1.877 Z-5.233
N6310 X101.648 Y1.873 Z-5.3
N6315 Z-5.7
N6320 X101.642 Y1.868 Z-5.767
N6325 X101.624 Y1.855 Z-5.83
N6330 X101.595 Y1.833 Z-5.887
N6335 X101.558 Y1.805 Z-5.935
N6340 X101.512 Y1.77 Z-5.97
N6345 X101.462 Y1.732 Z-5.992
N6350 X101.409 Y1.692 Z-6.
N6355 X101.39 Y1.677
N6360 G2 X100.992 Y1.435 I-1.39 J1.833
N6365 X101.394 Y1.19 I-0.992 J-2.075
N6370 G1 X102.587 Y0.281
N6375 X102.64 Y0.24 Z-5.992
N6380 X102.69 Y0.202 Z-5.97
N6385 X102.736 Y0.168 Z-5.935
N6390 X102.773 Y0.139 Z-5.887
N6395 X102.802 Y0.117 Z-5.83
N6400 X102.82 Y0.104 Z-5.767
N6405 X102.826 Y0.099 Z-5.7
N6410 G0 Z5.
N6415 X59.943 Y-5.418
N6420 G1 Z-2.2 F1000.
N6425 G3 X59.931 Y-5.381 Z-2.347 I-1.362 J-0.419 F333.33
N6430 X59.894 Y-5.283 Z-2.456 I-1.35 J-0.455
N6435 X59.831 Y-5.152 Z-2.5 I-1.313 J-0.554
N6440 X57.332 Y-6.521 Z-2.656 I-1.25 J-0.685
N6445 X59.831 Y-5.152 Z-2.813 I1.25 J0.685
N6450 X57.332 Y-6.521 Z-2.969 I-1.25 J-0.685
N6455 X59.831 Y-5.152 Z-3.125 I1.25 J0.685
N6460 X57.332 Y-6.521 Z-3.282 I-1.25 J-0.685
N6465 X59.831 Y-5.152 Z-3.438 I1.25 J0.685
N6470 X57.332 Y-6.521 Z-3.594 I-1.25 J-0.685
N6475 X59.831 Y-5.152 Z-3.751 I1.25 J0.685
N6480 X57.332 Y-6.521 Z-3.907 I-1.25 J-0.685
N6485 X59.831 Y-5.152 Z-4.063 I1.25 J0.685
N6490 X57.332 Y-6.521 Z-4.22 I-1.25 J-0.685
N6495 X59.831 Y-5.152 Z-4.376 I1.25 J0.685
N6500 X57.332 Y-6.521 Z-4.532 I-1.25 J-0.685
N6505 X59.831 Y-5.152 Z-4.689 I1.25 J0.685
N6510 X57.332 Y-6.521 Z-4.845 I-1.25 J-0.685
N6515 X59.831 Y-5.152 Z-5.001 I1.25 J0.685
N6520 X57.332 Y-6.521 Z-5.158 I-1.25 J-0.685
N6525 X59.831 Y-5.152 Z-5.314 I1.25 J0.685
N6530 X57.332 Y-6.521 Z-5.47 I-1.25 J-0.685
N6535 X59.831 Y-5.152 Z-5.627 I1.25 J0.685
N6540 X57.332 Y-6.521 Z-5.783 I-1.25 J-0.685
N6545 X59.831 Y-5.152 Z-5.939 I1.25 J0.685
N6550 X58.368 Y-4.428 Z-6. I-1.25 J-0.685
N6555 X58.632 Y-6.172 I0.132 J-0.872 F1000.
N6560 X58.368 Y-4.428 I-0.132 J0.872
N6565 G2 X57.181 Y-4.009 I-0.2 J1.324
N6570 G3 X55.941 Y-4.226 I-0.55 J-0.506
N6575 X61.058 Y-6.374 I2.558 J-1.074
N6580 X55.941 Y-4.226 I-2.558 J1.074
N6585 G2 X54.345 Y-5.459 I-1.887 J0.792
N6590 G3 X53.308 Y-7.19 I0.184 J-1.286
N6595 X63.692 Y-3.41 I5.192 J1.89
N6600 X53.308 Y-7.19 I-5.192 J-1.89
N6605 G2 X52.896 Y-9.329 I-1.992 J-0.725
N6610 G3 X53.022 Y-11.505 I1.144 J-1.025
N6615 X66.606 Y-3.5 I5.492 J6.209
N6620 G2 X66.561 Y-3.247 I3.065 J0.681
N6625 G3 X66.521 Y-2.993 I-5.933 J-0.815
N6630 X66.309 Y-2.355 I-2.357 J-0.428
N6635 X66.189 Y-2.127 I-5.363 J-2.665
N6640 G2 X66.075 Y-1.897 I2.749 J1.517
N6645 G3 X50.646 Y-7.905 I-7.561 J-3.397
N6650 X53.022 Y-11.505 I7.868 J2.61
N6655 G2 X53.678 Y-13.665 I-1.426 J-1.613
N6660 G3 X54.723 Y-15.665 I1.621 J-0.426
N6665 X69.3 Y-2.902 I3.795 J10.372
N6670 G2 X69.28 Y-2.793 I1.478 J0.328
N6675 G3 X69.261 Y-2.684 I-2.109 J-0.309
N6680 X68.69 Y-0.964 I-7.24 J-1.447
N6685 X68.64 Y-0.866 I-1.926 J-0.914
N6690 G2 X68.591 Y-0.767 I1.332 J0.719
N6695 G3 X48.036 Y-8.771 I-10.074 J-4.525
N6700 X54.723 Y-15.665 I10.482 J3.478
N6705 G2 X56.135 Y-17.48 I-0.745 J-2.036
N6710 G3 X57.802 Y-19.064 I1.757 J0.181
N6715 X71.968 Y-2.31 I0.708 J13.767
N6720 G2 X71.907 Y-1.939 I3.304 J0.734
N6725 G3 X71.865 Y-1.565 I-27.84 J-2.999
N6730 X71.447 Y-0.306 I-3.322 J-0.403
N6735 X71.258 Y0.019 I-24.301 J-13.911
N6740 G2 X71.085 Y0.353 I2.914 J1.721
N6745 G3 X45.426 Y-9.637 I-12.575 J-5.649
N6750 X57.802 Y-19.064 I13.084 J4.341
N6755 G2 X59.703 Y-20.407 I-0.112 J-2.175
N6760 G3 X61.756 Y-21.503 I1.693 J0.7
N6765 X74.636 Y-1.717 I-3.254 J16.203
N6770 G2 X74.557 Y-1.065 I3.304 J0.734
N6775 X74.564 Y-0.409 I9.242 J0.223
N6780 G3 X74.302 Y0.381 I-1.157 J0.054
N6785 G2 X73.904 Y0.903 I7.144 J5.868
N6790 X73.578 Y1.473 I2.762 J1.957
N6795 G3 X42.816 Y-10.503 I-15.076 J-6.772
N6800 X61.756 Y-21.503 I15.686 J5.204
N6805 G2 X63.892 Y-22.33 I0.419 J-2.088
N6810 G3 X66.103 Y-22.93 I1.482 J1.089
N6815 X77.244 Y-1.138 I-7.603 J17.63
N6820 G2 X78.122 Y1.21 I2.245 J0.498
N6825 G1 X78.112
N6830 G2 X76.014 Y2.568 I0. J2.3
N6835 G3 X40.986 Y-13.167 I-17.514 J-7.867
N6840 X66.103 Y-22.93 I17.514 J7.867
N6845 X66.197 Y-22.866 Z-5.977 I-0.119 J0.275
N6850 X66.254 Y-22.787 Z-5.912 I-0.213 J0.211
N6855 X66.276 Y-22.726 Z-5.815 I-0.269 J0.132
N6860 X66.28 Y-22.704 Z-5.7 I-0.291 J0.071
N6865 G0 Z5.
N6870 X103.378 Y4.006
N6875 G1 Z-5.7 F1000.
N6880 X103.373 Y4. Z-5.767
N6885 X103.357 Y3.985 Z-5.83
N6890 X103.331 Y3.96 Z-5.887
N6895 X103.297 Y3.927 Z-5.935
N6900 X103.257 Y3.887 Z-5.97
N6905 X103.211 Y3.843 Z-5.992
N6910 X103.163 Y3.796 Z-6.
N6915 X101.394 Y2.076
N6920 G2 X100. Y1.51 I-1.394 J1.434
N6925 G1 X78.112
N6930 G2 X76.288 Y2.69 I0. J2.
N6935 G3 X40.712 Y-13.29 I-17.788 J-7.99
N6940 X77.536 Y-1.073 I17.788 J7.99
N6945 G2 X79.489 Y1.36 I1.952 J0.433
N6950 G1 X100.
N6955 G2 X101.398 Y0.79 I0. J-2.
N6960 G3 X101.718 Y0.845 I0.14 J0.143
N6965 G1 X102.187 Y1.807
N6970 G3 X101.887 Y2.054 I-0.18 J0.088
N6975 G1 X101.833 Y2.014 Z-6.008
N6980 X101.783 Y1.976 Z-6.03
N6985 X101.738 Y1.941 Z-6.065
N6990 X101.7 Y1.912 Z-6.113
N6995 X101.671 Y1.891 Z-6.17
N7000 X101.654 Y1.877 Z-6.233
N7005 X101.648 Y1.873 Z-6.3
N7010 Z-6.7
N7015 X101.642 Y1.868 Z-6.767
N7020 X101.624 Y1.855 Z-6.83
N7025 X101.595 Y1.833 Z-6.887
N7030 X101.558 Y1.805 Z-6.935
N7035 X101.512 Y1.77 Z-6.97
N7040 X101.462 Y1.732 Z-6.992
N7045 X101.409 Y1.692 Z-7.
N7050 X101.39 Y1.677
N7055 G2 X100.992 Y1.435 I-1.39 J1.833
N7060 X101.394 Y1.19 I-0.992 J-2.075
N7065 G1 X102.587 Y0.281
N7070 X102.64 Y0.24 Z-6.992
N7075 X102.69 Y0.202 Z-6.97
N7080 X102.736 Y0.168 Z-6.935
N7085 X102.773 Y0.139 Z-6.887
N7090 X102.802 Y0.117 Z-6.83
N7095 X102.82 Y0.104 Z-6.767
N7100 X102.826 Y0.099 Z-6.7
N7105 G0 Z5.
N7110 X59.943 Y-5.418
N7115 G1 Z-3.2 F1000.
N7120 G3 X59.931 Y-5.381 Z-3.347 I-1.362 J-0.419 F333.33
N7125 X59.894 Y-5.283 Z-3.456 I-1.35 J-0.455
N7130 X59.831 Y-5.152 Z-3.5 I-1.313 J-0.554
N7135 X57.332 Y-6.521 Z-3.656 I-1.25 J-0.685
N7140 X59.831 Y-5.152 Z-3.813 I1.25 J0.685
N7145 X57.332 Y-6.521 Z-3.969 I-1.25 J-0.685
N7150 X59.831 Y-5.152 Z-4.125 I1.25 J0.685
N7155 X57.332 Y-6.521 Z-4.282 I-1.25 J-0.685
N7160 X59.831 Y-5.152 Z-4.438 I1.25 J0.685
N7165 X57.332 Y-6.521 Z-4.594 I-1.25 J-0.685
N7170 X59.831 Y-5.152 Z-4.751 I1.25 J0.685
N7175 X57.332 Y-6.521 Z-4.907 I-1.25 J-0.685
N7180 X59.831 Y-5.152 Z-5.063 I1.25 J0.685
N7185 X57.332 Y-6.521 Z-5.22 I-1.25 J-0.685
N7190 X59.831 Y-5.152 Z-5.376 I1.25 J0.685
N7195 X57.332 Y-6.521 Z-5.532 I-1.25 J-0.685
N7200 X59.831 Y-5.152 Z-5.689 I1.25 J0.685
N7205 X57.332 Y-6.521 Z-5.845 I-1.25 J-0.685
N7210 X59.831 Y-5.152 Z-6.001 I1.25 J0.685
N7215 X57.332 Y-6.521 Z-6.158 I-1.25 J-0.685
N7220 X59.831 Y-5.152 Z-6.314 I1.25 J0.685
N7225 X57.332 Y-6.521 Z-6.47 I-1.25 J-0.685
N7230 X59.831 Y-5.152 Z-6.627 I1.25 J0.685
N7235 X57.332 Y-6.521 Z-6.783 I-1.25 J-0.685
N7240 X59.831 Y-5.152 Z-6.939 I1.25 J0.685
N7245 X58.368 Y-4.428 Z-7. I-1.25 J-0.685
N7250 X58.632 Y-6.172 I0.132 J-0.872 F1000.
N7255 X58.368 Y-4.428 I-0.132 J0.872
N7260 G2 X57.181 Y-4.009 I-0.2 J1.324
N7265 G3 X55.941 Y-4.226 I-0.55 J-0.506
N7270 X61.058 Y-6.374 I2.558 J-1.074
N7275 X55.941 Y-4.226 I-2.558 J1.074
N7280 G2 X54.345 Y-5.459 I-1.887 J0.792
N7285 G3 X53.308 Y-7.19 I0.184 J-1.286
N7290 X63.692 Y-3.41 I5.192 J1.89
N7295 X53.308 Y-7.19 I-5.192 J-1.89
N7300 G2 X52.896 Y-9.329 I-1.992 J-0.725
N7305 G3 X53.022 Y-11.505 I1.144 J-1.025
N7310 X66.606 Y-3.5 I5.492 J6.209
N7315 G2 X66.561 Y-3.247 I3.065 J0.681
N7320 G3 X66.521 Y-2.993 I-5.933 J-0.815
N7325 X66.309 Y-2.355 I-2.357 J-0.428
N7330 X66.189 Y-2.127 I-5.363 J-2.665
N7335 G2 X66.075 Y-1.897 I2.749 J1.517
N7340 G3 X50.646 Y-7.905 I-7.561 J-3.397
N7345 X53.022 Y-11.505 I7.868 J2.61
N7350 G2 X53.678 Y-13.665 I-1.426 J-1.613
N7355 G3 X54.723 Y-15.665 I1.621 J-0.426
N7360 X69.3 Y-2.902 I3.795 J10.372
N7365 G2 X69.28 Y-2.793 I1.478 J0.328
N7370 G3 X69.261 Y-2.684 I-2.109 J-0.309
N7375 X68.69 Y-0.964 I-7.24 J-1.447
N7380 X68.64 Y-0.866 I-1.926 J-0.914
N7385 G2 X68.591 Y-0.767 I1.332 J0.719
N7390 G3 X48.036 Y-8.771 I-10.074 J-4.525
N7395 X54.723 Y-15.665 I10.482 J3.478
N7400 G2 X56.135 Y-17.48 I-0.745 J-2.036
N7405 G3 X57.802 Y-19.064 I1.757 J0.181
N7410 X71.968 Y-2.31 I0.708 J13.767
N7415 G2 X71.907 Y-1.939 I3.304 J0.734
N7420 G3 X71.865 Y-1.565 I-27.84 J-2.999
N7425 X71.447 Y-0.306 I-3.322 J-0.403
N7430 X71.258 Y0.019 I-24.301 J-13.911
N7435 G2 X71.085 Y0.353 I2.914 J1.721
N7440 G3 X45.426 Y-9.637 I-12.575 J-5.649
N7445 X57.802 Y-19.064 I13.084 J4.341
N7450 G2 X59.703 Y-20.407 I-0.112 J-2.175
N7455 G3 X61.756 Y-21.503 I1.693 J0.7
N7460 X74.636 Y-1.717 I-3.254 J16.203
N7465 G2 X74.557 Y-1.065 I3.304 J0.734
N7470 X74.564 Y-0.409 I9.242 J0.223
N7475 G3 X74.302 Y0.381 I-1.157 J0.054
N7480 G2 X73.904 Y0.903 I7.144 J5.868
N7485 X73.578 Y1.473 I2.762 J1.957
N7490 G3 X42.816 Y-10.503 I-15.076 J-6.772
N7495 X61.756 Y-21.503 I15.686 J5.204
N7500 G2 X63.892 Y-22.33 I0.419 J-2.088
N7505 G3 X66.103 Y-22.93 I1.482 J1.089
N7510 X77.244 Y-1.138 I-7.603 J17.63
N7515 G2 X78.122 Y1.21 I2.245 J0.498
N7520 G1 X78.112
N7525 G2 X76.014 Y2.568 I0. J2.3
N7530 G3 X40.986 Y-13.167 I-17.514 J-7.867
N7535 X66.103 Y-22.93 I17.514 J7.867
N7540 X66.197 Y-22.866 Z-6.977 I-0.119 J0.275
N7545 X66.254 Y-22.787 Z-6.912 I-0.213 J0.211
N7550 X66.276 Y-22.726 Z-6.815 I-0.269 J0.132
N7555 X66.28 Y-22.704 Z-6.7 I-0.291 J0.071
N7560 G0 Z5.
N7565 X103.378 Y4.006
N7570 G1 Z-6.7 F1000.
N7575 X103.373 Y4. Z-6.767
N7580 X103.357 Y3.985 Z-6.83
N7585 X103.331 Y3.96 Z-6.887
N7590 X103.297 Y3.927 Z-6.935
N7595 X103.257 Y3.887 Z-6.97
N7600 X103.211 Y3.843 Z-6.992
N7605 X103.163 Y3.796 Z-7.
N7610 X101.394 Y2.076
N7615 G2 X100. Y1.51 I-1.394 J1.434
N7620 G1 X78.112
N7625 G2 X76.288 Y2.69 I0. J2.
N7630 G3 X40.712 Y-13.29 I-17.788 J-7.99
N7635 X77.536 Y-1.073 I17.788 J7.99
N7640 G2 X79.489 Y1.36 I1.952 J0.433
N7645 G1 X100.
N7650 G2 X101.398 Y0.79 I0. J-2.
N7655 G3 X101.718 Y0.845 I0.14 J0.143
N7660 G1 X102.187 Y1.807
N7665 G3 X101.887 Y2.054 I-0.18 J0.088
N7670 G1 X101.833 Y2.014 Z-7.008
N7675 X101.783 Y1.976 Z-7.03
N7680 X101.738 Y1.941 Z-7.065
N7685 X101.7 Y1.912 Z-7.113
N7690 X101.671 Y1.891 Z-7.17
N7695 X101.654 Y1.877 Z-7.233
N7700 X101.648 Y1.873 Z-7.3
N7705 Z-7.7
N7710 X101.642 Y1.868 Z-7.767
N7715 X101.624 Y1.855 Z-7.83
N7720 X101.595 Y1.833 Z-7.887
N7725 X101.558 Y1.805 Z-7.935
N7730 X101.512 Y1.77 Z-7.97
N7735 X101.462 Y1.732 Z-7.992
N7740 X101.409 Y1.692 Z-8.
N7745 X101.39 Y1.677
N7750 G2 X100.992 Y1.435 I-1.39 J1.833
N7755 X101.394 Y1.19 I-0.992 J-2.075
N7760 G1 X102.587 Y0.281
N7765 X102.64 Y0.24 Z-7.992
N7770 X102.69 Y0.202 Z-7.97
N7775 X102.736 Y0.168 Z-7.935
N7780 X102.773 Y0.139 Z-7.887
N7785 X102.802 Y0.117 Z-7.83
N7790 X102.82 Y0.104 Z-7.767
N7795 X102.826 Y0.099 Z-7.7
N7800 G0 Z5.
N7805 X59.943 Y-5.418
N7810 G1 Z-4.2 F1000.
N7815 G3 X59.931 Y-5.381 Z-4.347 I-1.362 J-0.419 F333.33
N7820 X59.894 Y-5.283 Z-4.456 I-1.35 J-0.455
N7825 X59.831 Y-5.152 Z-4.5 I-1.313 J-0.554
N7830 X57.332 Y-6.521 Z-4.656 I-1.25 J-0.685
N7835 X59.831 Y-5.152 Z-4.813 I1.25 J0.685
N7840 X57.332 Y-6.521 Z-4.969 I-1.25 J-0.685
N7845 X59.831 Y-5.152 Z-5.125 I1.25 J0.685
N7850 X57.332 Y-6.521 Z-5.282 I-1.25 J-0.685
N7855 X59.831 Y-5.152 Z-5.438 I1.25 J0.685
N7860 X57.332 Y-6.521 Z-5.594 I-1.25 J-0.685
N7865 X59.831 Y-5.152 Z-5.751 I1.25 J0.685
N7870 X57.332 Y-6.521 Z-5.907 I-1.25 J-0.685
N7875 X59.831 Y-5.152 Z-6.063 I1.25 J0.685
N7880 X57.332 Y-6.521 Z-6.22 I-1.25 J-0.685
N7885 X59.831 Y-5.152 Z-6.376 I1.25 J0.685
N7890 X57.332 Y-6.521 Z-6.532 I-1.25 J-0.685
N7895 X59.831 Y-5.152 Z-6.689 I1.25 J0.685
N7900 X57.332 Y-6.521 Z-6.845 I-1.25 J-0.685
N7905 X59.831 Y-5.152 Z-7.001 I1.25 J0.685
N7910 X57.332 Y-6.521 Z-7.158 I-1.25 J-0.685
N7915 X59.831 Y-5.152 Z-7.314 I1.25 J0.685
N7920 X57.332 Y-6.521 Z-7.47 I-1.25 J-0.685
N7925 X59.831 Y-5.152 Z-7.627 I1.25 J0.685
N7930 X57.332 Y-6.521 Z-7.783 I-1.25 J-0.685
N7935 X59.831 Y-5.152 Z-7.939 I1.25 J0.685
N7940 X58.368 Y-4.428 Z-8. I-1.25 J-0.685
N7945 X58.632 Y-6.172 I0.132 J-0.872 F1000.
N7950 X58.368 Y-4.428 I-0.132 J0.872
N7955 G2 X57.181 Y-4.009 I-0.2 J1.324
N7960 G3 X55.941 Y-4.226 I-0.55 J-0.506
N7965 X61.058 Y-6.374 I2.558 J-1.074
N7970 X55.941 Y-4.226 I-2.558 J1.074
N7975 G2 X54.345 Y-5.459 I-1.887 J0.792
N7980 G3 X53.308 Y-7.19 I0.184 J-1.286
N7985 X63.692 Y-3.41 I5.192 J1.89
N7990 X53.308 Y-7.19 I-5.192 J-1.89
N7995 G2 X52.896 Y-9.329 I-1.992 J-0.725
N8000 G3 X53.022 Y-11.505 I1.144 J-1.025
N8005 X66.606 Y-3.5 I5.492 J6.209
N8010 G2 X66.561 Y-3.247 I3.065 J0.681
N8015 G3 X66.521 Y-2.993 I-5.933 J-0.815
N8020 X66.309 Y-2.355 I-2.357 J-0.428
N8025 X66.189 Y-2.127 I-5.363 J-2.665
N8030 G2 X66.075 Y-1.897 I2.749 J1.517
N8035 G3 X50.646 Y-7.905 I-7.561 J-3.397
N8040 X53.022 Y-11.505 I7.868 J2.61
N8045 G2 X53.678 Y-13.665 I-1.426 J-1.613
N8050 G3 X54.723 Y-15.665 I1.621 J-0.426
N8055 X69.3 Y-2.902 I3.795 J10.372
N8060 G2 X69.28 Y-2.793 I1.478 J0.328
N8065 G3 X69.261 Y-2.684 I-2.109 J-0.309
N8070 X68.69 Y-0.964 I-7.24 J-1.447
N8075 X68.64 Y-0.866 I-1.926 J-0.914
N8080 G2 X68.591 Y-0.767 I1.332 J0.719
N8085 G3 X48.036 Y-8.771 I-10.074 J-4.525
N8090 X54.723 Y-15.665 I10.482 J3.478
N8095 G2 X56.135 Y-17.48 I-0.745 J-2.036
N8100 G3 X57.802 Y-19.064 I1.757 J0.181
N8105 X71.968 Y-2.31 I0.708 J13.767
N8110 G2 X71.907 Y-1.939 I3.304 J0.734
N8115 G3 X71.865 Y-1.565 I-27.84 J-2.999
N8120 X71.447 Y-0.306 I-3.322 J-0.403
N8125 X71.258 Y0.019 I-24.301 J-13.911
N8130 G2 X71.085 Y0.353 I2.914 J1.721
N8135 G3 X45.426 Y-9.637 I-12.575 J-5.649
N8140 X57.802 Y-19.064 I13.084 J4.341
N8145 G2 X59.703 Y-20.407 I-0.112 J-2.175
N8150 G3 X61.756 Y-21.503 I1.693 J0.7
N8155 X74.636 Y-1.717 I-3.254 J16.203
N8160 G2 X74.557 Y-1.065 I3.304 J0.734
N8165 X74.564 Y-0.409 I9.242 J0.223
N8170 G3 X74.302 Y0.381 I-1.157 J0.054
N8175 G2 X73.904 Y0.903 I7.144 J5.868
N8180 X73.578 Y1.473 I2.762 J1.957
N8185 G3 X42.816 Y-10.503 I-15.076 J-6.772
N8190 X61.756 Y-21.503 I15.686 J5.204
N8195 G2 X63.892 Y-22.33 I0.419 J-2.088
N8200 G3 X66.103 Y-22.93 I1.482 J1.089
N8205 X77.244 Y-1.138 I-7.603 J17.63
N8210 G2 X78.122 Y1.21 I2.245 J0.498
N8215 G1 X78.112
N8220 G2 X76.014 Y2.568 I0. J2.3
N8225 G3 X40.986 Y-13.167 I-17.514 J-7.867
N8230 X66.103 Y-22.93 I17.514 J7.867
N8235 X66.197 Y-22.866 Z-7.977 I-0.119 J0.275
N8240 X66.254 Y-22.787 Z-7.912 I-0.213 J0.211
N8245 X66.276 Y-22.726 Z-7.815 I-0.269 J0.132
N8250 X66.28 Y-22.704 Z-7.7 I-0.291 J0.071
N8255 G0 Z5.
N8260 X103.378 Y4.006
N8265 G1 Z-7.7 F1000.
N8270 X103.373 Y4. Z-7.767
N8275 X103.357 Y3.985 Z-7.83
N8280 X103.331 Y3.96 Z-7.887
N8285 X103.297 Y3.927 Z-7.935
N8290 X103.257 Y3.887 Z-7.97
N8295 X103.211 Y3.843 Z-7.992
N8300 X103.163 Y3.796 Z-8.
N8305 X101.394 Y2.076
N8310 G2 X100. Y1.51 I-1.394 J1.434
N8315 G1 X78.112
N8320 G2 X76.288 Y2.69 I0. J2.
N8325 G3 X40.712 Y-13.29 I-17.788 J-7.99
N8330 X77.536 Y-1.073 I17.788 J7.99
N8335 G2 X79.489 Y1.36 I1.952 J0.433
N8340 G1 X100.
N8345 G2 X101.398 Y0.79 I0. J-2.
N8350 G3 X101.718 Y0.845 I0.14 J0.143
N8355 G1 X102.187 Y1.807
N8360 G3 X101.887 Y2.054 I-0.18 J0.088
N8365 G1 X101.833 Y2.014 Z-8.008
N8370 X101.783 Y1.976 Z-8.03
N8375 X101.738 Y1.941 Z-8.065
N8380 X101.7 Y1.912 Z-8.113
N8385 X101.671 Y1.891 Z-8.17
N8390 X101.654 Y1.877 Z-8.233
N8395 X101.648 Y1.873 Z-8.3
N8400 Z-8.7
N8405 X101.642 Y1.868 Z-8.767
N8410 X101.624 Y1.855 Z-8.83
N8415 X101.595 Y1.833 Z-8.887
N8420 X101.558 Y1.805 Z-8.935
N8425 X101.512 Y1.77 Z-8.97
N8430 X101.462 Y1.732 Z-8.992
N8435 X101.409 Y1.692 Z-9.
N8440 X101.39 Y1.677
N8445 G2 X100.992 Y1.435 I-1.39 J1.833
N8450 X101.394 Y1.19 I-0.992 J-2.075
N8455 G1 X102.587 Y0.281
N8460 X102.64 Y0.24 Z-8.992
N8465 X102.69 Y0.202 Z-8.97
N8470 X102.736 Y0.168 Z-8.935
N8475 X102.773 Y0.139 Z-8.887
N8480 X102.802 Y0.117 Z-8.83
N8485 X102.82 Y0.104 Z-8.767
N8490 X102.826 Y0.099 Z-8.7
N8495 G0 Z5.
N8500 X59.943 Y-5.418
N8505 G1 Z-5.2 F1000.
N8510 G3 X59.931 Y-5.381 Z-5.347 I-1.362 J-0.419 F333.33
N8515 X59.894 Y-5.283 Z-5.456 I-1.35 J-0.455
N8520 X59.831 Y-5.152 Z-5.5 I-1.313 J-0.554
N8525 X57.332 Y-6.521 Z-5.656 I-1.25 J-0.685
N8530 X59.831 Y-5.152 Z-5.813 I1.25 J0.685
N8535 X57.332 Y-6.521 Z-5.969 I-1.25 J-0.685
N8540 X59.831 Y-5.152 Z-6.125 I1.25 J0.685
N8545 X57.332 Y-6.521 Z-6.282 I-1.25 J-0.685
N8550 X59.831 Y-5.152 Z-6.438 I1.25 J0.685
N8555 X57.332 Y-6.521 Z-6.594 I-1.25 J-0.685
N8560 X59.831 Y-5.152 Z-6.751 I1.25 J0.685
N8565 X57.332 Y-6.521 Z-6.907 I-1.25 J-0.685
N8570 X59.831 Y-5.152 Z-7.063 I1.25 J0.685
N8575 X57.332 Y-6.521 Z-7.22 I-1.25 J-0.685
N8580 X59.831 Y-5.152 Z-7.376 I1.25 J0.685
N8585 X57.332 Y-6.521 Z-7.532 I-1.25 J-0.685
N8590 X59.831 Y-5.152 Z-7.689 I1.25 J0.685
N8595 X57.332 Y-6.521 Z-7.845 I-1.25 J-0.685
N8600 X59.831 Y-5.152 Z-8.001 I1.25 J0.685
N8605 X57.332 Y-6.521 Z-8.158 I-1.25 J-0.685
N8610 X59.831 Y-5.152 Z-8.314 I1.25 J0.685
N8615 X57.332 Y-6.521 Z-8.47 I-1.25 J-0.685
N8620 X59.831 Y-5.152 Z-8.627 I1.25 J0.685
N8625 X57.332 Y-6.521 Z-8.783 I-1.25 J-0.685
N8630 X59.831 Y-5.152 Z-8.939 I1.25 J0.685
N8635 X58.368 Y-4.428 Z-9. I-1.25 J-0.685
N8640 X58.632 Y-6.172 I0.132 J-0.872 F1000.
N8645 X58.368 Y-4.428 I-0.132 J0.872
N8650 G2 X57.181 Y-4.009 I-0.2 J1.324
N8655 G3 X55.941 Y-4.226 I-0.55 J-0.506
N8660 X61.058 Y-6.374 I2.558 J-1.074
N8665 X55.941 Y-4.226 I-2.558 J1.074
N8670 G2 X54.345 Y-5.459 I-1.887 J0.792
N8675 G3 X53.308 Y-7.19 I0.184 J-1.286
N8680 X63.692 Y-3.41 I5.192 J1.89
N8685 X53.308 Y-7.19 I-5.192 J-1.89
N8690 G2 X52.896 Y-9.329 I-1.992 J-0.725
N8695 G3 X53.022 Y-11.505 I1.144 J-1.025
N8700 X66.606 Y-3.5 I5.492 J6.209
N8705 G2 X66.561 Y-3.247 I3.065 J0.681
N8710 G3 X66.521 Y-2.993 I-5.933 J-0.815
N8715 X66.309 Y-2.355 I-2.357 J-0.428
N8720 X66.189 Y-2.127 I-5.363 J-2.665
N8725 G2 X66.075 Y-1.897 I2.749 J1.517
N8730 G3 X50.646 Y-7.905 I-7.561 J-3.397
N8735 X53.022 Y-11.505 I7.868 J2.61
N8740 G2 X53.678 Y-13.665 I-1.426 J-1.613
N8745 G3 X54.723 Y-15.665 I1.621 J-0.426
N8750 X69.3 Y-2.902 I3.795 J10.372
N8755 G2 X69.28 Y-2.793 I1.478 J0.328
N8760 G3 X69.261 Y-2.684 I-2.109 J-0.309
N8765 X68.69 Y-0.964 I-7.24 J-1.447
N8770 X68.64 Y-0.866 I-1.926 J-0.914
N8775 G2 X68.591 Y-0.767 I1.332 J0.719
N8780 G3 X48.036 Y-8.771 I-10.074 J-4.525
N8785 X54.723 Y-15.665 I10.482 J3.478
N8790 G2 X56.135 Y-17.48 I-0.745 J-2.036
N8795 G3 X57.802 Y-19.064 I1.757 J0.181
N8800 X71.968 Y-2.31 I0.708 J13.767
N8805 G2 X71.907 Y-1.939 I3.304 J0.734
N8810 G3 X71.865 Y-1.565 I-27.84 J-2.999
N8815 X71.447 Y-0.306 I-3.322 J-0.403
N8820 X71.258 Y0.019 I-24.301 J-13.911
N8825 G2 X71.085 Y0.353 I2.914 J1.721
N8830 G3 X45.426 Y-9.637 I-12.575 J-5.649
N8835 X57.802 Y-19.064 I13.084 J4.341
N8840 G2 X59.703 Y-20.407 I-0.112 J-2.175
N8845 G3 X61.756 Y-21.503 I1.693 J0.7
N8850 X74.636 Y-1.717 I-3.254 J16.203
N8855 G2 X74.557 Y-1.065 I3.304 J0.734
N8860 X74.564 Y-0.409 I9.242 J0.223
N8865 G3 X74.302 Y0.381 I-1.157 J0.054
N8870 G2 X73.904 Y0.903 I7.144 J5.868
N8875 X73.578 Y1.473 I2.762 J1.957
N8880 G3 X42.816 Y-10.503 I-15.076 J-6.772
N8885 X61.756 Y-21.503 I15.686 J5.204
N8890 G2 X63.892 Y-22.33 I0.419 J-2.088
N8895 G3 X66.103 Y-22.93 I1.482 J1.089
N8900 X77.244 Y-1.138 I-7.603 J17.63
N8905 G2 X78.122 Y1.21 I2.245 J0.498
N8910 G1 X78.112
N8915 G2 X76.014 Y2.568 I0. J2.3
N8920 G3 X40.986 Y-13.167 I-17.514 J-7.867
N8925 X66.103 Y-22.93 I17.514 J7.867
N8930 X66.197 Y-22.866 Z-8.977 I-0.119 J0.275
N8935 X66.254 Y-22.787 Z-8.912 I-0.213 J0.211
N8940 X66.276 Y-22.726 Z-8.815 I-0.269 J0.132
N8945 X66.28 Y-22.704 Z-8.7 I-0.291 J0.071
N8950 G0 Z5.
N8955 X103.378 Y4.006
N8960 G1 Z-8.7 F1000.
N8965 X103.373 Y4. Z-8.767
N8970 X103.357 Y3.985 Z-8.83
N8975 X103.331 Y3.96 Z-8.887
N8980 X103.297 Y3.927 Z-8.935
N8985 X103.257 Y3.887 Z-8.97
N8990 X103.211 Y3.843 Z-8.992
N8995 X103.163 Y3.796 Z-9.
N9000 X101.394 Y2.076
N9005 G2 X100. Y1.51 I-1.394 J1.434
N9010 G1 X78.112
N9015 G2 X76.288 Y2.69 I0. J2.
N9020 G3 X40.712 Y-13.29 I-17.788 J-7.99
N9025 X77.536 Y-1.073 I17.788 J7.99
N9030 G2 X79.489 Y1.36 I1.952 J0.433
N9035 G1 X100.
N9040 G2 X101.398 Y0.79 I0. J-2.
N9045 G3 X101.718 Y0.846 I0.14 J0.143
N9050 G1 X102.181 Y1.803
N9055 G3 X101.88 Y2.049 I-0.18 J0.087
N9060 G1 X101.832 Y2.013 Z-9.006
N9065 X101.787 Y1.978 Z-9.024
N9070 X101.745 Y1.947 Z-9.053
N9075 X101.708 Y1.919 Z-9.091
N9080 X101.678 Y1.896 Z-9.139
N9085 X101.657 Y1.88 Z-9.192
N9090 X101.644 Y1.87 Z-9.25
N9095 X101.632 Y1.861 Z-9.308
N9100 X101.61 Y1.844 Z-9.361
N9105 X101.58 Y1.822 Z-9.409
N9110 X101.544 Y1.794 Z-9.447
N9115 X101.502 Y1.762 Z-9.476
N9120 X101.456 Y1.728 Z-9.494
N9125 X101.409 Y1.692 Z-9.5
N9130 X101.39 Y1.677
N9135 G2 X100.992 Y1.435 I-1.39 J1.833
N9140 X101.394 Y1.19 I-0.992 J-2.075
N9145 G1 X102.587 Y0.281
N9150 X102.64 Y0.24 Z-9.492
N9155 X102.69 Y0.202 Z-9.47
N9160 X102.736 Y0.168 Z-9.435
N9165 X102.773 Y0.139 Z-9.387
N9170 X102.802 Y0.117 Z-9.33
N9175 X102.82 Y0.104 Z-9.267
N9180 X102.826 Y0.099 Z-9.2
N9185 G0 Z5.
N9190 X57.719 Y-6.971
N9195 G1 Z-6.2 F1000.
N9200 G3 X57.75 Y-6.994 Z-6.347 I0.862 J1.135 F333.33
N9205 X57.838 Y-7.052 Z-6.456 I0.831 J1.158
N9210 X57.966 Y-7.122 Z-6.5 I0.743 J1.216
N9215 X59.196 Y-4.551 Z-6.656 I0.615 J1.285
N9220 X57.966 Y-7.122 Z-6.813 I-0.615 J-1.285
N9225 X59.196 Y-4.551 Z-6.969 I0.615 J1.285
N9230 X57.966 Y-7.122 Z-7.125 I-0.615 J-1.285
N9235 X59.196 Y-4.551 Z-7.282 I0.615 J1.285
N9240 X57.966 Y-7.122 Z-7.438 I-0.615 J-1.285
N9245 X59.196 Y-4.551 Z-7.594 I0.615 J1.285
N9250 X57.966 Y-7.122 Z-7.751 I-0.615 J-1.285
N9255 X59.196 Y-4.551 Z-7.907 I0.615 J1.285
N9260 X57.966 Y-7.122 Z-8.063 I-0.615 J-1.285
N9265 X59.196 Y-4.551 Z-8.22 I0.615 J1.285
N9270 X57.966 Y-7.122 Z-8.376 I-0.615 J-1.285
N9275 X59.196 Y-4.551 Z-8.532 I0.615 J1.285
N9280 X57.966 Y-7.122 Z-8.689 I-0.615 J-1.285
N9285 X59.196 Y-4.551 Z-8.845 I0.615 J1.285
N9290 X57.966 Y-7.122 Z-9.001 I-0.615 J-1.285
N9295 X59.196 Y-4.551 Z-9.158 I0.615 J1.285
N9300 X57.966 Y-7.122 Z-9.314 I-0.615 J-1.285
N9305 X59.196 Y-4.551 Z-9.47 I0.615 J1.285
N9310 X58.368 Y-4.428 Z-9.5 I-0.615 J-1.285
N9315 X58.632 Y-6.172 I0.132 J-0.872 F1000.
N9320 X58.368 Y-4.428 I-0.132 J0.872
N9325 G2 X57.181 Y-4.009 I-0.2 J1.324
N9330 G3 X55.941 Y-4.226 I-0.55 J-0.506
N9335 X61.058 Y-6.374 I2.558 J-1.074
N9340 X55.941 Y-4.226 I-2.558 J1.074
N9345 G2 X54.345 Y-5.459 I-1.887 J0.792
N9350 G3 X53.308 Y-7.19 I0.184 J-1.286
N9355 X63.692 Y-3.41 I5.192 J1.89
N9360 X53.308 Y-7.19 I-5.192 J-1.89
N9365 G2 X52.896 Y-9.329 I-1.992 J-0.725
N9370 G3 X53.022 Y-11.505 I1.144 J-1.025
N9375 X66.606 Y-3.5 I5.492 J6.209
N9380 G2 X66.561 Y-3.247 I3.065 J0.681
N9385 G3 X66.521 Y-2.993 I-5.933 J-0.815
N9390 X66.309 Y-2.355 I-2.357 J-0.428
N9395 X66.189 Y-2.127 I-5.363 J-2.665
N9400 G2 X66.075 Y-1.897 I2.749 J1.517
N9405 G3 X50.646 Y-7.905 I-7.561 J-3.397
N9410 X53.022 Y-11.505 I7.868 J2.61
N9415 G2 X53.678 Y-13.665 I-1.426 J-1.613
N9420 G3 X54.723 Y-15.665 I1.621 J-0.426
N9425 X69.3 Y-2.902 I3.795 J10.372
N9430 G2 X69.28 Y-2.793 I1.478 J0.328
N9435 G3 X69.261 Y-2.684 I-2.109 J-0.309
N9440 X68.69 Y-0.964 I-7.24 J-1.447
N9445 X68.64 Y-0.866 I-1.926 J-0.914
N9450 G2 X68.591 Y-0.767 I1.332 J0.719
N9455 G3 X48.036 Y-8.771 I-10.074 J-4.525
N9460 X54.723 Y-15.665 I10.482 J3.478
N9465 G2 X56.135 Y-17.48 I-0.745 J-2.036
N9470 G3 X57.802 Y-19.064 I1.757 J0.181
N9475 X71.968 Y-2.31 I0.708 J13.767
N9480 G2 X71.907 Y-1.939 I3.304 J0.734
N9485 G3 X71.865 Y-1.565 I-27.84 J-2.999
N9490 X71.447 Y-0.306 I-3.322 J-0.403
N9495 X71.258 Y0.019 I-24.301 J-13.911
N9500 G2 X71.085 Y0.353 I2.914 J1.721
N9505 G3 X45.426 Y-9.637 I-12.575 J-5.649
N9510 X57.802 Y-19.064 I13.084 J4.341
N9515 G2 X59.703 Y-20.407 I-0.112 J-2.175
N9520 G3 X61.756 Y-21.503 I1.693 J0.7
N9525 X74.636 Y-1.717 I-3.254 J16.203
N9530 G2 X74.557 Y-1.065 I3.304 J0.734
N9535 X74.564 Y-0.409 I9.242 J0.223
N9540 G3 X74.302 Y0.381 I-1.157 J0.054
N9545 G2 X73.904 Y0.903 I7.144 J5.868
N9550 X73.578 Y1.473 I2.762 J1.957
N9555 G3 X42.816 Y-10.503 I-15.076 J-6.772
N9560 X61.756 Y-21.503 I15.686 J5.204
N9565 G2 X63.892 Y-22.33 I0.419 J-2.088
N9570 G3 X66.103 Y-22.93 I1.482 J1.089
N9575 X77.244 Y-1.138 I-7.603 J17.63
N9580 G2 X78.122 Y1.21 I2.245 J0.498
N9585 G1 X78.112
N9590 G2 X76.014 Y2.568 I0. J2.3
N9595 G3 X40.986 Y-13.167 I-17.514 J-7.867
N9600 X66.103 Y-22.93 I17.514 J7.867
N9605 X66.197 Y-22.866 Z-9.477 I-0.119 J0.275
N9610 X66.254 Y-22.787 Z-9.412 I-0.213 J0.211
N9615 X66.276 Y-22.726 Z-9.315 I-0.269 J0.132
N9620 X66.28 Y-22.704 Z-9.2 I-0.291 J0.071
N9625 G0 Z5.
N9630 X103.378 Y4.006
N9635 G1 Z-9.2 F1000.
N9640 X103.373 Y4. Z-9.267
N9645 X103.357 Y3.985 Z-9.33
N9650 X103.331 Y3.96 Z-9.387
N9655 X103.297 Y3.927 Z-9.435
N9660 X103.257 Y3.887 Z-9.47
N9665 X103.211 Y3.843 Z-9.492
N9670 X103.163 Y3.796 Z-9.5
N9675 X101.394 Y2.076
N9680 G2 X100. Y1.51 I-1.394 J1.434
N9685 G1 X78.112
N9690 G2 X76.288 Y2.69 I0. J2.
N9695 G3 X40.712 Y-13.29 I-17.788 J-7.99
N9700 X77.536 Y-1.073 I17.788 J7.99
N9705 G2 X79.489 Y1.36 I1.952 J0.433
N9710 G1 X100.
N9715 G2 X101.398 Y0.79 I0. J-2.
N9720 G1 X102.471 Y-0.259
N9725 X102.518 Y-0.305 Z-9.492
N9730 X102.564 Y-0.35 Z-9.47
N9735 X102.604 Y-0.389 Z-9.435
N9740 X102.638 Y-0.423 Z-9.387
N9745 X102.664 Y-0.448 Z-9.33
N9750 X102.68 Y-0.463 Z-9.267
N9755 X102.685 Y-0.468 Z-9.2
N9760 G0 Z15.
N9770 M9
N9775 G53 Z0.
N9780 M30
%
